( pcb2gcode 1.3.2 )
( Software-independent Gcode )

G94 ( Millimeters per minute feed rate. )
G21 ( Units == Millimeters. )

G90 ( Absolute coordinates. )
S10000 ( RPM spindle speed. )
F300.00000 ( Feedrate. )

F300.00000 ( Feedrate. )
M3 ( Spindle on clockwise. )
G04 P0 ( dwell for no time -- G64 should not smooth over this point )
G00 Z1.00000 ( retract )

G00 X11.49299 Y5.80214 ( rapid move to begin. )
F150.00000
G01 Z-0.06000
G04 P0 ( dwell for no time -- G64 should not smooth over this point )
F300.00000
G01 X11.49299 Y5.80214
X11.45194 Y5.44091
X11.34333 Y5.10908
X11.15222 Y4.78269
X10.90666 Y4.51452
X10.62375 Y4.30994
X10.29144 Y4.16199
X9.95012 Y4.08866
X9.58657 Y4.08561
X9.20244 Y4.16725
X8.88382 Y4.30994
X8.57918 Y4.53410
X8.33816 Y4.80636
X8.16424 Y5.10908
X8.05563 Y5.44091
X8.01382 Y5.81677
X8.05563 Y6.19267
X8.16424 Y6.52447
X8.33816 Y6.82721
X8.57918 Y7.09947
X8.88377 Y7.32363
X9.21611 Y7.47158
X9.57191 Y7.54720
X9.92103 Y7.54799
X10.29144 Y7.47158
X10.61069 Y7.33028
X10.92840 Y7.09947
X11.16942 Y6.82721
X11.34333 Y6.52449
X11.45801 Y6.16407
X11.49299 Y5.80214
G04 P0 ( dwell for no time -- G64 should not smooth over this point )
G00 Z1.00000 ( retract )

G00 X19.52383 Y6.11393 ( rapid move to begin. )
F150.00000
G01 Z-0.06000
G04 P0 ( dwell for no time -- G64 should not smooth over this point )
F300.00000
G01 X19.52383 Y6.11393
X19.52383 Y19.99762
X19.40631 Y20.05081
X19.24603 Y20.16630
X19.08469 Y20.34550
X18.98657 Y20.51697
X18.92480 Y20.70463
X18.89884 Y20.92977
X18.92480 Y21.15495
X18.98657 Y21.34258
X19.08469 Y21.51408
X19.22429 Y21.67369
X19.40628 Y21.80877
X19.60014 Y21.89508
X19.80770 Y21.93917
X20.00524 Y21.93996
X20.22741 Y21.89508
X20.40821 Y21.81542
X20.60328 Y21.67369
X20.74288 Y21.51408
X20.84100 Y21.34260
X20.90277 Y21.15495
X20.92873 Y20.92977
X20.90277 Y20.70463
X20.84100 Y20.51697
X20.74288 Y20.34550
X20.58154 Y20.16630
X20.42124 Y20.05081
X20.30377 Y19.99767
X20.30377 Y6.11393
X20.42127 Y6.06077
X20.58154 Y5.94527
X20.74288 Y5.76608
X20.84100 Y5.59460
X20.90277 Y5.40695
X20.92873 Y5.18177
X20.90884 Y4.98523
X20.84626 Y4.78266
X20.72569 Y4.57383
X20.58154 Y4.41830
X20.43356 Y4.31078
X20.22741 Y4.21650
X20.03432 Y4.17469
X19.80770 Y4.17240
X19.60014 Y4.21650
X19.41936 Y4.29615
X19.24603 Y4.41830
X19.10189 Y4.57383
X18.98132 Y4.78266
X18.91873 Y4.98523
X18.89884 Y5.18177
X18.92480 Y5.40695
X18.98657 Y5.59458
X19.08469 Y5.76608
X19.22429 Y5.92569
X19.40628 Y6.06077
X19.52383 Y6.11393
G04 P0 ( dwell for no time -- G64 should not smooth over this point )
G00 Z1.00000 ( retract )

G00 X22.11382 Y8.16818 ( rapid move to begin. )
F150.00000
G01 Z-0.06000
G04 P0 ( dwell for no time -- G64 should not smooth over this point )
F300.00000
G01 X22.11382 Y8.16818
X22.11382 Y16.16537
X21.94631 Y16.24081
X21.78603 Y16.35630
X21.62469 Y16.53550
X21.52657 Y16.70697
X21.46480 Y16.89463
X21.43884 Y17.11977
X21.46480 Y17.34495
X21.52657 Y17.53258
X21.62469 Y17.70408
X21.76429 Y17.86369
X21.94628 Y17.99877
X22.14014 Y18.08508
X22.34770 Y18.12917
X22.54524 Y18.12996
X22.76741 Y18.08508
X22.94821 Y18.00542
X23.14328 Y17.86369
X23.28288 Y17.70408
X23.38100 Y17.53260
X23.44277 Y17.34495
X23.46873 Y17.11977
X23.44277 Y16.89463
X23.38100 Y16.70697
X23.28288 Y16.53550
X23.12154 Y16.35630
X22.96124 Y16.24081
X22.79378 Y16.16542
X22.79378 Y8.16818
X22.96127 Y8.09277
X23.12154 Y7.97727
X23.28288 Y7.79808
X23.38100 Y7.62660
X23.44277 Y7.43895
X23.46797 Y7.19914
X23.44277 Y6.98863
X23.38626 Y6.81466
X23.26569 Y6.60583
X23.12154 Y6.45030
X22.97356 Y6.34278
X22.76741 Y6.24850
X22.57432 Y6.20669
X22.34770 Y6.20440
X22.14014 Y6.24850
X21.95936 Y6.32815
X21.78603 Y6.45030
X21.64189 Y6.60583
X21.52132 Y6.81466
X21.45873 Y7.01723
X21.43884 Y7.21377
X21.46480 Y7.43895
X21.52657 Y7.62658
X21.62469 Y7.79808
X21.76429 Y7.95769
X21.94628 Y8.09277
X22.11382 Y8.16818
G04 P0 ( dwell for no time -- G64 should not smooth over this point )
G00 Z1.00000 ( retract )

G00 X18.38797 Y12.02514 ( rapid move to begin. )
F150.00000
G01 Z-0.06000
G04 P0 ( dwell for no time -- G64 should not smooth over this point )
F300.00000
G01 X18.38797 Y12.02514
X18.36277 Y11.81463
X18.30100 Y11.62697
X18.18569 Y11.43183
X18.04154 Y11.27630
X17.88124 Y11.16081
X17.68741 Y11.07450
X17.49432 Y11.03269
X17.28236 Y11.02964
X17.04647 Y11.07976
X16.86631 Y11.16081
X16.68429 Y11.29588
X16.54469 Y11.45550
X16.44657 Y11.62697
X16.38480 Y11.81463
X16.35884 Y12.03977
X16.38480 Y12.26495
X16.44657 Y12.45258
X16.54469 Y12.62408
X16.68429 Y12.78369
X16.86628 Y12.91877
X17.06014 Y13.00508
X17.26770 Y13.04917
X17.46524 Y13.04996
X17.68741 Y13.00508
X17.88127 Y12.91877
X18.05292 Y12.79405
X18.18569 Y12.64775
X18.30626 Y12.43891
X18.36884 Y12.23635
X18.38797 Y12.02514
G04 P0 ( dwell for no time -- G64 should not smooth over this point )
G00 Z1.00000 ( retract )

G00 X18.38797 Y14.56514 ( rapid move to begin. )
F150.00000
G01 Z-0.06000
G04 P0 ( dwell for no time -- G64 should not smooth over this point )
F300.00000
G01 X18.38797 Y14.56514
X18.36277 Y14.35463
X18.30100 Y14.16697
X18.18569 Y13.97183
X18.04154 Y13.81630
X17.88124 Y13.70081
X17.68741 Y13.61450
X17.49432 Y13.57269
X17.28236 Y13.56964
X17.04647 Y13.61976
X16.86631 Y13.70081
X16.68429 Y13.83588
X16.54469 Y13.99550
X16.44657 Y14.16697
X16.38480 Y14.35463
X16.35884 Y14.57977
X16.38480 Y14.80495
X16.44657 Y14.99258
X16.54469 Y15.16408
X16.68429 Y15.32369
X16.86628 Y15.45877
X17.06014 Y15.54508
X17.26770 Y15.58917
X17.46524 Y15.58996
X17.68741 Y15.54508
X17.88127 Y15.45877
X18.05292 Y15.33405
X18.18569 Y15.18775
X18.30626 Y14.97891
X18.36884 Y14.77635
X18.38797 Y14.56514
G04 P0 ( dwell for no time -- G64 should not smooth over this point )
G00 Z1.00000 ( retract )

G00 X18.38797 Y17.10514 ( rapid move to begin. )
F150.00000
G01 Z-0.06000
G04 P0 ( dwell for no time -- G64 should not smooth over this point )
F300.00000
G01 X18.38797 Y17.10514
X18.36277 Y16.89463
X18.30100 Y16.70697
X18.18569 Y16.51183
X18.04154 Y16.35630
X17.88124 Y16.24081
X17.68741 Y16.15450
X17.49432 Y16.11269
X17.28236 Y16.10964
X17.04647 Y16.15976
X16.86631 Y16.24081
X16.68429 Y16.37588
X16.54469 Y16.53550
X16.44657 Y16.70697
X16.38480 Y16.89463
X16.35884 Y17.11977
X16.38480 Y17.34495
X16.44657 Y17.53258
X16.54469 Y17.70408
X16.68429 Y17.86369
X16.86628 Y17.99877
X17.06014 Y18.08508
X17.26770 Y18.12917
X17.46524 Y18.12996
X17.68741 Y18.08508
X17.88127 Y17.99877
X18.05292 Y17.87405
X18.18569 Y17.72775
X18.30626 Y17.51891
X18.36884 Y17.31635
X18.38797 Y17.10514
G04 P0 ( dwell for no time -- G64 should not smooth over this point )
G00 Z1.00000 ( retract )

G00 X18.38797 Y19.64514 ( rapid move to begin. )
F150.00000
G01 Z-0.06000
G04 P0 ( dwell for no time -- G64 should not smooth over this point )
F300.00000
G01 X18.38797 Y19.64514
X18.36277 Y19.43463
X18.30100 Y19.24697
X18.18569 Y19.05183
X18.04154 Y18.89630
X17.88124 Y18.78081
X17.68741 Y18.69450
X17.49432 Y18.65269
X17.28236 Y18.64964
X17.04647 Y18.69976
X16.86631 Y18.78081
X16.68429 Y18.91588
X16.54469 Y19.07550
X16.44657 Y19.24697
X16.38480 Y19.43463
X16.35884 Y19.65977
X16.38480 Y19.88495
X16.44657 Y20.07258
X16.54469 Y20.24408
X16.68429 Y20.40369
X16.86628 Y20.53877
X17.06014 Y20.62508
X17.26770 Y20.66917
X17.46524 Y20.66996
X17.68741 Y20.62508
X17.88127 Y20.53877
X18.05292 Y20.41405
X18.18569 Y20.26775
X18.30626 Y20.05891
X18.36884 Y19.85635
X18.38797 Y19.64514
G04 P0 ( dwell for no time -- G64 should not smooth over this point )
G00 Z1.00000 ( retract )

G00 X18.38797 Y22.18514 ( rapid move to begin. )
F150.00000
G01 Z-0.06000
G04 P0 ( dwell for no time -- G64 should not smooth over this point )
F300.00000
G01 X18.38797 Y22.18514
X18.36277 Y21.97463
X18.30100 Y21.78697
X18.18569 Y21.59183
X18.04154 Y21.43630
X17.88124 Y21.32081
X17.68741 Y21.23450
X17.49432 Y21.19269
X17.28236 Y21.18964
X17.04647 Y21.23976
X16.86631 Y21.32081
X16.68429 Y21.45588
X16.54469 Y21.61550
X16.44657 Y21.78697
X16.38480 Y21.97463
X16.35884 Y22.19977
X16.38480 Y22.42495
X16.44657 Y22.61258
X16.54469 Y22.78408
X16.68429 Y22.94369
X16.86628 Y23.07877
X17.06014 Y23.16508
X17.26770 Y23.20917
X17.46524 Y23.20996
X17.68741 Y23.16508
X17.88127 Y23.07877
X18.05292 Y22.95405
X18.18569 Y22.80775
X18.30626 Y22.59891
X18.36884 Y22.39635
X18.38797 Y22.18514
G04 P0 ( dwell for no time -- G64 should not smooth over this point )
G00 Z1.00000 ( retract )

G00 X18.38797 Y24.72514 ( rapid move to begin. )
F150.00000
G01 Z-0.06000
G04 P0 ( dwell for no time -- G64 should not smooth over this point )
F300.00000
G01 X18.38797 Y24.72514
X18.36277 Y24.51463
X18.30100 Y24.32697
X18.18569 Y24.13183
X18.04154 Y23.97630
X17.88124 Y23.86081
X17.68741 Y23.77450
X17.49432 Y23.73269
X17.28236 Y23.72964
X17.04647 Y23.77976
X16.86631 Y23.86081
X16.68429 Y23.99588
X16.54469 Y24.15550
X16.44657 Y24.32697
X16.38480 Y24.51463
X16.35884 Y24.73977
X16.38480 Y24.96495
X16.44657 Y25.15258
X16.54469 Y25.32408
X16.68429 Y25.48369
X16.86628 Y25.61877
X17.06014 Y25.70508
X17.26770 Y25.74917
X17.46524 Y25.74996
X17.68741 Y25.70508
X17.88127 Y25.61877
X18.05292 Y25.49405
X18.18569 Y25.34775
X18.30626 Y25.13891
X18.36884 Y24.93635
X18.38797 Y24.72514
G04 P0 ( dwell for no time -- G64 should not smooth over this point )
G00 Z1.00000 ( retract )

G00 X18.38797 Y27.26514 ( rapid move to begin. )
F150.00000
G01 Z-0.06000
G04 P0 ( dwell for no time -- G64 should not smooth over this point )
F300.00000
G01 X18.38797 Y27.26514
X18.36277 Y27.05463
X18.30100 Y26.86697
X18.18569 Y26.67183
X18.04154 Y26.51630
X17.88124 Y26.40081
X17.68741 Y26.31450
X17.49432 Y26.27269
X17.28236 Y26.26964
X17.04647 Y26.31976
X16.86631 Y26.40081
X16.68429 Y26.53588
X16.54469 Y26.69550
X16.44657 Y26.86697
X16.38480 Y27.05463
X16.35884 Y27.27977
X16.38480 Y27.50495
X16.44657 Y27.69258
X16.54469 Y27.86408
X16.68429 Y28.02369
X16.86628 Y28.15877
X17.06014 Y28.24508
X17.26770 Y28.28917
X17.46524 Y28.28996
X17.68741 Y28.24508
X17.88127 Y28.15877
X18.05292 Y28.03405
X18.18569 Y27.88775
X18.30626 Y27.67891
X18.36884 Y27.47635
X18.38797 Y27.26514
G04 P0 ( dwell for no time -- G64 should not smooth over this point )
G00 Z1.00000 ( retract )

G00 X18.38797 Y29.80514 ( rapid move to begin. )
F150.00000
G01 Z-0.06000
G04 P0 ( dwell for no time -- G64 should not smooth over this point )
F300.00000
G01 X18.38797 Y29.80514
X18.36277 Y29.59463
X18.30100 Y29.40697
X18.18569 Y29.21183
X18.04154 Y29.05630
X17.88124 Y28.94081
X17.68741 Y28.85450
X17.49432 Y28.81269
X17.28236 Y28.80964
X17.04647 Y28.85976
X16.86631 Y28.94081
X16.68429 Y29.07588
X16.54469 Y29.23550
X16.44657 Y29.40697
X16.38480 Y29.59463
X16.35884 Y29.81977
X16.38480 Y30.04495
X16.44657 Y30.23258
X16.54469 Y30.40408
X16.68429 Y30.56369
X16.86628 Y30.69877
X17.06014 Y30.78508
X17.26770 Y30.82917
X17.46524 Y30.82996
X17.68741 Y30.78508
X17.88127 Y30.69877
X18.05292 Y30.57405
X18.18569 Y30.42775
X18.30626 Y30.21891
X18.36884 Y30.01635
X18.38797 Y29.80514
G04 P0 ( dwell for no time -- G64 should not smooth over this point )
G00 Z1.00000 ( retract )

G00 X18.38797 Y32.34514 ( rapid move to begin. )
F150.00000
G01 Z-0.06000
G04 P0 ( dwell for no time -- G64 should not smooth over this point )
F300.00000
G01 X18.38797 Y32.34514
X18.36277 Y32.13463
X18.30100 Y31.94697
X18.18569 Y31.75183
X18.04154 Y31.59630
X17.88124 Y31.48081
X17.68741 Y31.39450
X17.49432 Y31.35269
X17.28236 Y31.34964
X17.04647 Y31.39976
X16.86631 Y31.48081
X16.68429 Y31.61588
X16.54469 Y31.77550
X16.44657 Y31.94697
X16.38480 Y32.13463
X16.35884 Y32.35977
X16.38480 Y32.58495
X16.44657 Y32.77258
X16.54469 Y32.94408
X16.68429 Y33.10369
X16.86628 Y33.23877
X17.06014 Y33.32508
X17.26770 Y33.36917
X17.46524 Y33.36996
X17.68741 Y33.32508
X17.88127 Y33.23877
X18.05292 Y33.11405
X18.18569 Y32.96775
X18.30626 Y32.75891
X18.36884 Y32.55635
X18.38797 Y32.34514
G04 P0 ( dwell for no time -- G64 should not smooth over this point )
G00 Z1.00000 ( retract )

G00 X18.38797 Y34.88514 ( rapid move to begin. )
F150.00000
G01 Z-0.06000
G04 P0 ( dwell for no time -- G64 should not smooth over this point )
F300.00000
G01 X18.38797 Y34.88514
X18.36277 Y34.67463
X18.30100 Y34.48697
X18.18569 Y34.29183
X18.04154 Y34.13630
X17.88124 Y34.02081
X17.68741 Y33.93450
X17.49432 Y33.89269
X17.28236 Y33.88964
X17.04647 Y33.93976
X16.86631 Y34.02081
X16.68429 Y34.15588
X16.54469 Y34.31550
X16.44657 Y34.48697
X16.38480 Y34.67463
X16.35884 Y34.89977
X16.38480 Y35.12495
X16.44657 Y35.31258
X16.54469 Y35.48408
X16.68429 Y35.64369
X16.86628 Y35.77877
X17.06014 Y35.86508
X17.26770 Y35.90917
X17.46524 Y35.90996
X17.68741 Y35.86508
X17.88127 Y35.77877
X18.05292 Y35.65405
X18.18569 Y35.50775
X18.30626 Y35.29891
X18.36884 Y35.09635
X18.38797 Y34.88514
G04 P0 ( dwell for no time -- G64 should not smooth over this point )
G00 Z1.00000 ( retract )

G00 X18.38797 Y37.42514 ( rapid move to begin. )
F150.00000
G01 Z-0.06000
G04 P0 ( dwell for no time -- G64 should not smooth over this point )
F300.00000
G01 X18.38797 Y37.42514
X18.36277 Y37.21463
X18.30100 Y37.02697
X18.18569 Y36.83183
X18.04154 Y36.67630
X17.88124 Y36.56081
X17.68741 Y36.47450
X17.49432 Y36.43269
X17.28236 Y36.42964
X17.04647 Y36.47976
X16.86631 Y36.56081
X16.68429 Y36.69588
X16.54469 Y36.85550
X16.44657 Y37.02697
X16.38480 Y37.21463
X16.35884 Y37.43977
X16.38480 Y37.66495
X16.44657 Y37.85258
X16.54469 Y38.02408
X16.68429 Y38.18369
X16.86628 Y38.31877
X17.06014 Y38.40508
X17.26770 Y38.44917
X17.46524 Y38.44996
X17.68741 Y38.40508
X17.88127 Y38.31877
X18.05292 Y38.19405
X18.18569 Y38.04775
X18.30626 Y37.83891
X18.36884 Y37.63635
X18.38797 Y37.42514
G04 P0 ( dwell for no time -- G64 should not smooth over this point )
G00 Z1.00000 ( retract )

G00 X18.38797 Y39.96514 ( rapid move to begin. )
F150.00000
G01 Z-0.06000
G04 P0 ( dwell for no time -- G64 should not smooth over this point )
F300.00000
G01 X18.38797 Y39.96514
X18.36277 Y39.75463
X18.30100 Y39.56697
X18.18569 Y39.37183
X18.04154 Y39.21630
X17.88124 Y39.10081
X17.68741 Y39.01450
X17.49432 Y38.97269
X17.28236 Y38.96964
X17.04647 Y39.01976
X16.86631 Y39.10081
X16.68429 Y39.23588
X16.54469 Y39.39550
X16.44657 Y39.56697
X16.38480 Y39.75463
X16.35884 Y39.97977
X16.38480 Y40.20495
X16.44657 Y40.39258
X16.54469 Y40.56408
X16.68429 Y40.72369
X16.86628 Y40.85877
X17.06014 Y40.94508
X17.26770 Y40.98917
X17.46524 Y40.98996
X17.68741 Y40.94508
X17.88127 Y40.85877
X18.05292 Y40.73405
X18.18569 Y40.58775
X18.30626 Y40.37891
X18.36884 Y40.17635
X18.38797 Y39.96514
G04 P0 ( dwell for no time -- G64 should not smooth over this point )
G00 Z1.00000 ( retract )

G00 X18.38797 Y42.50514 ( rapid move to begin. )
F150.00000
G01 Z-0.06000
G04 P0 ( dwell for no time -- G64 should not smooth over this point )
F300.00000
G01 X18.38797 Y42.50514
X18.36277 Y42.29463
X18.30100 Y42.10697
X18.18569 Y41.91183
X18.04154 Y41.75630
X17.88124 Y41.64081
X17.68741 Y41.55450
X17.49432 Y41.51269
X17.28236 Y41.50964
X17.04647 Y41.55976
X16.86631 Y41.64081
X16.68429 Y41.77588
X16.54469 Y41.93550
X16.44657 Y42.10697
X16.38480 Y42.29463
X16.35884 Y42.51977
X16.38480 Y42.74495
X16.44657 Y42.93258
X16.54469 Y43.10408
X16.68429 Y43.26369
X16.86628 Y43.39877
X17.06014 Y43.48508
X17.26770 Y43.52917
X17.46524 Y43.52996
X17.68741 Y43.48508
X17.88127 Y43.39877
X18.05292 Y43.27405
X18.18569 Y43.12775
X18.30626 Y42.91891
X18.36884 Y42.71635
X18.38797 Y42.50514
G04 P0 ( dwell for no time -- G64 should not smooth over this point )
G00 Z1.00000 ( retract )

G00 X18.38797 Y45.04514 ( rapid move to begin. )
F150.00000
G01 Z-0.06000
G04 P0 ( dwell for no time -- G64 should not smooth over this point )
F300.00000
G01 X18.38797 Y45.04514
X18.36277 Y44.83463
X18.30100 Y44.64697
X18.18569 Y44.45183
X18.04154 Y44.29630
X17.88124 Y44.18081
X17.68741 Y44.09450
X17.49432 Y44.05269
X17.28236 Y44.04964
X17.04647 Y44.09976
X16.86631 Y44.18081
X16.68429 Y44.31588
X16.54469 Y44.47550
X16.44657 Y44.64697
X16.38480 Y44.83463
X16.35884 Y45.05977
X16.38480 Y45.28495
X16.44657 Y45.47258
X16.54469 Y45.64408
X16.68429 Y45.80369
X16.86628 Y45.93877
X17.06014 Y46.02508
X17.26770 Y46.06917
X17.46524 Y46.06996
X17.68741 Y46.02508
X17.88127 Y45.93877
X18.05292 Y45.81405
X18.18569 Y45.66775
X18.30626 Y45.45891
X18.36884 Y45.25635
X18.38797 Y45.04514
G04 P0 ( dwell for no time -- G64 should not smooth over this point )
G00 Z1.00000 ( retract )

G00 X18.38797 Y47.58514 ( rapid move to begin. )
F150.00000
G01 Z-0.06000
G04 P0 ( dwell for no time -- G64 should not smooth over this point )
F300.00000
G01 X18.38797 Y47.58514
X18.36277 Y47.37463
X18.30100 Y47.18697
X18.18569 Y46.99183
X18.04154 Y46.83630
X17.88124 Y46.72081
X17.68741 Y46.63450
X17.49432 Y46.59269
X17.28236 Y46.58964
X17.04647 Y46.63976
X16.86631 Y46.72081
X16.68429 Y46.85588
X16.54469 Y47.01550
X16.44657 Y47.18697
X16.38480 Y47.37463
X16.35884 Y47.59977
X16.38480 Y47.82495
X16.44657 Y48.01258
X16.54469 Y48.18408
X16.68429 Y48.34369
X16.86628 Y48.47877
X17.06014 Y48.56508
X17.26770 Y48.60917
X17.46524 Y48.60996
X17.68741 Y48.56508
X17.88127 Y48.47877
X18.05292 Y48.35405
X18.18569 Y48.20775
X18.30626 Y47.99891
X18.36884 Y47.79635
X18.38797 Y47.58514
G04 P0 ( dwell for no time -- G64 should not smooth over this point )
G00 Z1.00000 ( retract )

G00 X11.14183 Y48.78593 ( rapid move to begin. )
F150.00000
G01 Z-0.06000
G04 P0 ( dwell for no time -- G64 should not smooth over this point )
F300.00000
G01 X11.14183 Y48.78593
X11.14183 Y54.79562
X11.02431 Y54.84881
X10.86403 Y54.96430
X10.70269 Y55.14350
X10.60457 Y55.31497
X10.54280 Y55.50263
X10.51760 Y55.74243
X10.54280 Y55.95295
X10.60457 Y56.14058
X10.71989 Y56.33575
X10.86403 Y56.49127
X11.02428 Y56.60677
X11.21814 Y56.69308
X11.42570 Y56.73717
X11.62324 Y56.73796
X11.84541 Y56.69308
X12.02621 Y56.61342
X12.22128 Y56.47169
X12.36088 Y56.31208
X12.45900 Y56.14060
X12.52077 Y55.95295
X12.54673 Y55.72777
X12.52077 Y55.50263
X12.45900 Y55.31497
X12.36088 Y55.14350
X12.19954 Y54.96430
X12.03924 Y54.84881
X11.92177 Y54.79567
X11.92177 Y48.78593
X12.03927 Y48.73277
X12.19954 Y48.61727
X12.36088 Y48.43808
X12.45900 Y48.26660
X12.52077 Y48.07895
X12.54597 Y47.83914
X12.52077 Y47.62863
X12.46426 Y47.45466
X12.34369 Y47.24583
X12.19954 Y47.09030
X12.05156 Y46.98278
X11.84541 Y46.88850
X11.65232 Y46.84669
X11.42570 Y46.84440
X11.21814 Y46.88850
X11.03736 Y46.96815
X10.86403 Y47.09030
X10.71989 Y47.24583
X10.59932 Y47.45466
X10.53673 Y47.65723
X10.51684 Y47.85377
X10.54280 Y48.07895
X10.60457 Y48.26658
X10.70269 Y48.43808
X10.84229 Y48.59769
X11.02428 Y48.73277
X11.14183 Y48.78593
G04 P0 ( dwell for no time -- G64 should not smooth over this point )
G00 Z1.00000 ( retract )

G00 X6.18360 Y50.67455 ( rapid move to begin. )
F150.00000
G01 Z-0.06000
G04 P0 ( dwell for no time -- G64 should not smooth over this point )
F300.00000
G01 X6.18360 Y50.67455
X5.98480 Y50.69766
X5.82071 Y50.74912
X5.64431 Y50.84376
X5.49056 Y50.97198
X5.36577 Y51.12849
X5.27504 Y51.30696
X5.22211 Y51.50000
X5.20910 Y51.69972
X5.23659 Y51.89804
X5.30339 Y52.08671
X5.40687 Y52.25811
X5.54268 Y52.40515
X5.70532 Y52.52186
X5.88817 Y52.60342
X6.08363 Y52.64653
X6.19069 Y52.65356
X6.38307 Y52.63560
X6.57486 Y52.57845
X6.75127 Y52.48381
X6.90501 Y52.35559
X7.02980 Y52.19908
X7.12053 Y52.02062
X7.17346 Y51.82758
X7.18647 Y51.62786
X7.15899 Y51.42954
X7.09218 Y51.24086
X6.98871 Y51.06947
X6.85289 Y50.92242
X6.69026 Y50.80571
X6.50740 Y50.72415
X6.31195 Y50.68105
X6.18360 Y50.67455
G04 P0 ( dwell for no time -- G64 should not smooth over this point )
G00 Z1.00000 ( retract )

G00 X6.18360 Y53.21452 ( rapid move to begin. )
F150.00000
G01 Z-0.06000
G04 P0 ( dwell for no time -- G64 should not smooth over this point )
F300.00000
G01 X6.18360 Y53.21452
X5.98480 Y53.23763
X5.82071 Y53.28910
X5.64431 Y53.38374
X5.49056 Y53.51195
X5.36577 Y53.66847
X5.27504 Y53.84693
X5.22211 Y54.03997
X5.20910 Y54.23969
X5.23659 Y54.43801
X5.30339 Y54.62668
X5.40687 Y54.79808
X5.54268 Y54.94512
X5.70532 Y55.06184
X5.88817 Y55.14340
X6.08363 Y55.18650
X6.19069 Y55.19354
X6.38307 Y55.17558
X6.57486 Y55.11843
X6.75127 Y55.02379
X6.90501 Y54.89557
X7.02980 Y54.73905
X7.12053 Y54.56059
X7.17346 Y54.36755
X7.18647 Y54.16783
X7.15899 Y53.96951
X7.09218 Y53.78084
X6.98871 Y53.60944
X6.85289 Y53.46240
X6.69026 Y53.34569
X6.50740 Y53.26413
X6.31195 Y53.22102
X6.18360 Y53.21452
G04 P0 ( dwell for no time -- G64 should not smooth over this point )
G00 Z1.00000 ( retract )

G00 X6.18360 Y55.75455 ( rapid move to begin. )
F150.00000
G01 Z-0.06000
G04 P0 ( dwell for no time -- G64 should not smooth over this point )
F300.00000
G01 X6.18360 Y55.75455
X5.98480 Y55.77766
X5.82071 Y55.82912
X5.64431 Y55.92376
X5.49056 Y56.05198
X5.36577 Y56.20849
X5.27504 Y56.38696
X5.22211 Y56.58000
X5.20910 Y56.77972
X5.23659 Y56.97804
X5.30339 Y57.16671
X5.40687 Y57.33811
X5.54268 Y57.48515
X5.70532 Y57.60186
X5.88817 Y57.68342
X6.08363 Y57.72653
X6.19069 Y57.73356
X6.38307 Y57.71560
X6.57486 Y57.65845
X6.75127 Y57.56381
X6.90501 Y57.43559
X7.02980 Y57.27908
X7.12053 Y57.10062
X7.17346 Y56.90758
X7.18647 Y56.70786
X7.15899 Y56.50954
X7.09218 Y56.32086
X6.98871 Y56.14947
X6.85289 Y56.00242
X6.69026 Y55.88571
X6.50740 Y55.80415
X6.31195 Y55.76105
X6.18360 Y55.75455
G04 P0 ( dwell for no time -- G64 should not smooth over this point )
G00 Z1.00000 ( retract )

G00 X5.20783 Y58.43381 ( rapid move to begin. )
F150.00000
G01 Z-0.06000
G04 P0 ( dwell for no time -- G64 should not smooth over this point )
F300.00000
G01 X5.20783 Y58.43381
X5.20783 Y60.13379
X5.21848 Y60.18733
X5.24883 Y60.23274
X5.29425 Y60.26310
X5.34781 Y60.27376
X7.04779 Y60.27376
X7.10133 Y60.26310
X7.14674 Y60.23274
X7.17710 Y60.18733
X7.18776 Y60.13379
X7.18776 Y58.43381
X7.17710 Y58.38025
X7.14674 Y58.33483
X7.10133 Y58.30448
X7.04779 Y58.29383
X5.34781 Y58.29383
X5.29425 Y58.30448
X5.24883 Y58.33483
X5.21848 Y58.38025
X5.20783 Y58.43381
G04 P0 ( dwell for no time -- G64 should not smooth over this point )
G00 Z1.00000 ( retract )

G00 X5.20783 Y63.76781 ( rapid move to begin. )
F150.00000
G01 Z-0.06000
G04 P0 ( dwell for no time -- G64 should not smooth over this point )
F300.00000
G01 X5.20783 Y63.76781
X5.20783 Y65.46779
X5.21848 Y65.52133
X5.24883 Y65.56674
X5.29425 Y65.59710
X5.34781 Y65.60776
X7.04779 Y65.60776
X7.10133 Y65.59710
X7.14674 Y65.56674
X7.17710 Y65.52133
X7.18776 Y65.46779
X7.18776 Y63.76781
X7.17710 Y63.71425
X7.14674 Y63.66883
X7.10133 Y63.63848
X7.04779 Y63.62783
X5.34781 Y63.62783
X5.29425 Y63.63848
X5.24883 Y63.66883
X5.21848 Y63.71425
X5.20783 Y63.76781
G04 P0 ( dwell for no time -- G64 should not smooth over this point )
G00 Z1.00000 ( retract )

G00 X6.18360 Y66.16855 ( rapid move to begin. )
F150.00000
G01 Z-0.06000
G04 P0 ( dwell for no time -- G64 should not smooth over this point )
F300.00000
G01 X6.18360 Y66.16855
X5.98480 Y66.19166
X5.82071 Y66.24312
X5.64431 Y66.33776
X5.49056 Y66.46598
X5.36577 Y66.62249
X5.27504 Y66.80096
X5.22211 Y66.99400
X5.20910 Y67.19372
X5.23659 Y67.39204
X5.30339 Y67.58071
X5.40687 Y67.75211
X5.54268 Y67.89915
X5.70532 Y68.01586
X5.88817 Y68.09742
X6.08363 Y68.14053
X6.19069 Y68.14756
X6.38307 Y68.12960
X6.57486 Y68.07245
X6.75127 Y67.97781
X6.90501 Y67.84959
X7.02980 Y67.69308
X7.12053 Y67.51462
X7.17346 Y67.32158
X7.18647 Y67.12186
X7.15899 Y66.92354
X7.09218 Y66.73486
X6.98871 Y66.56347
X6.85289 Y66.41642
X6.69026 Y66.29971
X6.50740 Y66.21815
X6.31195 Y66.17505
X6.18360 Y66.16855
G04 P0 ( dwell for no time -- G64 should not smooth over this point )
G00 Z1.00000 ( retract )

G00 X11.49299 Y72.47714 ( rapid move to begin. )
F150.00000
G01 Z-0.06000
G04 P0 ( dwell for no time -- G64 should not smooth over this point )
F300.00000
G01 X11.49299 Y72.47714
X11.45194 Y72.11591
X11.34333 Y71.78408
X11.15222 Y71.45769
X10.90666 Y71.18952
X10.62375 Y70.98494
X10.29144 Y70.83699
X9.95012 Y70.76366
X9.58657 Y70.76061
X9.20244 Y70.84225
X8.88382 Y70.98494
X8.57918 Y71.20910
X8.33816 Y71.48136
X8.16424 Y71.78408
X8.05563 Y72.11591
X8.01382 Y72.49177
X8.05563 Y72.86767
X8.16424 Y73.19947
X8.33816 Y73.50221
X8.57918 Y73.77447
X8.88377 Y73.99863
X9.21611 Y74.14658
X9.57191 Y74.22220
X9.92103 Y74.22299
X10.29144 Y74.14658
X10.61069 Y74.00528
X10.92840 Y73.77447
X11.16942 Y73.50221
X11.34333 Y73.19949
X11.45801 Y72.83907
X11.49299 Y72.47714
G04 P0 ( dwell for no time -- G64 should not smooth over this point )
G00 Z1.00000 ( retract )

G00 X24.30782 Y60.00780 ( rapid move to begin. )
F150.00000
G01 Z-0.06000
G04 P0 ( dwell for no time -- G64 should not smooth over this point )
F300.00000
G01 X24.30782 Y60.00780
X24.30782 Y61.60780
X24.31846 Y61.66134
X24.34882 Y61.70676
X24.39423 Y61.73711
X24.44780 Y61.74778
X26.04780 Y61.74778
X26.10134 Y61.73711
X26.14676 Y61.70676
X26.17711 Y61.66134
X26.18778 Y61.60780
X26.18778 Y60.00780
X26.17711 Y59.95423
X26.14676 Y59.90882
X26.10134 Y59.87846
X26.04780 Y59.86782
X24.44780 Y59.86782
X24.39423 Y59.87846
X24.34882 Y59.90882
X24.31846 Y59.95423
X24.30782 Y60.00780
G04 P0 ( dwell for no time -- G64 should not smooth over this point )
G00 Z1.00000 ( retract )

G00 X26.18699 Y58.29312 ( rapid move to begin. )
F150.00000
G01 Z-0.06000
G04 P0 ( dwell for no time -- G64 should not smooth over this point )
F300.00000
G01 X26.18699 Y58.29312
X26.16342 Y58.09820
X26.10650 Y57.92543
X25.99900 Y57.74390
X25.86535 Y57.60001
X25.71775 Y57.49373
X25.53822 Y57.41380
X25.36050 Y57.37524
X25.16418 Y57.37220
X24.94366 Y57.41906
X24.77782 Y57.49373
X24.60848 Y57.61959
X24.47937 Y57.76755
X24.38908 Y57.92546
X24.33216 Y58.09820
X24.30782 Y58.30775
X24.33216 Y58.51733
X24.38908 Y58.69007
X24.47937 Y58.84799
X24.60848 Y58.99594
X24.77777 Y59.12180
X24.95733 Y59.20173
X25.14953 Y59.24258
X25.33142 Y59.24336
X25.53822 Y59.20173
X25.70470 Y59.12845
X25.88709 Y58.99594
X26.01620 Y58.84799
X26.10650 Y58.69007
X26.16949 Y58.48873
X26.18699 Y58.29312
G04 P0 ( dwell for no time -- G64 should not smooth over this point )
G00 Z1.00000 ( retract )

G00 X32.86252 Y57.37796 ( rapid move to begin. )
F150.00000
G01 Z-0.06000
G04 P0 ( dwell for no time -- G64 should not smooth over this point )
F300.00000
G01 X32.86252 Y57.37796
X32.68370 Y57.39902
X32.53879 Y57.44448
X32.37997 Y57.52937
X32.22200 Y57.66501
X32.12904 Y57.78510
X32.04718 Y57.94550
X31.99498 Y58.14705
X31.98871 Y58.32701
X32.01172 Y58.47712
X32.08403 Y58.67237
X32.16437 Y58.80125
X32.28632 Y58.93371
X32.45723 Y59.05266
X32.62381 Y59.12104
X32.77258 Y59.15162
X33.87440 Y59.15832
X34.06787 Y59.13656
X34.23884 Y59.07991
X34.39482 Y58.99002
X34.52957 Y58.87057
X34.63752 Y58.72642
X34.71423 Y58.56353
X34.75659 Y58.38853
X34.76287 Y58.20857
X34.73277 Y58.03107
X34.68004 Y57.88865
X34.58720 Y57.73432
X34.46526 Y57.60186
X34.29434 Y57.48291
X34.12777 Y57.41454
X33.97900 Y57.38396
X32.86252 Y57.37796
G04 P0 ( dwell for no time -- G64 should not smooth over this point )
G00 Z1.00000 ( retract )

G00 X32.86252 Y54.83796 ( rapid move to begin. )
F150.00000
G01 Z-0.06000
G04 P0 ( dwell for no time -- G64 should not smooth over this point )
F300.00000
G01 X32.86252 Y54.83796
X32.68370 Y54.85902
X32.53879 Y54.90448
X32.37997 Y54.98937
X32.22200 Y55.12501
X32.12904 Y55.24510
X32.04718 Y55.40550
X31.99498 Y55.60705
X31.98871 Y55.78701
X32.01172 Y55.93712
X32.08403 Y56.13237
X32.16437 Y56.26125
X32.28632 Y56.39371
X32.45723 Y56.51266
X32.62381 Y56.58104
X32.77258 Y56.61162
X33.87440 Y56.61832
X34.06787 Y56.59656
X34.23884 Y56.53991
X34.39482 Y56.45002
X34.52957 Y56.33057
X34.63752 Y56.18642
X34.71423 Y56.02353
X34.75659 Y55.84853
X34.76287 Y55.66857
X34.73277 Y55.49107
X34.68004 Y55.34865
X34.58720 Y55.19432
X34.46526 Y55.06186
X34.29434 Y54.94291
X34.12777 Y54.87454
X33.97900 Y54.84396
X32.86252 Y54.83796
G04 P0 ( dwell for no time -- G64 should not smooth over this point )
G00 Z1.00000 ( retract )

G00 X36.54183 Y54.11990 ( rapid move to begin. )
F150.00000
G01 Z-0.06000
G04 P0 ( dwell for no time -- G64 should not smooth over this point )
F300.00000
G01 X36.54183 Y54.11990
X36.54183 Y57.33562
X36.42431 Y57.38881
X36.26403 Y57.50430
X36.10269 Y57.68350
X36.00457 Y57.85497
X35.94280 Y58.04263
X35.91760 Y58.28243
X35.94280 Y58.49295
X36.00457 Y58.68058
X36.11989 Y58.87575
X36.26403 Y59.03127
X36.42428 Y59.14677
X36.61814 Y59.23308
X36.82570 Y59.27717
X37.02324 Y59.27796
X37.24541 Y59.23308
X37.42621 Y59.15342
X37.62128 Y59.01169
X37.76088 Y58.85208
X37.85900 Y58.68060
X37.92077 Y58.49295
X37.94673 Y58.26777
X37.92077 Y58.04263
X37.85900 Y57.85497
X37.76088 Y57.68350
X37.59954 Y57.50430
X37.43924 Y57.38881
X37.32177 Y57.33567
X37.32177 Y54.11990
X37.43927 Y54.06674
X37.61092 Y53.94203
X37.74369 Y53.79572
X37.85235 Y53.61363
X37.92684 Y53.38432
X37.94673 Y53.18775
X37.92684 Y52.99120
X37.85900 Y52.77495
X37.74369 Y52.57980
X37.59954 Y52.42428
X37.45156 Y52.31676
X37.24541 Y52.22247
X37.05232 Y52.18066
X36.82570 Y52.17838
X36.61814 Y52.22247
X36.43736 Y52.30213
X36.26403 Y52.42428
X36.11989 Y52.57980
X35.99932 Y52.78864
X35.93673 Y52.99120
X35.91684 Y53.18775
X35.94280 Y53.41292
X36.00457 Y53.60055
X36.10269 Y53.77205
X36.24229 Y53.93166
X36.42428 Y54.06674
X36.54183 Y54.11990
G04 P0 ( dwell for no time -- G64 should not smooth over this point )
G00 Z1.00000 ( retract )

G00 X40.41099 Y55.71314 ( rapid move to begin. )
F150.00000
G01 Z-0.06000
G04 P0 ( dwell for no time -- G64 should not smooth over this point )
F300.00000
G01 X40.41099 Y55.71314
X40.38742 Y55.51822
X40.33050 Y55.34545
X40.22300 Y55.16392
X40.08935 Y55.02003
X39.94175 Y54.91376
X39.76222 Y54.83382
X39.58450 Y54.79526
X39.38818 Y54.79222
X39.16766 Y54.83908
X39.00182 Y54.91376
X38.83248 Y55.03961
X38.70337 Y55.18757
X38.61308 Y55.34548
X38.55616 Y55.51822
X38.53182 Y55.72777
X38.55616 Y55.93735
X38.61308 Y56.11010
X38.70337 Y56.26801
X38.83248 Y56.41596
X39.00177 Y56.54182
X39.18133 Y56.62175
X39.37353 Y56.66260
X39.55542 Y56.66338
X39.76222 Y56.62175
X39.92870 Y56.54847
X40.11109 Y56.41596
X40.24020 Y56.26801
X40.33050 Y56.11010
X40.39349 Y55.90875
X40.41099 Y55.71314
G04 P0 ( dwell for no time -- G64 should not smooth over this point )
G00 Z1.00000 ( retract )

G00 X43.90783 Y54.11990 ( rapid move to begin. )
F150.00000
G01 Z-0.06000
G04 P0 ( dwell for no time -- G64 should not smooth over this point )
F300.00000
G01 X43.90783 Y54.11990
X43.90783 Y57.33562
X43.79031 Y57.38881
X43.63003 Y57.50430
X43.46869 Y57.68350
X43.37057 Y57.85497
X43.30880 Y58.04263
X43.28360 Y58.28243
X43.30880 Y58.49295
X43.37057 Y58.68058
X43.48589 Y58.87575
X43.63003 Y59.03127
X43.79028 Y59.14677
X43.98414 Y59.23308
X44.19170 Y59.27717
X44.38924 Y59.27796
X44.61141 Y59.23308
X44.79221 Y59.15342
X44.98728 Y59.01169
X45.12688 Y58.85208
X45.22500 Y58.68060
X45.28677 Y58.49295
X45.31273 Y58.26777
X45.28677 Y58.04263
X45.22500 Y57.85497
X45.12688 Y57.68350
X44.96554 Y57.50430
X44.80524 Y57.38881
X44.68777 Y57.33567
X44.68777 Y54.11990
X44.80527 Y54.06674
X44.97692 Y53.94203
X45.10969 Y53.79572
X45.21835 Y53.61363
X45.29284 Y53.38432
X45.31273 Y53.18775
X45.29284 Y52.99120
X45.22500 Y52.77495
X45.10969 Y52.57980
X44.96554 Y52.42428
X44.81756 Y52.31676
X44.61141 Y52.22247
X44.41832 Y52.18066
X44.19170 Y52.17838
X43.98414 Y52.22247
X43.80336 Y52.30213
X43.63003 Y52.42428
X43.48589 Y52.57980
X43.36532 Y52.78864
X43.30273 Y52.99120
X43.28284 Y53.18775
X43.30880 Y53.41292
X43.37057 Y53.60055
X43.46869 Y53.77205
X43.60829 Y53.93166
X43.79028 Y54.06674
X43.90783 Y54.11990
G04 P0 ( dwell for no time -- G64 should not smooth over this point )
G00 Z1.00000 ( retract )

G00 X45.50346 Y48.95578 ( rapid move to begin. )
F150.00000
G01 Z-0.06000
G04 P0 ( dwell for no time -- G64 should not smooth over this point )
F300.00000
G01 X45.50346 Y48.95578
X65.44409 Y48.95578
X65.47523 Y49.04166
X65.58389 Y49.22375
X65.72803 Y49.37927
X65.88828 Y49.49477
X66.09631 Y49.58486
X66.28970 Y49.62517
X66.48724 Y49.62596
X66.70941 Y49.58108
X66.89021 Y49.50142
X67.08528 Y49.35969
X67.22488 Y49.20008
X67.32300 Y49.02860
X67.38477 Y48.84095
X67.41073 Y48.61577
X67.38477 Y48.39063
X67.32300 Y48.20297
X67.22488 Y48.03150
X67.08528 Y47.87188
X66.90324 Y47.73681
X66.72310 Y47.65576
X66.48724 Y47.60564
X66.28970 Y47.60640
X66.09631 Y47.64671
X65.88831 Y47.73681
X65.72803 Y47.85230
X65.58389 Y48.00783
X65.47523 Y48.18992
X65.44411 Y48.27582
X45.50349 Y48.27582
X45.47900 Y48.20297
X45.38088 Y48.03150
X45.21954 Y47.85230
X45.05924 Y47.73681
X44.87910 Y47.65576
X44.64324 Y47.60564
X44.44570 Y47.60640
X44.25231 Y47.64671
X44.04431 Y47.73681
X43.88403 Y47.85230
X43.73989 Y48.00783
X43.62457 Y48.20297
X43.56280 Y48.39063
X43.53684 Y48.61577
X43.56280 Y48.84095
X43.62457 Y49.02858
X43.72269 Y49.20008
X43.86229 Y49.35969
X44.04428 Y49.49477
X44.22447 Y49.57582
X44.44570 Y49.62517
X44.64324 Y49.62596
X44.86541 Y49.58108
X45.04621 Y49.50142
X45.23092 Y49.37005
X45.36369 Y49.22375
X45.47235 Y49.04166
X45.50346 Y48.95578
G04 P0 ( dwell for no time -- G64 should not smooth over this point )
G00 Z1.00000 ( retract )

G00 X47.77321 Y47.35477 ( rapid move to begin. )
F150.00000
G01 Z-0.06000
G04 P0 ( dwell for no time -- G64 should not smooth over this point )
F300.00000
G01 X47.77321 Y47.35477
X63.17432 Y47.35477
X63.29789 Y47.57275
X63.44203 Y47.72827
X63.60228 Y47.84377
X63.81031 Y47.93386
X64.00370 Y47.97417
X64.20124 Y47.97496
X64.42341 Y47.93008
X64.60421 Y47.85042
X64.79928 Y47.70869
X64.93888 Y47.54908
X65.03700 Y47.37760
X65.09877 Y47.18995
X65.12473 Y46.96477
X65.09877 Y46.73963
X65.03700 Y46.55197
X64.93888 Y46.38050
X64.79928 Y46.22088
X64.61724 Y46.08581
X64.43710 Y46.00476
X64.20124 Y45.95464
X64.00370 Y45.95540
X63.81031 Y45.99571
X63.60231 Y46.08581
X63.44203 Y46.20130
X63.29789 Y46.35683
X63.17434 Y46.57483
X47.77326 Y46.57483
X47.66688 Y46.38050
X47.50554 Y46.20130
X47.34524 Y46.08581
X47.16510 Y46.00476
X46.92924 Y45.95464
X46.73170 Y45.95540
X46.53831 Y45.99571
X46.33031 Y46.08581
X46.17003 Y46.20130
X46.02589 Y46.35683
X45.91057 Y46.55197
X45.84880 Y46.73963
X45.82284 Y46.96477
X45.84880 Y47.18995
X45.91057 Y47.37758
X46.00869 Y47.54908
X46.14829 Y47.70869
X46.33028 Y47.84377
X46.51047 Y47.92482
X46.73170 Y47.97417
X46.92924 Y47.97496
X47.15141 Y47.93008
X47.33221 Y47.85042
X47.51692 Y47.71905
X47.64969 Y47.57275
X47.77321 Y47.35477
G04 P0 ( dwell for no time -- G64 should not smooth over this point )
G00 Z1.00000 ( retract )

G00 X45.50346 Y45.65378 ( rapid move to begin. )
F150.00000
G01 Z-0.06000
G04 P0 ( dwell for no time -- G64 should not smooth over this point )
F300.00000
G01 X45.50346 Y45.65378
X65.44409 Y45.65378
X65.47523 Y45.73966
X65.58389 Y45.92175
X65.72803 Y46.07727
X65.88828 Y46.19277
X66.09631 Y46.28286
X66.28970 Y46.32317
X66.48724 Y46.32396
X66.70941 Y46.27908
X66.89021 Y46.19942
X67.08528 Y46.05769
X67.22488 Y45.89808
X67.32300 Y45.72660
X67.38477 Y45.53895
X67.41073 Y45.31377
X67.38477 Y45.08863
X67.32300 Y44.90097
X67.22488 Y44.72950
X67.08528 Y44.56988
X66.90324 Y44.43481
X66.72310 Y44.35376
X66.48724 Y44.30364
X66.28970 Y44.30440
X66.09631 Y44.34471
X65.88831 Y44.43481
X65.72803 Y44.55030
X65.58389 Y44.70583
X65.47523 Y44.88792
X65.44411 Y44.97382
X45.50349 Y44.97382
X45.47900 Y44.90097
X45.38088 Y44.72950
X45.21954 Y44.55030
X45.05924 Y44.43481
X44.87910 Y44.35376
X44.64324 Y44.30364
X44.44570 Y44.30440
X44.25231 Y44.34471
X44.04431 Y44.43481
X43.88403 Y44.55030
X43.73989 Y44.70583
X43.62457 Y44.90097
X43.56280 Y45.08863
X43.53684 Y45.31377
X43.56280 Y45.53895
X43.62457 Y45.72658
X43.72269 Y45.89808
X43.86229 Y46.05769
X44.04428 Y46.19277
X44.22447 Y46.27382
X44.44570 Y46.32317
X44.64324 Y46.32396
X44.86541 Y46.27908
X45.04621 Y46.19942
X45.23092 Y46.06805
X45.36369 Y45.92175
X45.47235 Y45.73966
X45.50346 Y45.65378
G04 P0 ( dwell for no time -- G64 should not smooth over this point )
G00 Z1.00000 ( retract )

G00 X49.80521 Y52.05377 ( rapid move to begin. )
F150.00000
G01 Z-0.06000
G04 P0 ( dwell for no time -- G64 should not smooth over this point )
F300.00000
G01 X49.80521 Y52.05377
X65.46032 Y52.05377
X65.58389 Y52.27175
X65.72803 Y52.42727
X65.88828 Y52.54277
X66.09631 Y52.63286
X66.28970 Y52.67317
X66.48724 Y52.67396
X66.70941 Y52.62908
X66.89021 Y52.54942
X67.08528 Y52.40769
X67.22488 Y52.24808
X67.32300 Y52.07660
X67.38477 Y51.88895
X67.41073 Y51.66377
X67.38477 Y51.43863
X67.32300 Y51.25097
X67.22488 Y51.07950
X67.08528 Y50.91988
X66.90324 Y50.78481
X66.72310 Y50.70376
X66.48724 Y50.65364
X66.28970 Y50.65440
X66.09631 Y50.69471
X65.88831 Y50.78481
X65.72803 Y50.90030
X65.58389 Y51.05583
X65.46034 Y51.27383
X49.80526 Y51.27383
X49.69888 Y51.07950
X49.53754 Y50.90030
X49.37724 Y50.78481
X49.19710 Y50.70376
X48.96124 Y50.65364
X48.76370 Y50.65440
X48.57031 Y50.69471
X48.36231 Y50.78481
X48.20203 Y50.90030
X48.05789 Y51.05583
X47.94257 Y51.25097
X47.88080 Y51.43863
X47.85484 Y51.66377
X47.88080 Y51.88895
X47.94257 Y52.07658
X48.04069 Y52.24808
X48.18029 Y52.40769
X48.36228 Y52.54277
X48.54247 Y52.62382
X48.76370 Y52.67317
X48.96124 Y52.67396
X49.18341 Y52.62908
X49.36421 Y52.54942
X49.54892 Y52.41805
X49.68169 Y52.27175
X49.80521 Y52.05377
G04 P0 ( dwell for no time -- G64 should not smooth over this point )
G00 Z1.00000 ( retract )

G00 X51.91699 Y55.51482 ( rapid move to begin. )
F150.00000
G01 Z-0.06000
G04 P0 ( dwell for no time -- G64 should not smooth over this point )
F300.00000
G01 X51.91699 Y55.51482
X51.88585 Y55.42892
X51.77719 Y55.24683
X51.63304 Y55.09130
X51.45971 Y54.96915
X51.27891 Y54.88950
X51.05674 Y54.84464
X50.85920 Y54.84540
X50.63797 Y54.89476
X50.45781 Y54.97581
X50.27579 Y55.11088
X50.13619 Y55.27050
X50.03807 Y55.44197
X49.97630 Y55.62963
X49.95034 Y55.85477
X49.97630 Y56.07995
X50.03807 Y56.26758
X50.15339 Y56.46275
X50.29753 Y56.61827
X50.45778 Y56.73377
X50.66581 Y56.82386
X50.85920 Y56.86417
X51.05674 Y56.86496
X51.29260 Y56.81482
X51.47277 Y56.73377
X51.63304 Y56.61827
X51.79438 Y56.43908
X51.89250 Y56.26760
X51.91696 Y56.19478
X63.47559 Y56.19478
X63.50673 Y56.28066
X63.61539 Y56.46275
X63.75953 Y56.61827
X63.91978 Y56.73377
X64.12781 Y56.82386
X64.32120 Y56.86417
X64.51874 Y56.86496
X64.74091 Y56.82008
X64.92171 Y56.74042
X65.11678 Y56.59869
X65.25638 Y56.43908
X65.35450 Y56.26760
X65.41627 Y56.07995
X65.44223 Y55.85477
X65.41627 Y55.62963
X65.35450 Y55.44197
X65.25638 Y55.27050
X65.11678 Y55.11088
X64.93474 Y54.97581
X64.75460 Y54.89476
X64.51874 Y54.84464
X64.32120 Y54.84540
X64.12781 Y54.88571
X63.91981 Y54.97581
X63.75953 Y55.09130
X63.61539 Y55.24683
X63.50673 Y55.42892
X63.47561 Y55.51482
X51.91699 Y55.51482
G04 P0 ( dwell for no time -- G64 should not smooth over this point )
G00 Z1.00000 ( retract )

G00 X53.93563 Y62.91653 ( rapid move to begin. )
F150.00000
G01 Z-0.06000
G04 P0 ( dwell for no time -- G64 should not smooth over this point )
F300.00000
G01 X53.93563 Y62.91653
X53.74683 Y62.93861
X53.56639 Y62.99825
X53.40162 Y63.09299
X53.25925 Y63.21895
X53.14523 Y63.37096
X53.06408 Y63.54287
X53.02351 Y63.69956
X53.01104 Y63.88920
X53.03697 Y64.07749
X53.10027 Y64.25669
X53.19839 Y64.41950
X53.32725 Y64.55923
X53.48158 Y64.67012
X53.65513 Y64.74772
X53.84068 Y64.78879
X53.94269 Y64.79557
X54.12498 Y64.77866
X54.30718 Y64.72451
X54.47472 Y64.63477
X54.62079 Y64.51315
X54.73938 Y64.36464
X54.82564 Y64.19527
X54.87606 Y64.01201
X54.88853 Y63.82237
X54.86260 Y63.63408
X54.79930 Y63.45489
X54.70118 Y63.29207
X54.57233 Y63.15235
X54.41800 Y63.04145
X54.24444 Y62.96385
X54.05889 Y62.92278
X53.93563 Y62.91653
G04 P0 ( dwell for no time -- G64 should not smooth over this point )
G00 Z1.00000 ( retract )

G00 X56.47563 Y62.91653 ( rapid move to begin. )
F150.00000
G01 Z-0.06000
G04 P0 ( dwell for no time -- G64 should not smooth over this point )
F300.00000
G01 X56.47563 Y62.91653
X56.28683 Y62.93861
X56.10639 Y62.99825
X55.94162 Y63.09299
X55.79925 Y63.21895
X55.68523 Y63.37096
X55.60408 Y63.54287
X55.56351 Y63.69956
X55.55104 Y63.88920
X55.57697 Y64.07749
X55.64027 Y64.25669
X55.73839 Y64.41950
X55.86725 Y64.55923
X56.02158 Y64.67012
X56.19513 Y64.74772
X56.38068 Y64.78879
X56.48269 Y64.79557
X56.66498 Y64.77866
X56.84718 Y64.72451
X57.01472 Y64.63477
X57.16079 Y64.51315
X57.27938 Y64.36464
X57.36564 Y64.19527
X57.41606 Y64.01201
X57.42853 Y63.82237
X57.40260 Y63.63408
X57.33930 Y63.45489
X57.24118 Y63.29207
X57.11233 Y63.15235
X56.95800 Y63.04145
X56.78444 Y62.96385
X56.59889 Y62.92278
X56.47563 Y62.91653
G04 P0 ( dwell for no time -- G64 should not smooth over this point )
G00 Z1.00000 ( retract )

G00 X59.01563 Y62.91653 ( rapid move to begin. )
F150.00000
G01 Z-0.06000
G04 P0 ( dwell for no time -- G64 should not smooth over this point )
F300.00000
G01 X59.01563 Y62.91653
X58.82683 Y62.93861
X58.64639 Y62.99825
X58.48162 Y63.09299
X58.33925 Y63.21895
X58.22523 Y63.37096
X58.14408 Y63.54287
X58.10351 Y63.69956
X58.09104 Y63.88920
X58.11697 Y64.07749
X58.18027 Y64.25669
X58.27839 Y64.41950
X58.40725 Y64.55923
X58.56158 Y64.67012
X58.73513 Y64.74772
X58.92068 Y64.78879
X59.02269 Y64.79557
X59.20498 Y64.77866
X59.38718 Y64.72451
X59.55472 Y64.63477
X59.70079 Y64.51315
X59.81938 Y64.36464
X59.90564 Y64.19527
X59.95606 Y64.01201
X59.96853 Y63.82237
X59.94260 Y63.63408
X59.87930 Y63.45489
X59.78118 Y63.29207
X59.65233 Y63.15235
X59.49800 Y63.04145
X59.32444 Y62.96385
X59.13889 Y62.92278
X59.01563 Y62.91653
G04 P0 ( dwell for no time -- G64 should not smooth over this point )
G00 Z1.00000 ( retract )

G00 X61.55563 Y62.91653 ( rapid move to begin. )
F150.00000
G01 Z-0.06000
G04 P0 ( dwell for no time -- G64 should not smooth over this point )
F300.00000
G01 X61.55563 Y62.91653
X61.36683 Y62.93861
X61.18639 Y62.99825
X61.02162 Y63.09299
X60.87925 Y63.21895
X60.76523 Y63.37096
X60.68408 Y63.54287
X60.64351 Y63.69956
X60.63104 Y63.88920
X60.65697 Y64.07749
X60.72027 Y64.25669
X60.81839 Y64.41950
X60.94725 Y64.55923
X61.10158 Y64.67012
X61.27513 Y64.74772
X61.46068 Y64.78879
X61.56269 Y64.79557
X61.74498 Y64.77866
X61.92718 Y64.72451
X62.09472 Y64.63477
X62.24079 Y64.51315
X62.35938 Y64.36464
X62.44564 Y64.19527
X62.49606 Y64.01201
X62.50853 Y63.82237
X62.48260 Y63.63408
X62.41930 Y63.45489
X62.32118 Y63.29207
X62.19233 Y63.15235
X62.03800 Y63.04145
X61.86444 Y62.96385
X61.67889 Y62.92278
X61.55563 Y62.91653
G04 P0 ( dwell for no time -- G64 should not smooth over this point )
G00 Z1.00000 ( retract )

G00 X61.55563 Y70.53653 ( rapid move to begin. )
F150.00000
G01 Z-0.06000
G04 P0 ( dwell for no time -- G64 should not smooth over this point )
F300.00000
G01 X61.55563 Y70.53653
X61.36683 Y70.55861
X61.18639 Y70.61825
X61.02162 Y70.71299
X60.87925 Y70.83895
X60.76523 Y70.99096
X60.68408 Y71.16287
X60.64351 Y71.31956
X60.63104 Y71.50920
X60.65697 Y71.69749
X60.72027 Y71.87669
X60.81839 Y72.03950
X60.94725 Y72.17923
X61.10158 Y72.29012
X61.27513 Y72.36772
X61.46068 Y72.40879
X61.56269 Y72.41557
X61.74498 Y72.39866
X61.92718 Y72.34451
X62.09472 Y72.25477
X62.24079 Y72.13315
X62.35938 Y71.98464
X62.44564 Y71.81527
X62.49606 Y71.63201
X62.50853 Y71.44237
X62.48260 Y71.25408
X62.41930 Y71.07489
X62.32118 Y70.91207
X62.19233 Y70.77235
X62.03800 Y70.66145
X61.86444 Y70.58385
X61.67889 Y70.54278
X61.55563 Y70.53653
G04 P0 ( dwell for no time -- G64 should not smooth over this point )
G00 Z1.00000 ( retract )

G00 X59.01563 Y70.53653 ( rapid move to begin. )
F150.00000
G01 Z-0.06000
G04 P0 ( dwell for no time -- G64 should not smooth over this point )
F300.00000
G01 X59.01563 Y70.53653
X58.82683 Y70.55861
X58.64639 Y70.61825
X58.48162 Y70.71299
X58.33925 Y70.83895
X58.22523 Y70.99096
X58.14408 Y71.16287
X58.10351 Y71.31956
X58.09104 Y71.50920
X58.11697 Y71.69749
X58.18027 Y71.87669
X58.27839 Y72.03950
X58.40725 Y72.17923
X58.56158 Y72.29012
X58.73513 Y72.36772
X58.92068 Y72.40879
X59.02269 Y72.41557
X59.20498 Y72.39866
X59.38718 Y72.34451
X59.55472 Y72.25477
X59.70079 Y72.13315
X59.81938 Y71.98464
X59.90564 Y71.81527
X59.95606 Y71.63201
X59.96853 Y71.44237
X59.94260 Y71.25408
X59.87930 Y71.07489
X59.78118 Y70.91207
X59.65233 Y70.77235
X59.49800 Y70.66145
X59.32444 Y70.58385
X59.13889 Y70.54278
X59.01563 Y70.53653
G04 P0 ( dwell for no time -- G64 should not smooth over this point )
G00 Z1.00000 ( retract )

G00 X56.47563 Y70.53653 ( rapid move to begin. )
F150.00000
G01 Z-0.06000
G04 P0 ( dwell for no time -- G64 should not smooth over this point )
F300.00000
G01 X56.47563 Y70.53653
X56.28683 Y70.55861
X56.10639 Y70.61825
X55.94162 Y70.71299
X55.79925 Y70.83895
X55.68523 Y70.99096
X55.60408 Y71.16287
X55.56351 Y71.31956
X55.55104 Y71.50920
X55.57697 Y71.69749
X55.64027 Y71.87669
X55.73839 Y72.03950
X55.86725 Y72.17923
X56.02158 Y72.29012
X56.19513 Y72.36772
X56.38068 Y72.40879
X56.48269 Y72.41557
X56.66498 Y72.39866
X56.84718 Y72.34451
X57.01472 Y72.25477
X57.16079 Y72.13315
X57.27938 Y71.98464
X57.36564 Y71.81527
X57.41606 Y71.63201
X57.42853 Y71.44237
X57.40260 Y71.25408
X57.33930 Y71.07489
X57.24118 Y70.91207
X57.11233 Y70.77235
X56.95800 Y70.66145
X56.78444 Y70.58385
X56.59889 Y70.54278
X56.47563 Y70.53653
G04 P0 ( dwell for no time -- G64 should not smooth over this point )
G00 Z1.00000 ( retract )

G00 X53.93563 Y70.53653 ( rapid move to begin. )
F150.00000
G01 Z-0.06000
G04 P0 ( dwell for no time -- G64 should not smooth over this point )
F300.00000
G01 X53.93563 Y70.53653
X53.74683 Y70.55861
X53.56639 Y70.61825
X53.40162 Y70.71299
X53.25925 Y70.83895
X53.14523 Y70.99096
X53.06408 Y71.16287
X53.02351 Y71.31956
X53.01104 Y71.50920
X53.03697 Y71.69749
X53.10027 Y71.87669
X53.19839 Y72.03950
X53.32725 Y72.17923
X53.48158 Y72.29012
X53.65513 Y72.36772
X53.84068 Y72.40879
X53.94269 Y72.41557
X54.12498 Y72.39866
X54.30718 Y72.34451
X54.47472 Y72.25477
X54.62079 Y72.13315
X54.73938 Y71.98464
X54.82564 Y71.81527
X54.87606 Y71.63201
X54.88853 Y71.44237
X54.86260 Y71.25408
X54.79930 Y71.07489
X54.70118 Y70.91207
X54.57233 Y70.77235
X54.41800 Y70.66145
X54.24444 Y70.58385
X54.05889 Y70.54278
X53.93563 Y70.53653
G04 P0 ( dwell for no time -- G64 should not smooth over this point )
G00 Z1.00000 ( retract )

G00 X51.39563 Y70.53653 ( rapid move to begin. )
F150.00000
G01 Z-0.06000
G04 P0 ( dwell for no time -- G64 should not smooth over this point )
F300.00000
G01 X51.39563 Y70.53653
X51.20683 Y70.55861
X51.02639 Y70.61825
X50.86162 Y70.71299
X50.71925 Y70.83895
X50.60523 Y70.99096
X50.52408 Y71.16287
X50.48351 Y71.31956
X50.47104 Y71.50920
X50.49697 Y71.69749
X50.56027 Y71.87669
X50.65839 Y72.03950
X50.78725 Y72.17923
X50.94158 Y72.29012
X51.11513 Y72.36772
X51.30068 Y72.40879
X51.40269 Y72.41557
X51.58498 Y72.39866
X51.76718 Y72.34451
X51.93472 Y72.25477
X52.08079 Y72.13315
X52.19938 Y71.98464
X52.28564 Y71.81527
X52.33606 Y71.63201
X52.34853 Y71.44237
X52.32260 Y71.25408
X52.25930 Y71.07489
X52.16118 Y70.91207
X52.03233 Y70.77235
X51.87800 Y70.66145
X51.70444 Y70.58385
X51.51889 Y70.54278
X51.39563 Y70.53653
G04 P0 ( dwell for no time -- G64 should not smooth over this point )
G00 Z1.00000 ( retract )

G00 X47.77699 Y70.11113 ( rapid move to begin. )
F150.00000
G01 Z-0.06000
G04 P0 ( dwell for no time -- G64 should not smooth over this point )
F300.00000
G01 X47.77699 Y70.11113
X47.75342 Y69.91621
X47.69650 Y69.74344
X47.58900 Y69.56191
X47.45535 Y69.41802
X47.30775 Y69.31175
X47.12822 Y69.23181
X46.95050 Y69.19325
X46.75418 Y69.19021
X46.53366 Y69.23707
X46.36782 Y69.31175
X46.19848 Y69.43760
X46.06937 Y69.58556
X45.97908 Y69.74347
X45.92216 Y69.91621
X45.89782 Y70.12576
X45.92216 Y70.33534
X45.97908 Y70.50809
X46.06937 Y70.66600
X46.19848 Y70.81395
X46.36777 Y70.93981
X46.54733 Y71.01974
X46.73953 Y71.06059
X46.92142 Y71.06137
X47.12822 Y71.01974
X47.29470 Y70.94646
X47.47709 Y70.81395
X47.60620 Y70.66600
X47.69650 Y70.50809
X47.75949 Y70.30674
X47.77699 Y70.11113
G04 P0 ( dwell for no time -- G64 should not smooth over this point )
G00 Z1.00000 ( retract )

G00 X47.77699 Y65.11114 ( rapid move to begin. )
F150.00000
G01 Z-0.06000
G04 P0 ( dwell for no time -- G64 should not smooth over this point )
F300.00000
G01 X47.77699 Y65.11114
X47.75342 Y64.91622
X47.69650 Y64.74345
X47.58900 Y64.56192
X47.45535 Y64.41803
X47.30775 Y64.31176
X47.12822 Y64.23182
X46.95050 Y64.19326
X46.75418 Y64.19022
X46.53366 Y64.23708
X46.36782 Y64.31176
X46.19848 Y64.43761
X46.06937 Y64.58557
X45.97908 Y64.74348
X45.92216 Y64.91622
X45.89782 Y65.12577
X45.92216 Y65.33535
X45.97908 Y65.50810
X46.06937 Y65.66601
X46.19848 Y65.81396
X46.36777 Y65.93982
X46.54733 Y66.01975
X46.73953 Y66.06060
X46.92142 Y66.06138
X47.12822 Y66.01975
X47.29470 Y65.94647
X47.47709 Y65.81396
X47.60620 Y65.66601
X47.69650 Y65.50810
X47.75949 Y65.30675
X47.77699 Y65.11114
G04 P0 ( dwell for no time -- G64 should not smooth over this point )
G00 Z1.00000 ( retract )

G00 X50.46982 Y63.05580 ( rapid move to begin. )
F150.00000
G01 Z-0.06000
G04 P0 ( dwell for no time -- G64 should not smooth over this point )
F300.00000
G01 X50.46982 Y63.05580
X50.46982 Y64.65580
X50.48046 Y64.70934
X50.51082 Y64.75476
X50.55623 Y64.78511
X50.60980 Y64.79578
X52.20980 Y64.79578
X52.26334 Y64.78511
X52.30876 Y64.75476
X52.33911 Y64.70934
X52.34978 Y64.65580
X52.34978 Y63.05580
X52.33911 Y63.00223
X52.30876 Y62.95682
X52.26334 Y62.92646
X52.20980 Y62.91582
X50.60980 Y62.91582
X50.55623 Y62.92646
X50.51082 Y62.95682
X50.48046 Y63.00223
X50.46982 Y63.05580
G04 P0 ( dwell for no time -- G64 should not smooth over this point )
G00 Z1.00000 ( retract )

G00 X45.16971 Y61.13427 ( rapid move to begin. )
F150.00000
G01 Z-0.06000
G04 P0 ( dwell for no time -- G64 should not smooth over this point )
F300.00000
G01 X45.16971 Y61.13427
X63.42832 Y61.13427
X63.55189 Y61.35225
X63.69603 Y61.50777
X63.85628 Y61.62327
X64.06431 Y61.71336
X64.25770 Y61.75367
X64.45524 Y61.75446
X64.67741 Y61.70958
X64.85821 Y61.62992
X65.05328 Y61.48819
X65.19288 Y61.32858
X65.29100 Y61.15710
X65.35277 Y60.96945
X65.37873 Y60.74427
X65.35277 Y60.51913
X65.29100 Y60.33147
X65.19288 Y60.16000
X65.05328 Y60.00038
X64.87124 Y59.86531
X64.69110 Y59.78426
X64.45524 Y59.73414
X64.25770 Y59.73490
X64.06431 Y59.77521
X63.85631 Y59.86531
X63.69603 Y59.98080
X63.55189 Y60.13633
X63.42834 Y60.35433
X45.16976 Y60.35433
X45.06338 Y60.16000
X44.90204 Y59.98080
X44.74174 Y59.86531
X44.56160 Y59.78426
X44.32574 Y59.73414
X44.12820 Y59.73490
X43.93481 Y59.77521
X43.72681 Y59.86531
X43.56653 Y59.98080
X43.42239 Y60.13633
X43.30707 Y60.33147
X43.24530 Y60.51913
X43.21934 Y60.74427
X43.24530 Y60.96945
X43.30707 Y61.15708
X43.40519 Y61.32858
X43.54479 Y61.48819
X43.72678 Y61.62327
X43.90697 Y61.70432
X44.12820 Y61.75367
X44.32574 Y61.75446
X44.54791 Y61.70958
X44.72871 Y61.62992
X44.91342 Y61.49855
X45.04619 Y61.35225
X45.16971 Y61.13427
G04 P0 ( dwell for no time -- G64 should not smooth over this point )
G00 Z1.00000 ( retract )

G00 X40.41099 Y60.71313 ( rapid move to begin. )
F150.00000
G01 Z-0.06000
G04 P0 ( dwell for no time -- G64 should not smooth over this point )
F300.00000
G01 X40.41099 Y60.71313
X40.38742 Y60.51821
X40.33050 Y60.34544
X40.22300 Y60.16391
X40.08935 Y60.02002
X39.94175 Y59.91375
X39.76222 Y59.83381
X39.58450 Y59.79525
X39.38818 Y59.79221
X39.16766 Y59.83907
X39.00182 Y59.91375
X38.83248 Y60.03960
X38.70337 Y60.18756
X38.61308 Y60.34547
X38.55616 Y60.51821
X38.53182 Y60.72776
X38.55616 Y60.93734
X38.61308 Y61.11009
X38.70337 Y61.26800
X38.83248 Y61.41595
X39.00177 Y61.54181
X39.18133 Y61.62174
X39.37353 Y61.66259
X39.55542 Y61.66337
X39.76222 Y61.62174
X39.92870 Y61.54846
X40.11109 Y61.41595
X40.24020 Y61.26800
X40.33050 Y61.11009
X40.39349 Y60.90874
X40.41099 Y60.71313
G04 P0 ( dwell for no time -- G64 should not smooth over this point )
G00 Z1.00000 ( retract )

G00 X32.86252 Y59.91796 ( rapid move to begin. )
F150.00000
G01 Z-0.06000
G04 P0 ( dwell for no time -- G64 should not smooth over this point )
F300.00000
G01 X32.86252 Y59.91796
X32.68370 Y59.93902
X32.53879 Y59.98448
X32.37997 Y60.06937
X32.22200 Y60.20501
X32.12904 Y60.32510
X32.04718 Y60.48550
X31.99498 Y60.68705
X31.98871 Y60.86701
X32.01172 Y61.01712
X32.08403 Y61.21237
X32.16437 Y61.34125
X32.28632 Y61.47371
X32.45723 Y61.59266
X32.62381 Y61.66104
X32.77258 Y61.69162
X33.87440 Y61.69832
X34.06787 Y61.67656
X34.23884 Y61.61991
X34.39482 Y61.53002
X34.52957 Y61.41057
X34.63752 Y61.26642
X34.71423 Y61.10353
X34.75659 Y60.92853
X34.76287 Y60.74857
X34.73277 Y60.57107
X34.68004 Y60.42865
X34.58720 Y60.27432
X34.46526 Y60.14186
X34.29434 Y60.02291
X34.12777 Y59.95454
X33.97900 Y59.92396
X32.86252 Y59.91796
G04 P0 ( dwell for no time -- G64 should not smooth over this point )
G00 Z1.00000 ( retract )

G00 X33.62797 Y47.58514 ( rapid move to begin. )
F150.00000
G01 Z-0.06000
G04 P0 ( dwell for no time -- G64 should not smooth over this point )
F300.00000
G01 X33.62797 Y47.58514
X33.60277 Y47.37463
X33.54100 Y47.18697
X33.42569 Y46.99183
X33.28154 Y46.83630
X33.12124 Y46.72081
X32.92741 Y46.63450
X32.73432 Y46.59269
X32.52236 Y46.58964
X32.28647 Y46.63976
X32.10631 Y46.72081
X31.92429 Y46.85588
X31.78469 Y47.01550
X31.68657 Y47.18697
X31.62480 Y47.37463
X31.59884 Y47.59977
X31.62480 Y47.82495
X31.68657 Y48.01258
X31.78469 Y48.18408
X31.92429 Y48.34369
X32.10628 Y48.47877
X32.30014 Y48.56508
X32.50770 Y48.60917
X32.70524 Y48.60996
X32.92741 Y48.56508
X33.12127 Y48.47877
X33.29292 Y48.35405
X33.42569 Y48.20775
X33.54626 Y47.99891
X33.60884 Y47.79635
X33.62797 Y47.58514
G04 P0 ( dwell for no time -- G64 should not smooth over this point )
G00 Z1.00000 ( retract )

G00 X33.62797 Y45.04514 ( rapid move to begin. )
F150.00000
G01 Z-0.06000
G04 P0 ( dwell for no time -- G64 should not smooth over this point )
F300.00000
G01 X33.62797 Y45.04514
X33.60277 Y44.83463
X33.54100 Y44.64697
X33.42569 Y44.45183
X33.28154 Y44.29630
X33.12124 Y44.18081
X32.92741 Y44.09450
X32.73432 Y44.05269
X32.52236 Y44.04964
X32.28647 Y44.09976
X32.10631 Y44.18081
X31.92429 Y44.31588
X31.78469 Y44.47550
X31.68657 Y44.64697
X31.62480 Y44.83463
X31.59884 Y45.05977
X31.62480 Y45.28495
X31.68657 Y45.47258
X31.78469 Y45.64408
X31.92429 Y45.80369
X32.10628 Y45.93877
X32.30014 Y46.02508
X32.50770 Y46.06917
X32.70524 Y46.06996
X32.92741 Y46.02508
X33.12127 Y45.93877
X33.29292 Y45.81405
X33.42569 Y45.66775
X33.54626 Y45.45891
X33.60884 Y45.25635
X33.62797 Y45.04514
G04 P0 ( dwell for no time -- G64 should not smooth over this point )
G00 Z1.00000 ( retract )

G00 X33.62797 Y42.50514 ( rapid move to begin. )
F150.00000
G01 Z-0.06000
G04 P0 ( dwell for no time -- G64 should not smooth over this point )
F300.00000
G01 X33.62797 Y42.50514
X33.60277 Y42.29463
X33.54100 Y42.10697
X33.42569 Y41.91183
X33.28154 Y41.75630
X33.12124 Y41.64081
X32.92741 Y41.55450
X32.73432 Y41.51269
X32.52236 Y41.50964
X32.28647 Y41.55976
X32.10631 Y41.64081
X31.92429 Y41.77588
X31.78469 Y41.93550
X31.68657 Y42.10697
X31.62480 Y42.29463
X31.59884 Y42.51977
X31.62480 Y42.74495
X31.68657 Y42.93258
X31.78469 Y43.10408
X31.92429 Y43.26369
X32.10628 Y43.39877
X32.30014 Y43.48508
X32.50770 Y43.52917
X32.70524 Y43.52996
X32.92741 Y43.48508
X33.12127 Y43.39877
X33.29292 Y43.27405
X33.42569 Y43.12775
X33.54626 Y42.91891
X33.60884 Y42.71635
X33.62797 Y42.50514
G04 P0 ( dwell for no time -- G64 should not smooth over this point )
G00 Z1.00000 ( retract )

G00 X33.62797 Y39.96514 ( rapid move to begin. )
F150.00000
G01 Z-0.06000
G04 P0 ( dwell for no time -- G64 should not smooth over this point )
F300.00000
G01 X33.62797 Y39.96514
X33.60277 Y39.75463
X33.54100 Y39.56697
X33.42569 Y39.37183
X33.28154 Y39.21630
X33.12124 Y39.10081
X32.92741 Y39.01450
X32.73432 Y38.97269
X32.52236 Y38.96964
X32.28647 Y39.01976
X32.10631 Y39.10081
X31.92429 Y39.23588
X31.78469 Y39.39550
X31.68657 Y39.56697
X31.62480 Y39.75463
X31.59884 Y39.97977
X31.62480 Y40.20495
X31.68657 Y40.39258
X31.78469 Y40.56408
X31.92429 Y40.72369
X32.10628 Y40.85877
X32.30014 Y40.94508
X32.50770 Y40.98917
X32.70524 Y40.98996
X32.92741 Y40.94508
X33.12127 Y40.85877
X33.29292 Y40.73405
X33.42569 Y40.58775
X33.54626 Y40.37891
X33.60884 Y40.17635
X33.62797 Y39.96514
G04 P0 ( dwell for no time -- G64 should not smooth over this point )
G00 Z1.00000 ( retract )

G00 X33.62797 Y37.42514 ( rapid move to begin. )
F150.00000
G01 Z-0.06000
G04 P0 ( dwell for no time -- G64 should not smooth over this point )
F300.00000
G01 X33.62797 Y37.42514
X33.60277 Y37.21463
X33.54100 Y37.02697
X33.42569 Y36.83183
X33.28154 Y36.67630
X33.12124 Y36.56081
X32.92741 Y36.47450
X32.73432 Y36.43269
X32.52236 Y36.42964
X32.28647 Y36.47976
X32.10631 Y36.56081
X31.92429 Y36.69588
X31.78469 Y36.85550
X31.68657 Y37.02697
X31.62480 Y37.21463
X31.59884 Y37.43977
X31.62480 Y37.66495
X31.68657 Y37.85258
X31.78469 Y38.02408
X31.92429 Y38.18369
X32.10628 Y38.31877
X32.30014 Y38.40508
X32.50770 Y38.44917
X32.70524 Y38.44996
X32.92741 Y38.40508
X33.12127 Y38.31877
X33.29292 Y38.19405
X33.42569 Y38.04775
X33.54626 Y37.83891
X33.60884 Y37.63635
X33.62797 Y37.42514
G04 P0 ( dwell for no time -- G64 should not smooth over this point )
G00 Z1.00000 ( retract )

G00 X33.62797 Y34.88514 ( rapid move to begin. )
F150.00000
G01 Z-0.06000
G04 P0 ( dwell for no time -- G64 should not smooth over this point )
F300.00000
G01 X33.62797 Y34.88514
X33.60277 Y34.67463
X33.54100 Y34.48697
X33.42569 Y34.29183
X33.28154 Y34.13630
X33.12124 Y34.02081
X32.92741 Y33.93450
X32.73432 Y33.89269
X32.52236 Y33.88964
X32.28647 Y33.93976
X32.10631 Y34.02081
X31.92429 Y34.15588
X31.78469 Y34.31550
X31.68657 Y34.48697
X31.62480 Y34.67463
X31.59884 Y34.89977
X31.62480 Y35.12495
X31.68657 Y35.31258
X31.78469 Y35.48408
X31.92429 Y35.64369
X32.10628 Y35.77877
X32.30014 Y35.86508
X32.50770 Y35.90917
X32.70524 Y35.90996
X32.92741 Y35.86508
X33.12127 Y35.77877
X33.29292 Y35.65405
X33.42569 Y35.50775
X33.54626 Y35.29891
X33.60884 Y35.09635
X33.62797 Y34.88514
G04 P0 ( dwell for no time -- G64 should not smooth over this point )
G00 Z1.00000 ( retract )

G00 X33.62797 Y32.34514 ( rapid move to begin. )
F150.00000
G01 Z-0.06000
G04 P0 ( dwell for no time -- G64 should not smooth over this point )
F300.00000
G01 X33.62797 Y32.34514
X33.60277 Y32.13463
X33.54100 Y31.94697
X33.42569 Y31.75183
X33.28154 Y31.59630
X33.12124 Y31.48081
X32.92741 Y31.39450
X32.73432 Y31.35269
X32.52236 Y31.34964
X32.28647 Y31.39976
X32.10631 Y31.48081
X31.92429 Y31.61588
X31.78469 Y31.77550
X31.68657 Y31.94697
X31.62480 Y32.13463
X31.59884 Y32.35977
X31.62480 Y32.58495
X31.68657 Y32.77258
X31.78469 Y32.94408
X31.92429 Y33.10369
X32.10628 Y33.23877
X32.30014 Y33.32508
X32.50770 Y33.36917
X32.70524 Y33.36996
X32.92741 Y33.32508
X33.12127 Y33.23877
X33.29292 Y33.11405
X33.42569 Y32.96775
X33.54626 Y32.75891
X33.60884 Y32.55635
X33.62797 Y32.34514
G04 P0 ( dwell for no time -- G64 should not smooth over this point )
G00 Z1.00000 ( retract )

G00 X33.62797 Y29.80514 ( rapid move to begin. )
F150.00000
G01 Z-0.06000
G04 P0 ( dwell for no time -- G64 should not smooth over this point )
F300.00000
G01 X33.62797 Y29.80514
X33.60277 Y29.59463
X33.54100 Y29.40697
X33.42569 Y29.21183
X33.28154 Y29.05630
X33.12124 Y28.94081
X32.92741 Y28.85450
X32.73432 Y28.81269
X32.52236 Y28.80964
X32.28647 Y28.85976
X32.10631 Y28.94081
X31.92429 Y29.07588
X31.78469 Y29.23550
X31.68657 Y29.40697
X31.62480 Y29.59463
X31.59884 Y29.81977
X31.62480 Y30.04495
X31.68657 Y30.23258
X31.78469 Y30.40408
X31.92429 Y30.56369
X32.10628 Y30.69877
X32.30014 Y30.78508
X32.50770 Y30.82917
X32.70524 Y30.82996
X32.92741 Y30.78508
X33.12127 Y30.69877
X33.29292 Y30.57405
X33.42569 Y30.42775
X33.54626 Y30.21891
X33.60884 Y30.01635
X33.62797 Y29.80514
G04 P0 ( dwell for no time -- G64 should not smooth over this point )
G00 Z1.00000 ( retract )

G00 X33.62797 Y27.26514 ( rapid move to begin. )
F150.00000
G01 Z-0.06000
G04 P0 ( dwell for no time -- G64 should not smooth over this point )
F300.00000
G01 X33.62797 Y27.26514
X33.60277 Y27.05463
X33.54100 Y26.86697
X33.42569 Y26.67183
X33.28154 Y26.51630
X33.12124 Y26.40081
X32.92741 Y26.31450
X32.73432 Y26.27269
X32.52236 Y26.26964
X32.28647 Y26.31976
X32.10631 Y26.40081
X31.92429 Y26.53588
X31.78469 Y26.69550
X31.68657 Y26.86697
X31.62480 Y27.05463
X31.59884 Y27.27977
X31.62480 Y27.50495
X31.68657 Y27.69258
X31.78469 Y27.86408
X31.92429 Y28.02369
X32.10628 Y28.15877
X32.30014 Y28.24508
X32.50770 Y28.28917
X32.70524 Y28.28996
X32.92741 Y28.24508
X33.12127 Y28.15877
X33.29292 Y28.03405
X33.42569 Y27.88775
X33.54626 Y27.67891
X33.60884 Y27.47635
X33.62797 Y27.26514
G04 P0 ( dwell for no time -- G64 should not smooth over this point )
G00 Z1.00000 ( retract )

G00 X33.62797 Y24.72514 ( rapid move to begin. )
F150.00000
G01 Z-0.06000
G04 P0 ( dwell for no time -- G64 should not smooth over this point )
F300.00000
G01 X33.62797 Y24.72514
X33.60277 Y24.51463
X33.54100 Y24.32697
X33.42569 Y24.13183
X33.28154 Y23.97630
X33.12124 Y23.86081
X32.92741 Y23.77450
X32.73432 Y23.73269
X32.52236 Y23.72964
X32.28647 Y23.77976
X32.10631 Y23.86081
X31.92429 Y23.99588
X31.78469 Y24.15550
X31.68657 Y24.32697
X31.62480 Y24.51463
X31.59884 Y24.73977
X31.62480 Y24.96495
X31.68657 Y25.15258
X31.78469 Y25.32408
X31.92429 Y25.48369
X32.10628 Y25.61877
X32.30014 Y25.70508
X32.50770 Y25.74917
X32.70524 Y25.74996
X32.92741 Y25.70508
X33.12127 Y25.61877
X33.29292 Y25.49405
X33.42569 Y25.34775
X33.54626 Y25.13891
X33.60884 Y24.93635
X33.62797 Y24.72514
G04 P0 ( dwell for no time -- G64 should not smooth over this point )
G00 Z1.00000 ( retract )

G00 X33.62797 Y22.18514 ( rapid move to begin. )
F150.00000
G01 Z-0.06000
G04 P0 ( dwell for no time -- G64 should not smooth over this point )
F300.00000
G01 X33.62797 Y22.18514
X33.60277 Y21.97463
X33.54100 Y21.78697
X33.42569 Y21.59183
X33.28154 Y21.43630
X33.12124 Y21.32081
X32.92741 Y21.23450
X32.73432 Y21.19269
X32.52236 Y21.18964
X32.28647 Y21.23976
X32.10631 Y21.32081
X31.92429 Y21.45588
X31.78469 Y21.61550
X31.68657 Y21.78697
X31.62480 Y21.97463
X31.59884 Y22.19977
X31.62480 Y22.42495
X31.68657 Y22.61258
X31.78469 Y22.78408
X31.92429 Y22.94369
X32.10628 Y23.07877
X32.30014 Y23.16508
X32.50770 Y23.20917
X32.70524 Y23.20996
X32.92741 Y23.16508
X33.12127 Y23.07877
X33.29292 Y22.95405
X33.42569 Y22.80775
X33.54626 Y22.59891
X33.60884 Y22.39635
X33.62797 Y22.18514
G04 P0 ( dwell for no time -- G64 should not smooth over this point )
G00 Z1.00000 ( retract )

G00 X33.62797 Y19.64514 ( rapid move to begin. )
F150.00000
G01 Z-0.06000
G04 P0 ( dwell for no time -- G64 should not smooth over this point )
F300.00000
G01 X33.62797 Y19.64514
X33.60277 Y19.43463
X33.54100 Y19.24697
X33.42569 Y19.05183
X33.28154 Y18.89630
X33.12124 Y18.78081
X32.92741 Y18.69450
X32.73432 Y18.65269
X32.52236 Y18.64964
X32.28647 Y18.69976
X32.10631 Y18.78081
X31.92429 Y18.91588
X31.78469 Y19.07550
X31.68657 Y19.24697
X31.62480 Y19.43463
X31.59884 Y19.65977
X31.62480 Y19.88495
X31.68657 Y20.07258
X31.78469 Y20.24408
X31.92429 Y20.40369
X32.10628 Y20.53877
X32.30014 Y20.62508
X32.50770 Y20.66917
X32.70524 Y20.66996
X32.92741 Y20.62508
X33.12127 Y20.53877
X33.29292 Y20.41405
X33.42569 Y20.26775
X33.54626 Y20.05891
X33.60884 Y19.85635
X33.62797 Y19.64514
G04 P0 ( dwell for no time -- G64 should not smooth over this point )
G00 Z1.00000 ( retract )

G00 X33.62797 Y17.10514 ( rapid move to begin. )
F150.00000
G01 Z-0.06000
G04 P0 ( dwell for no time -- G64 should not smooth over this point )
F300.00000
G01 X33.62797 Y17.10514
X33.60277 Y16.89463
X33.54100 Y16.70697
X33.42569 Y16.51183
X33.28154 Y16.35630
X33.12124 Y16.24081
X32.92741 Y16.15450
X32.73432 Y16.11269
X32.52236 Y16.10964
X32.28647 Y16.15976
X32.10631 Y16.24081
X31.92429 Y16.37588
X31.78469 Y16.53550
X31.68657 Y16.70697
X31.62480 Y16.89463
X31.59884 Y17.11977
X31.62480 Y17.34495
X31.68657 Y17.53258
X31.78469 Y17.70408
X31.92429 Y17.86369
X32.10628 Y17.99877
X32.30014 Y18.08508
X32.50770 Y18.12917
X32.70524 Y18.12996
X32.92741 Y18.08508
X33.12127 Y17.99877
X33.29292 Y17.87405
X33.42569 Y17.72775
X33.54626 Y17.51891
X33.60884 Y17.31635
X33.62797 Y17.10514
G04 P0 ( dwell for no time -- G64 should not smooth over this point )
G00 Z1.00000 ( retract )

G00 X33.62797 Y14.56514 ( rapid move to begin. )
F150.00000
G01 Z-0.06000
G04 P0 ( dwell for no time -- G64 should not smooth over this point )
F300.00000
G01 X33.62797 Y14.56514
X33.60277 Y14.35463
X33.54100 Y14.16697
X33.42569 Y13.97183
X33.28154 Y13.81630
X33.12124 Y13.70081
X32.92741 Y13.61450
X32.73432 Y13.57269
X32.52236 Y13.56964
X32.28647 Y13.61976
X32.10631 Y13.70081
X31.92429 Y13.83588
X31.78469 Y13.99550
X31.68657 Y14.16697
X31.62480 Y14.35463
X31.59884 Y14.57977
X31.62480 Y14.80495
X31.68657 Y14.99258
X31.78469 Y15.16408
X31.92429 Y15.32369
X32.10628 Y15.45877
X32.30014 Y15.54508
X32.50770 Y15.58917
X32.70524 Y15.58996
X32.92741 Y15.54508
X33.12127 Y15.45877
X33.29292 Y15.33405
X33.42569 Y15.18775
X33.54626 Y14.97891
X33.60884 Y14.77635
X33.62797 Y14.56514
G04 P0 ( dwell for no time -- G64 should not smooth over this point )
G00 Z1.00000 ( retract )

G00 X35.32182 Y12.99418 ( rapid move to begin. )
F150.00000
G01 Z-0.06000
G04 P0 ( dwell for no time -- G64 should not smooth over this point )
F300.00000
G01 X35.32182 Y12.99418
X35.32182 Y24.80137
X35.15431 Y24.87681
X34.99403 Y24.99230
X34.83269 Y25.17150
X34.73457 Y25.34297
X34.67280 Y25.53063
X34.64684 Y25.75577
X34.67280 Y25.98095
X34.73457 Y26.16858
X34.83269 Y26.34008
X34.97229 Y26.49969
X35.15428 Y26.63477
X35.34814 Y26.72108
X35.55570 Y26.76517
X35.75324 Y26.76596
X35.97541 Y26.72108
X36.15621 Y26.64142
X36.35128 Y26.49969
X36.49088 Y26.34008
X36.58900 Y26.16860
X36.65077 Y25.98095
X36.67673 Y25.75577
X36.65077 Y25.53063
X36.58900 Y25.34297
X36.49088 Y25.17150
X36.32954 Y24.99230
X36.16924 Y24.87681
X36.00178 Y24.80142
X36.00178 Y12.99418
X36.16927 Y12.91877
X36.32954 Y12.80327
X36.49088 Y12.62408
X36.58900 Y12.45260
X36.65077 Y12.26495
X36.67673 Y12.03977
X36.65684 Y11.84323
X36.59426 Y11.64066
X36.47369 Y11.43183
X36.32954 Y11.27630
X36.18156 Y11.16878
X35.97541 Y11.07450
X35.78232 Y11.03269
X35.55570 Y11.03040
X35.34814 Y11.07450
X35.16736 Y11.15415
X34.99403 Y11.27630
X34.84989 Y11.43183
X34.72932 Y11.64066
X34.66673 Y11.84323
X34.64684 Y12.03977
X34.67280 Y12.26495
X34.73457 Y12.45258
X34.83269 Y12.62408
X34.97229 Y12.78369
X35.15428 Y12.91877
X35.32182 Y12.99418
G04 P0 ( dwell for no time -- G64 should not smooth over this point )
G00 Z1.00000 ( retract )

G00 X33.62797 Y12.02514 ( rapid move to begin. )
F150.00000
G01 Z-0.06000
G04 P0 ( dwell for no time -- G64 should not smooth over this point )
F300.00000
G01 X33.62797 Y12.02514
X33.60277 Y11.81463
X33.54100 Y11.62697
X33.42569 Y11.43183
X33.28154 Y11.27630
X33.12124 Y11.16081
X32.92741 Y11.07450
X32.73432 Y11.03269
X32.52236 Y11.02964
X32.28647 Y11.07976
X32.10631 Y11.16081
X31.92429 Y11.29588
X31.78469 Y11.45550
X31.68657 Y11.62697
X31.62480 Y11.81463
X31.59884 Y12.03977
X31.62480 Y12.26495
X31.68657 Y12.45258
X31.78469 Y12.62408
X31.92429 Y12.78369
X32.10628 Y12.91877
X32.30014 Y13.00508
X32.50770 Y13.04917
X32.70524 Y13.04996
X32.92741 Y13.00508
X33.12127 Y12.91877
X33.29292 Y12.79405
X33.42569 Y12.64775
X33.54626 Y12.43891
X33.60884 Y12.23635
X33.62797 Y12.02514
G04 P0 ( dwell for no time -- G64 should not smooth over this point )
G00 Z1.00000 ( retract )

G00 X37.35382 Y5.62818 ( rapid move to begin. )
F150.00000
G01 Z-0.06000
G04 P0 ( dwell for no time -- G64 should not smooth over this point )
F300.00000
G01 X37.35382 Y5.62818
X37.35382 Y27.08737
X37.18631 Y27.16281
X37.02603 Y27.27830
X36.86469 Y27.45750
X36.76657 Y27.62897
X36.70480 Y27.81663
X36.67884 Y28.04177
X36.70480 Y28.26695
X36.76657 Y28.45458
X36.86469 Y28.62608
X37.00429 Y28.78569
X37.18628 Y28.92077
X37.38014 Y29.00708
X37.58770 Y29.05117
X37.78524 Y29.05196
X38.00741 Y29.00708
X38.18821 Y28.92742
X38.38328 Y28.78569
X38.52288 Y28.62608
X38.62100 Y28.45460
X38.68277 Y28.26695
X38.70873 Y28.04177
X38.68277 Y27.81663
X38.62100 Y27.62897
X38.52288 Y27.45750
X38.36154 Y27.27830
X38.20124 Y27.16281
X38.03378 Y27.08742
X38.03378 Y5.62818
X38.20127 Y5.55277
X38.36154 Y5.43727
X38.52288 Y5.25808
X38.62100 Y5.08660
X38.68277 Y4.89895
X38.70873 Y4.67377
X38.68884 Y4.47723
X38.62626 Y4.27466
X38.50569 Y4.06583
X38.36154 Y3.91030
X38.21356 Y3.80278
X38.00741 Y3.70850
X37.81432 Y3.66669
X37.58770 Y3.66440
X37.38014 Y3.70850
X37.19936 Y3.78815
X37.02603 Y3.91030
X36.88189 Y4.06583
X36.76132 Y4.27466
X36.69873 Y4.47723
X36.67884 Y4.67377
X36.70480 Y4.89895
X36.76657 Y5.08658
X36.86469 Y5.25808
X37.00429 Y5.41769
X37.18628 Y5.55277
X37.35382 Y5.62818
G04 P0 ( dwell for no time -- G64 should not smooth over this point )
G00 Z1.00000 ( retract )

G00 X43.27997 Y16.85114 ( rapid move to begin. )
F150.00000
G01 Z-0.06000
G04 P0 ( dwell for no time -- G64 should not smooth over this point )
F300.00000
G01 X43.27997 Y16.85114
X43.25477 Y16.64063
X43.19300 Y16.45297
X43.07769 Y16.25783
X42.93354 Y16.10230
X42.77324 Y15.98681
X42.57941 Y15.90050
X42.38632 Y15.85869
X42.17436 Y15.85564
X41.93847 Y15.90576
X41.75831 Y15.98681
X41.57629 Y16.12188
X41.43669 Y16.28150
X41.33857 Y16.45297
X41.27680 Y16.64063
X41.25084 Y16.86577
X41.27680 Y17.09095
X41.33857 Y17.27858
X41.43669 Y17.45008
X41.57629 Y17.60969
X41.75828 Y17.74477
X41.95214 Y17.83108
X42.15970 Y17.87517
X42.35724 Y17.87596
X42.57941 Y17.83108
X42.77327 Y17.74477
X42.94492 Y17.62005
X43.07769 Y17.47375
X43.19826 Y17.26491
X43.26084 Y17.06235
X43.27997 Y16.85114
G04 P0 ( dwell for no time -- G64 should not smooth over this point )
G00 Z1.00000 ( retract )

G00 X43.27997 Y19.39114 ( rapid move to begin. )
F150.00000
G01 Z-0.06000
G04 P0 ( dwell for no time -- G64 should not smooth over this point )
F300.00000
G01 X43.27997 Y19.39114
X43.25477 Y19.18063
X43.19300 Y18.99297
X43.07769 Y18.79783
X42.93354 Y18.64230
X42.77324 Y18.52681
X42.57941 Y18.44050
X42.38632 Y18.39869
X42.17436 Y18.39564
X41.93847 Y18.44576
X41.75831 Y18.52681
X41.57629 Y18.66188
X41.43669 Y18.82150
X41.33857 Y18.99297
X41.27680 Y19.18063
X41.25084 Y19.40577
X41.27680 Y19.63095
X41.33857 Y19.81858
X41.43669 Y19.99008
X41.57629 Y20.14969
X41.75828 Y20.28477
X41.95214 Y20.37108
X42.15970 Y20.41517
X42.35724 Y20.41596
X42.57941 Y20.37108
X42.77327 Y20.28477
X42.94492 Y20.16005
X43.07769 Y20.01375
X43.19826 Y19.80491
X43.26084 Y19.60235
X43.27997 Y19.39114
G04 P0 ( dwell for no time -- G64 should not smooth over this point )
G00 Z1.00000 ( retract )

G00 X45.81997 Y19.39114 ( rapid move to begin. )
F150.00000
G01 Z-0.06000
G04 P0 ( dwell for no time -- G64 should not smooth over this point )
F300.00000
G01 X45.81997 Y19.39114
X45.79477 Y19.18063
X45.73300 Y18.99297
X45.61769 Y18.79783
X45.47354 Y18.64230
X45.31324 Y18.52681
X45.11941 Y18.44050
X44.92632 Y18.39869
X44.71436 Y18.39564
X44.47847 Y18.44576
X44.29831 Y18.52681
X44.11629 Y18.66188
X43.97669 Y18.82150
X43.87857 Y18.99297
X43.81680 Y19.18063
X43.79084 Y19.40577
X43.81680 Y19.63095
X43.87857 Y19.81858
X43.97669 Y19.99008
X44.11629 Y20.14969
X44.29828 Y20.28477
X44.49214 Y20.37108
X44.69970 Y20.41517
X44.89724 Y20.41596
X45.11941 Y20.37108
X45.31327 Y20.28477
X45.48492 Y20.16005
X45.61769 Y20.01375
X45.73826 Y19.80491
X45.80084 Y19.60235
X45.81997 Y19.39114
G04 P0 ( dwell for no time -- G64 should not smooth over this point )
G00 Z1.00000 ( retract )

G00 X45.81997 Y16.85114 ( rapid move to begin. )
F150.00000
G01 Z-0.06000
G04 P0 ( dwell for no time -- G64 should not smooth over this point )
F300.00000
G01 X45.81997 Y16.85114
X45.79477 Y16.64063
X45.73300 Y16.45297
X45.61769 Y16.25783
X45.47354 Y16.10230
X45.31324 Y15.98681
X45.11941 Y15.90050
X44.92632 Y15.85869
X44.71436 Y15.85564
X44.47847 Y15.90576
X44.29831 Y15.98681
X44.11629 Y16.12188
X43.97669 Y16.28150
X43.87857 Y16.45297
X43.81680 Y16.64063
X43.79084 Y16.86577
X43.81680 Y17.09095
X43.87857 Y17.27858
X43.97669 Y17.45008
X44.11629 Y17.60969
X44.29828 Y17.74477
X44.49214 Y17.83108
X44.69970 Y17.87517
X44.89724 Y17.87596
X45.11941 Y17.83108
X45.31327 Y17.74477
X45.48492 Y17.62005
X45.61769 Y17.47375
X45.73826 Y17.26491
X45.80084 Y17.06235
X45.81997 Y16.85114
G04 P0 ( dwell for no time -- G64 should not smooth over this point )
G00 Z1.00000 ( retract )

G00 X45.81997 Y21.93114 ( rapid move to begin. )
F150.00000
G01 Z-0.06000
G04 P0 ( dwell for no time -- G64 should not smooth over this point )
F300.00000
G01 X45.81997 Y21.93114
X45.79477 Y21.72063
X45.73300 Y21.53297
X45.61769 Y21.33783
X45.47354 Y21.18230
X45.31324 Y21.06681
X45.11941 Y20.98050
X44.92632 Y20.93869
X44.71436 Y20.93564
X44.47847 Y20.98576
X44.29831 Y21.06681
X44.11629 Y21.20188
X43.97669 Y21.36150
X43.87857 Y21.53297
X43.81680 Y21.72063
X43.79084 Y21.94577
X43.81680 Y22.17095
X43.87857 Y22.35858
X43.97669 Y22.53008
X44.11629 Y22.68969
X44.29828 Y22.82477
X44.49214 Y22.91108
X44.69970 Y22.95517
X44.89724 Y22.95596
X45.11941 Y22.91108
X45.31327 Y22.82477
X45.48492 Y22.70005
X45.61769 Y22.55375
X45.73826 Y22.34491
X45.80084 Y22.14235
X45.81997 Y21.93114
G04 P0 ( dwell for no time -- G64 should not smooth over this point )
G00 Z1.00000 ( retract )

G00 X45.81997 Y24.47114 ( rapid move to begin. )
F150.00000
G01 Z-0.06000
G04 P0 ( dwell for no time -- G64 should not smooth over this point )
F300.00000
G01 X45.81997 Y24.47114
X45.79477 Y24.26063
X45.73300 Y24.07297
X45.61769 Y23.87783
X45.47354 Y23.72230
X45.31324 Y23.60681
X45.11941 Y23.52050
X44.92632 Y23.47869
X44.71436 Y23.47564
X44.47847 Y23.52576
X44.29831 Y23.60681
X44.11629 Y23.74188
X43.97669 Y23.90150
X43.87857 Y24.07297
X43.81680 Y24.26063
X43.79084 Y24.48577
X43.81680 Y24.71095
X43.87857 Y24.89858
X43.97669 Y25.07008
X44.11629 Y25.22969
X44.29828 Y25.36477
X44.49214 Y25.45108
X44.69970 Y25.49517
X44.89724 Y25.49596
X45.11941 Y25.45108
X45.31327 Y25.36477
X45.48492 Y25.24005
X45.61769 Y25.09375
X45.73826 Y24.88491
X45.80084 Y24.68235
X45.81997 Y24.47114
G04 P0 ( dwell for no time -- G64 should not smooth over this point )
G00 Z1.00000 ( retract )

G00 X43.27997 Y24.47114 ( rapid move to begin. )
F150.00000
G01 Z-0.06000
G04 P0 ( dwell for no time -- G64 should not smooth over this point )
F300.00000
G01 X43.27997 Y24.47114
X43.25477 Y24.26063
X43.19300 Y24.07297
X43.07769 Y23.87783
X42.93354 Y23.72230
X42.77324 Y23.60681
X42.57941 Y23.52050
X42.38632 Y23.47869
X42.17436 Y23.47564
X41.93847 Y23.52576
X41.75831 Y23.60681
X41.57629 Y23.74188
X41.43669 Y23.90150
X41.33857 Y24.07297
X41.27680 Y24.26063
X41.25084 Y24.48577
X41.27680 Y24.71095
X41.33857 Y24.89858
X41.43669 Y25.07008
X41.57629 Y25.22969
X41.75828 Y25.36477
X41.95214 Y25.45108
X42.15970 Y25.49517
X42.35724 Y25.49596
X42.57941 Y25.45108
X42.77327 Y25.36477
X42.94492 Y25.24005
X43.07769 Y25.09375
X43.19826 Y24.88491
X43.26084 Y24.68235
X43.27997 Y24.47114
G04 P0 ( dwell for no time -- G64 should not smooth over this point )
G00 Z1.00000 ( retract )

G00 X43.27997 Y27.01114 ( rapid move to begin. )
F150.00000
G01 Z-0.06000
G04 P0 ( dwell for no time -- G64 should not smooth over this point )
F300.00000
G01 X43.27997 Y27.01114
X43.25477 Y26.80063
X43.19300 Y26.61297
X43.07769 Y26.41783
X42.93354 Y26.26230
X42.77324 Y26.14681
X42.57941 Y26.06050
X42.38632 Y26.01869
X42.17436 Y26.01564
X41.93847 Y26.06576
X41.75831 Y26.14681
X41.57629 Y26.28188
X41.43669 Y26.44150
X41.33857 Y26.61297
X41.27680 Y26.80063
X41.25084 Y27.02577
X41.27680 Y27.25095
X41.33857 Y27.43858
X41.43669 Y27.61008
X41.57629 Y27.76969
X41.75828 Y27.90477
X41.95214 Y27.99108
X42.15970 Y28.03517
X42.35724 Y28.03596
X42.57941 Y27.99108
X42.77327 Y27.90477
X42.94492 Y27.78005
X43.07769 Y27.63375
X43.19826 Y27.42491
X43.26084 Y27.22235
X43.27997 Y27.01114
G04 P0 ( dwell for no time -- G64 should not smooth over this point )
G00 Z1.00000 ( retract )

G00 X43.27997 Y29.55114 ( rapid move to begin. )
F150.00000
G01 Z-0.06000
G04 P0 ( dwell for no time -- G64 should not smooth over this point )
F300.00000
G01 X43.27997 Y29.55114
X43.25477 Y29.34063
X43.19300 Y29.15297
X43.07769 Y28.95783
X42.93354 Y28.80230
X42.77324 Y28.68681
X42.57941 Y28.60050
X42.38632 Y28.55869
X42.17436 Y28.55564
X41.93847 Y28.60576
X41.75831 Y28.68681
X41.57629 Y28.82188
X41.43669 Y28.98150
X41.33857 Y29.15297
X41.27680 Y29.34063
X41.25084 Y29.56577
X41.27680 Y29.79095
X41.33857 Y29.97858
X41.43669 Y30.15008
X41.57629 Y30.30969
X41.75828 Y30.44477
X41.95214 Y30.53108
X42.15970 Y30.57517
X42.35724 Y30.57596
X42.57941 Y30.53108
X42.77327 Y30.44477
X42.94492 Y30.32005
X43.07769 Y30.17375
X43.19826 Y29.96491
X43.26084 Y29.76235
X43.27997 Y29.55114
G04 P0 ( dwell for no time -- G64 should not smooth over this point )
G00 Z1.00000 ( retract )

G00 X43.27997 Y32.09114 ( rapid move to begin. )
F150.00000
G01 Z-0.06000
G04 P0 ( dwell for no time -- G64 should not smooth over this point )
F300.00000
G01 X43.27997 Y32.09114
X43.25477 Y31.88063
X43.19300 Y31.69297
X43.07769 Y31.49783
X42.93354 Y31.34230
X42.77324 Y31.22681
X42.57941 Y31.14050
X42.38632 Y31.09869
X42.17436 Y31.09564
X41.93847 Y31.14576
X41.75831 Y31.22681
X41.57629 Y31.36188
X41.43669 Y31.52150
X41.33857 Y31.69297
X41.27680 Y31.88063
X41.25084 Y32.10577
X41.27680 Y32.33095
X41.33857 Y32.51858
X41.43669 Y32.69008
X41.57629 Y32.84969
X41.75828 Y32.98477
X41.95214 Y33.07108
X42.15970 Y33.11517
X42.35724 Y33.11596
X42.57941 Y33.07108
X42.77327 Y32.98477
X42.94492 Y32.86005
X43.07769 Y32.71375
X43.19826 Y32.50491
X43.26084 Y32.30235
X43.27997 Y32.09114
G04 P0 ( dwell for no time -- G64 should not smooth over this point )
G00 Z1.00000 ( retract )

G00 X45.81997 Y32.09114 ( rapid move to begin. )
F150.00000
G01 Z-0.06000
G04 P0 ( dwell for no time -- G64 should not smooth over this point )
F300.00000
G01 X45.81997 Y32.09114
X45.79477 Y31.88063
X45.73300 Y31.69297
X45.61769 Y31.49783
X45.47354 Y31.34230
X45.31324 Y31.22681
X45.11941 Y31.14050
X44.92632 Y31.09869
X44.71436 Y31.09564
X44.47847 Y31.14576
X44.29831 Y31.22681
X44.11629 Y31.36188
X43.97669 Y31.52150
X43.87857 Y31.69297
X43.81680 Y31.88063
X43.79084 Y32.10577
X43.81680 Y32.33095
X43.87857 Y32.51858
X43.97669 Y32.69008
X44.11629 Y32.84969
X44.29828 Y32.98477
X44.49214 Y33.07108
X44.69970 Y33.11517
X44.89724 Y33.11596
X45.11941 Y33.07108
X45.31327 Y32.98477
X45.48492 Y32.86005
X45.61769 Y32.71375
X45.73826 Y32.50491
X45.80084 Y32.30235
X45.81997 Y32.09114
G04 P0 ( dwell for no time -- G64 should not smooth over this point )
G00 Z1.00000 ( retract )

G00 X45.81997 Y29.55114 ( rapid move to begin. )
F150.00000
G01 Z-0.06000
G04 P0 ( dwell for no time -- G64 should not smooth over this point )
F300.00000
G01 X45.81997 Y29.55114
X45.79477 Y29.34063
X45.73300 Y29.15297
X45.61769 Y28.95783
X45.47354 Y28.80230
X45.31324 Y28.68681
X45.11941 Y28.60050
X44.92632 Y28.55869
X44.71436 Y28.55564
X44.47847 Y28.60576
X44.29831 Y28.68681
X44.11629 Y28.82188
X43.97669 Y28.98150
X43.87857 Y29.15297
X43.81680 Y29.34063
X43.79084 Y29.56577
X43.81680 Y29.79095
X43.87857 Y29.97858
X43.97669 Y30.15008
X44.11629 Y30.30969
X44.29828 Y30.44477
X44.49214 Y30.53108
X44.69970 Y30.57517
X44.89724 Y30.57596
X45.11941 Y30.53108
X45.31327 Y30.44477
X45.48492 Y30.32005
X45.61769 Y30.17375
X45.73826 Y29.96491
X45.80084 Y29.76235
X45.81997 Y29.55114
G04 P0 ( dwell for no time -- G64 should not smooth over this point )
G00 Z1.00000 ( retract )

G00 X45.81997 Y27.01114 ( rapid move to begin. )
F150.00000
G01 Z-0.06000
G04 P0 ( dwell for no time -- G64 should not smooth over this point )
F300.00000
G01 X45.81997 Y27.01114
X45.79477 Y26.80063
X45.73300 Y26.61297
X45.61769 Y26.41783
X45.47354 Y26.26230
X45.31324 Y26.14681
X45.11941 Y26.06050
X44.92632 Y26.01869
X44.71436 Y26.01564
X44.47847 Y26.06576
X44.29831 Y26.14681
X44.11629 Y26.28188
X43.97669 Y26.44150
X43.87857 Y26.61297
X43.81680 Y26.80063
X43.79084 Y27.02577
X43.81680 Y27.25095
X43.87857 Y27.43858
X43.97669 Y27.61008
X44.11629 Y27.76969
X44.29828 Y27.90477
X44.49214 Y27.99108
X44.69970 Y28.03517
X44.89724 Y28.03596
X45.11941 Y27.99108
X45.31327 Y27.90477
X45.48492 Y27.78005
X45.61769 Y27.63375
X45.73826 Y27.42491
X45.80084 Y27.22235
X45.81997 Y27.01114
G04 P0 ( dwell for no time -- G64 should not smooth over this point )
G00 Z1.00000 ( retract )

G00 X43.27997 Y21.93114 ( rapid move to begin. )
F150.00000
G01 Z-0.06000
G04 P0 ( dwell for no time -- G64 should not smooth over this point )
F300.00000
G01 X43.27997 Y21.93114
X43.25477 Y21.72063
X43.19300 Y21.53297
X43.07769 Y21.33783
X42.93354 Y21.18230
X42.77324 Y21.06681
X42.57941 Y20.98050
X42.38632 Y20.93869
X42.17436 Y20.93564
X41.93847 Y20.98576
X41.75831 Y21.06681
X41.57629 Y21.20188
X41.43669 Y21.36150
X41.33857 Y21.53297
X41.27680 Y21.72063
X41.25084 Y21.94577
X41.27680 Y22.17095
X41.33857 Y22.35858
X41.43669 Y22.53008
X41.57629 Y22.68969
X41.75828 Y22.82477
X41.95214 Y22.91108
X42.15970 Y22.95517
X42.35724 Y22.95596
X42.57941 Y22.91108
X42.77327 Y22.82477
X42.94492 Y22.70005
X43.07769 Y22.55375
X43.19826 Y22.34491
X43.26084 Y22.14235
X43.27997 Y21.93114
G04 P0 ( dwell for no time -- G64 should not smooth over this point )
G00 Z1.00000 ( retract )

G00 X45.74121 Y35.28977 ( rapid move to begin. )
F150.00000
G01 Z-0.06000
G04 P0 ( dwell for no time -- G64 should not smooth over this point )
F300.00000
G01 X45.74121 Y35.28977
X59.87232 Y35.28977
X59.99589 Y35.50775
X60.14003 Y35.66327
X60.30028 Y35.77877
X60.50831 Y35.86886
X60.70170 Y35.90917
X60.89924 Y35.90996
X61.12141 Y35.86508
X61.30221 Y35.78542
X61.49728 Y35.64369
X61.63688 Y35.48408
X61.73500 Y35.31260
X61.79677 Y35.12495
X61.82273 Y34.89977
X61.79677 Y34.67463
X61.73500 Y34.48697
X61.63688 Y34.31550
X61.49728 Y34.15588
X61.31524 Y34.02081
X61.13510 Y33.93976
X60.89924 Y33.88964
X60.70170 Y33.89040
X60.50831 Y33.93071
X60.30031 Y34.02081
X60.14003 Y34.13630
X59.99589 Y34.29183
X59.87234 Y34.50983
X45.74126 Y34.50983
X45.63488 Y34.31550
X45.47354 Y34.13630
X45.31324 Y34.02081
X45.13310 Y33.93976
X44.89724 Y33.88964
X44.69970 Y33.89040
X44.50631 Y33.93071
X44.29831 Y34.02081
X44.13803 Y34.13630
X43.99389 Y34.29183
X43.87857 Y34.48697
X43.81680 Y34.67463
X43.79084 Y34.89977
X43.81680 Y35.12495
X43.87857 Y35.31258
X43.97669 Y35.48408
X44.11629 Y35.64369
X44.29828 Y35.77877
X44.47847 Y35.85982
X44.69970 Y35.90917
X44.89724 Y35.90996
X45.11941 Y35.86508
X45.30021 Y35.78542
X45.48492 Y35.65405
X45.61769 Y35.50775
X45.74121 Y35.28977
G04 P0 ( dwell for no time -- G64 should not smooth over this point )
G00 Z1.00000 ( retract )

G00 X67.27383 Y55.47581 ( rapid move to begin. )
F150.00000
G01 Z-0.06000
G04 P0 ( dwell for no time -- G64 should not smooth over this point )
F300.00000
G01 X67.27383 Y55.47581
X67.27383 Y56.99579
X67.28447 Y57.04934
X67.31482 Y57.09475
X67.36024 Y57.12510
X67.41381 Y57.13577
X68.93379 Y57.13577
X68.98734 Y57.12510
X69.03275 Y57.09475
X69.06310 Y57.04934
X69.07377 Y56.99579
X69.07377 Y55.47581
X69.06310 Y55.42224
X69.03275 Y55.37682
X68.98734 Y55.34647
X68.93379 Y55.33583
X67.41381 Y55.33583
X67.36024 Y55.34647
X67.31482 Y55.37682
X67.28447 Y55.42224
X67.27383 Y55.47581
G04 P0 ( dwell for no time -- G64 should not smooth over this point )
G00 Z1.00000 ( retract )

G00 X69.07299 Y58.76114 ( rapid move to begin. )
F150.00000
G01 Z-0.06000
G04 P0 ( dwell for no time -- G64 should not smooth over this point )
F300.00000
G01 X69.07299 Y58.76114
X69.05409 Y58.58868
X68.98929 Y58.39670
X68.89265 Y58.23541
X68.76460 Y58.09777
X68.62374 Y57.99640
X68.43776 Y57.91609
X68.26786 Y57.88075
X68.09437 Y57.87999
X67.88200 Y57.92513
X67.72381 Y57.99640
X67.56123 Y58.11736
X67.43773 Y58.25909
X67.34637 Y58.42343
X67.29120 Y58.60316
X67.27383 Y58.77577
X67.29120 Y58.94842
X67.34637 Y59.12815
X67.43773 Y59.29249
X67.56123 Y59.43422
X67.72379 Y59.55517
X67.88200 Y59.62645
X68.07972 Y59.67082
X68.25323 Y59.67161
X68.43776 Y59.63549
X68.62376 Y59.55517
X68.77598 Y59.44458
X68.89265 Y59.31616
X68.98929 Y59.15487
X69.05030 Y58.97704
X69.07299 Y58.76114
G04 P0 ( dwell for no time -- G64 should not smooth over this point )
G00 Z1.00000 ( retract )

G00 X69.07299 Y61.30114 ( rapid move to begin. )
F150.00000
G01 Z-0.06000
G04 P0 ( dwell for no time -- G64 should not smooth over this point )
F300.00000
G01 X69.07299 Y61.30114
X69.05409 Y61.12868
X68.98929 Y60.93670
X68.89265 Y60.77541
X68.76460 Y60.63777
X68.62374 Y60.53640
X68.43776 Y60.45609
X68.26786 Y60.42075
X68.09437 Y60.41999
X67.88200 Y60.46513
X67.72381 Y60.53640
X67.56123 Y60.65736
X67.43773 Y60.79909
X67.34637 Y60.96343
X67.29120 Y61.14316
X67.27383 Y61.31577
X67.29120 Y61.48842
X67.34637 Y61.66815
X67.43773 Y61.83249
X67.56123 Y61.97422
X67.72379 Y62.09517
X67.88200 Y62.16645
X68.07972 Y62.21082
X68.25323 Y62.21161
X68.43776 Y62.17549
X68.62376 Y62.09517
X68.77598 Y61.98458
X68.89265 Y61.85616
X68.98929 Y61.69487
X69.05030 Y61.51704
X69.07299 Y61.30114
G04 P0 ( dwell for no time -- G64 should not smooth over this point )
G00 Z1.00000 ( retract )

G00 X74.00163 Y58.04453 ( rapid move to begin. )
F150.00000
G01 Z-0.06000
G04 P0 ( dwell for no time -- G64 should not smooth over this point )
F300.00000
G01 X74.00163 Y58.04453
X73.75248 Y58.07275
X73.51407 Y58.15055
X73.29624 Y58.27476
X73.10783 Y58.44024
X72.95662 Y58.64029
X72.84875 Y58.86668
X72.79297 Y59.08215
X72.77742 Y59.33239
X72.81255 Y59.58070
X72.89693 Y59.81682
X73.02716 Y60.03114
X73.19784 Y60.21486
X73.40201 Y60.36046
X73.63129 Y60.46195
X73.87633 Y60.51524
X74.00866 Y60.52357
X74.25136 Y60.50051
X74.49147 Y60.42820
X74.71209 Y60.30899
X74.90422 Y60.14786
X75.05999 Y59.95131
X75.17297 Y59.72746
X75.23861 Y59.48543
X75.25415 Y59.23518
X75.21902 Y58.98687
X75.13464 Y58.75076
X75.00442 Y58.53643
X74.83373 Y58.35271
X74.62957 Y58.20712
X74.40028 Y58.10562
X74.15525 Y58.05233
X74.00163 Y58.04453
G04 P0 ( dwell for no time -- G64 should not smooth over this point )
G00 Z1.00000 ( retract )

G00 X80.50499 Y57.74514 ( rapid move to begin. )
F150.00000
G01 Z-0.06000
G04 P0 ( dwell for no time -- G64 should not smooth over this point )
F300.00000
G01 X80.50499 Y57.74514
X80.48226 Y57.55812
X80.42778 Y57.39292
X80.32427 Y57.21825
X80.19592 Y57.08027
X80.05475 Y56.97867
X79.88249 Y56.90197
X79.71251 Y56.86506
X79.52417 Y56.86201
X79.31140 Y56.90722
X79.15282 Y56.97867
X78.98991 Y57.09986
X78.86611 Y57.24192
X78.77980 Y57.39292
X78.72532 Y57.55812
X78.70182 Y57.75977
X78.72532 Y57.96145
X78.77980 Y58.12663
X78.86611 Y58.27766
X78.98991 Y58.41972
X79.15277 Y58.54090
X79.32506 Y58.61761
X79.50952 Y58.65680
X79.68343 Y58.65759
X79.88249 Y58.61761
X80.05475 Y58.54090
X80.20730 Y58.43008
X80.32427 Y58.30133
X80.43303 Y58.11296
X80.48833 Y57.93285
X80.50499 Y57.74514
G04 P0 ( dwell for no time -- G64 should not smooth over this point )
G00 Z1.00000 ( retract )

G00 X83.04499 Y57.74514 ( rapid move to begin. )
F150.00000
G01 Z-0.06000
G04 P0 ( dwell for no time -- G64 should not smooth over this point )
F300.00000
G01 X83.04499 Y57.74514
X83.02226 Y57.55812
X82.96778 Y57.39292
X82.86427 Y57.21825
X82.73592 Y57.08027
X82.59475 Y56.97867
X82.42249 Y56.90197
X82.25251 Y56.86506
X82.06417 Y56.86201
X81.85140 Y56.90722
X81.69282 Y56.97867
X81.52991 Y57.09986
X81.40611 Y57.24192
X81.31980 Y57.39292
X81.26532 Y57.55812
X81.24182 Y57.75977
X81.26532 Y57.96145
X81.31980 Y58.12663
X81.40611 Y58.27766
X81.52991 Y58.41972
X81.69277 Y58.54090
X81.86506 Y58.61761
X82.04952 Y58.65680
X82.22343 Y58.65759
X82.42249 Y58.61761
X82.59475 Y58.54090
X82.74730 Y58.43008
X82.86427 Y58.30133
X82.97303 Y58.11296
X83.02833 Y57.93285
X83.04499 Y57.74514
G04 P0 ( dwell for no time -- G64 should not smooth over this point )
G00 Z1.00000 ( retract )

G00 X83.04499 Y52.66512 ( rapid move to begin. )
F150.00000
G01 Z-0.06000
G04 P0 ( dwell for no time -- G64 should not smooth over this point )
F300.00000
G01 X83.04499 Y52.66512
X83.02226 Y52.47810
X82.96778 Y52.31290
X82.86427 Y52.13822
X82.73592 Y52.00025
X82.59475 Y51.89865
X82.42249 Y51.82194
X82.25251 Y51.78503
X82.06417 Y51.78199
X81.85140 Y51.82720
X81.69282 Y51.89865
X81.52991 Y52.01983
X81.40611 Y52.16189
X81.31980 Y52.31290
X81.26532 Y52.47810
X81.24182 Y52.67975
X81.26532 Y52.88143
X81.31980 Y53.04660
X81.40611 Y53.19763
X81.52991 Y53.33969
X81.69277 Y53.46088
X81.86506 Y53.53758
X82.04952 Y53.57678
X82.22343 Y53.57756
X82.42249 Y53.53758
X82.59475 Y53.46088
X82.74730 Y53.35006
X82.86427 Y53.22130
X82.97303 Y53.03294
X83.02833 Y52.85282
X83.04499 Y52.66512
G04 P0 ( dwell for no time -- G64 should not smooth over this point )
G00 Z1.00000 ( retract )

G00 X80.50499 Y52.66512 ( rapid move to begin. )
F150.00000
G01 Z-0.06000
G04 P0 ( dwell for no time -- G64 should not smooth over this point )
F300.00000
G01 X80.50499 Y52.66512
X80.48226 Y52.47810
X80.42778 Y52.31290
X80.32427 Y52.13822
X80.19592 Y52.00025
X80.05475 Y51.89865
X79.88249 Y51.82194
X79.71251 Y51.78503
X79.52417 Y51.78199
X79.31140 Y51.82720
X79.15282 Y51.89865
X78.98991 Y52.01983
X78.86611 Y52.16189
X78.77980 Y52.31290
X78.72532 Y52.47810
X78.70182 Y52.67975
X78.72532 Y52.88143
X78.77980 Y53.04660
X78.86611 Y53.19763
X78.98991 Y53.33969
X79.15277 Y53.46088
X79.32506 Y53.53758
X79.50952 Y53.57678
X79.68343 Y53.57756
X79.88249 Y53.53758
X80.05475 Y53.46088
X80.20730 Y53.35006
X80.32427 Y53.22130
X80.43303 Y53.03294
X80.48833 Y52.85282
X80.50499 Y52.66512
G04 P0 ( dwell for no time -- G64 should not smooth over this point )
G00 Z1.00000 ( retract )

G00 X72.77582 Y50.56380 ( rapid move to begin. )
F150.00000
G01 Z-0.06000
G04 P0 ( dwell for no time -- G64 should not smooth over this point )
F300.00000
G01 X72.77582 Y50.56380
X72.77582 Y52.76380
X72.78647 Y52.81734
X72.81682 Y52.86276
X72.86223 Y52.89311
X72.91580 Y52.90378
X75.11580 Y52.90378
X75.16934 Y52.89311
X75.21476 Y52.86276
X75.24511 Y52.81734
X75.25578 Y52.76380
X75.25578 Y50.56380
X75.24511 Y50.51023
X75.21476 Y50.46482
X75.16934 Y50.43447
X75.11580 Y50.42382
X72.91580 Y50.42382
X72.86223 Y50.43447
X72.81682 Y50.46482
X72.78647 Y50.51023
X72.77582 Y50.56380
G04 P0 ( dwell for no time -- G64 should not smooth over this point )
G00 Z1.00000 ( retract )

G00 X90.66499 Y52.66512 ( rapid move to begin. )
F150.00000
G01 Z-0.06000
G04 P0 ( dwell for no time -- G64 should not smooth over this point )
F300.00000
G01 X90.66499 Y52.66512
X90.64226 Y52.47810
X90.58778 Y52.31290
X90.48427 Y52.13822
X90.35592 Y52.00025
X90.21475 Y51.89865
X90.04249 Y51.82194
X89.87251 Y51.78503
X89.68417 Y51.78199
X89.47140 Y51.82720
X89.31282 Y51.89865
X89.14991 Y52.01983
X89.02611 Y52.16189
X88.93980 Y52.31290
X88.88532 Y52.47810
X88.86182 Y52.67975
X88.88532 Y52.88143
X88.93980 Y53.04660
X89.02611 Y53.19763
X89.14991 Y53.33969
X89.31277 Y53.46088
X89.48506 Y53.53758
X89.66952 Y53.57678
X89.84343 Y53.57756
X90.04249 Y53.53758
X90.21475 Y53.46088
X90.36730 Y53.35006
X90.48427 Y53.22130
X90.59303 Y53.03294
X90.64833 Y52.85282
X90.66499 Y52.66512
G04 P0 ( dwell for no time -- G64 should not smooth over this point )
G00 Z1.00000 ( retract )

G00 X94.32160 Y54.48455 ( rapid move to begin. )
F150.00000
G01 Z-0.06000
G04 P0 ( dwell for no time -- G64 should not smooth over this point )
F300.00000
G01 X94.32160 Y54.48455
X94.12280 Y54.50766
X93.95871 Y54.55912
X93.78231 Y54.65376
X93.62856 Y54.78198
X93.50377 Y54.93849
X93.41304 Y55.11696
X93.36011 Y55.31000
X93.34710 Y55.50972
X93.37459 Y55.70804
X93.44139 Y55.89671
X93.54487 Y56.06811
X93.68068 Y56.21515
X93.84332 Y56.33186
X94.02617 Y56.41342
X94.22163 Y56.45653
X94.32869 Y56.46356
X94.52107 Y56.44560
X94.71286 Y56.38845
X94.88927 Y56.29381
X95.04301 Y56.16559
X95.16780 Y56.00908
X95.25853 Y55.83062
X95.31146 Y55.63758
X95.32447 Y55.43786
X95.29699 Y55.23954
X95.23018 Y55.05086
X95.12671 Y54.87947
X94.99089 Y54.73242
X94.82826 Y54.61571
X94.64540 Y54.53415
X94.44995 Y54.49105
X94.32160 Y54.48455
G04 P0 ( dwell for no time -- G64 should not smooth over this point )
G00 Z1.00000 ( retract )

G00 X93.34583 Y57.16381 ( rapid move to begin. )
F150.00000
G01 Z-0.06000
G04 P0 ( dwell for no time -- G64 should not smooth over this point )
F300.00000
G01 X93.34583 Y57.16381
X93.34583 Y58.86379
X93.35648 Y58.91733
X93.38683 Y58.96274
X93.43225 Y58.99310
X93.48581 Y59.00376
X95.18579 Y59.00376
X95.23933 Y58.99310
X95.28474 Y58.96274
X95.31510 Y58.91733
X95.32576 Y58.86379
X95.32576 Y57.16381
X95.31510 Y57.11025
X95.28474 Y57.06483
X95.23933 Y57.03448
X95.18579 Y57.02383
X93.48581 Y57.02383
X93.43225 Y57.03448
X93.38683 Y57.06483
X93.35648 Y57.11025
X93.34583 Y57.16381
G04 P0 ( dwell for no time -- G64 should not smooth over this point )
G00 Z1.00000 ( retract )

G00 X90.66499 Y57.74514 ( rapid move to begin. )
F150.00000
G01 Z-0.06000
G04 P0 ( dwell for no time -- G64 should not smooth over this point )
F300.00000
G01 X90.66499 Y57.74514
X90.64226 Y57.55812
X90.58778 Y57.39292
X90.48427 Y57.21825
X90.35592 Y57.08027
X90.21475 Y56.97867
X90.04249 Y56.90197
X89.87251 Y56.86506
X89.68417 Y56.86201
X89.47140 Y56.90722
X89.31282 Y56.97867
X89.14991 Y57.09986
X89.02611 Y57.24192
X88.93980 Y57.39292
X88.88532 Y57.55812
X88.86182 Y57.75977
X88.88532 Y57.96145
X88.93980 Y58.12663
X89.02611 Y58.27766
X89.14991 Y58.41972
X89.31277 Y58.54090
X89.48506 Y58.61761
X89.66952 Y58.65680
X89.84343 Y58.65759
X90.04249 Y58.61761
X90.21475 Y58.54090
X90.36730 Y58.43008
X90.48427 Y58.30133
X90.59303 Y58.11296
X90.64833 Y57.93285
X90.66499 Y57.74514
G04 P0 ( dwell for no time -- G64 should not smooth over this point )
G00 Z1.00000 ( retract )

G00 X94.32160 Y62.10455 ( rapid move to begin. )
F150.00000
G01 Z-0.06000
G04 P0 ( dwell for no time -- G64 should not smooth over this point )
F300.00000
G01 X94.32160 Y62.10455
X94.12280 Y62.12766
X93.95871 Y62.17912
X93.78231 Y62.27376
X93.62856 Y62.40198
X93.50377 Y62.55849
X93.41304 Y62.73696
X93.36011 Y62.93000
X93.34710 Y63.12972
X93.37459 Y63.32804
X93.44139 Y63.51671
X93.54487 Y63.68811
X93.68068 Y63.83515
X93.84332 Y63.95186
X94.02617 Y64.03342
X94.22163 Y64.07653
X94.32869 Y64.08356
X94.52107 Y64.06560
X94.71286 Y64.00845
X94.88927 Y63.91381
X95.04301 Y63.78559
X95.16780 Y63.62908
X95.25853 Y63.45062
X95.31146 Y63.25758
X95.32447 Y63.05786
X95.29699 Y62.85954
X95.23018 Y62.67086
X95.12671 Y62.49947
X94.99089 Y62.35242
X94.82826 Y62.23571
X94.64540 Y62.15415
X94.44995 Y62.11105
X94.32160 Y62.10455
G04 P0 ( dwell for no time -- G64 should not smooth over this point )
G00 Z1.00000 ( retract )

G00 X94.32160 Y64.64455 ( rapid move to begin. )
F150.00000
G01 Z-0.06000
G04 P0 ( dwell for no time -- G64 should not smooth over this point )
F300.00000
G01 X94.32160 Y64.64455
X94.12280 Y64.66766
X93.95871 Y64.71912
X93.78231 Y64.81376
X93.62856 Y64.94198
X93.50377 Y65.09849
X93.41304 Y65.27696
X93.36011 Y65.47000
X93.34710 Y65.66972
X93.37459 Y65.86804
X93.44139 Y66.05671
X93.54487 Y66.22811
X93.68068 Y66.37515
X93.84332 Y66.49186
X94.02617 Y66.57342
X94.22163 Y66.61653
X94.32869 Y66.62356
X94.52107 Y66.60560
X94.71286 Y66.54845
X94.88927 Y66.45381
X95.04301 Y66.32559
X95.16780 Y66.16908
X95.25853 Y65.99062
X95.31146 Y65.79758
X95.32447 Y65.59786
X95.29699 Y65.39954
X95.23018 Y65.21086
X95.12671 Y65.03947
X94.99089 Y64.89242
X94.82826 Y64.77571
X94.64540 Y64.69415
X94.44995 Y64.65105
X94.32160 Y64.64455
G04 P0 ( dwell for no time -- G64 should not smooth over this point )
G00 Z1.00000 ( retract )

G00 X93.34583 Y67.32381 ( rapid move to begin. )
F150.00000
G01 Z-0.06000
G04 P0 ( dwell for no time -- G64 should not smooth over this point )
F300.00000
G01 X93.34583 Y67.32381
X93.34583 Y69.02379
X93.35648 Y69.07733
X93.38683 Y69.12274
X93.43225 Y69.15310
X93.48581 Y69.16376
X95.18579 Y69.16376
X95.23933 Y69.15310
X95.28474 Y69.12274
X95.31510 Y69.07733
X95.32576 Y69.02379
X95.32576 Y67.32381
X95.31510 Y67.27025
X95.28474 Y67.22483
X95.23933 Y67.19448
X95.18579 Y67.18383
X93.48581 Y67.18383
X93.43225 Y67.19448
X93.38683 Y67.22483
X93.35648 Y67.27025
X93.34583 Y67.32381
G04 P0 ( dwell for no time -- G64 should not smooth over this point )
G00 Z1.00000 ( retract )

G00 X91.50299 Y72.47714 ( rapid move to begin. )
F150.00000
G01 Z-0.06000
G04 P0 ( dwell for no time -- G64 should not smooth over this point )
F300.00000
G01 X91.50299 Y72.47714
X91.46194 Y72.11591
X91.35333 Y71.78408
X91.16222 Y71.45769
X90.91666 Y71.18952
X90.63375 Y70.98494
X90.30144 Y70.83699
X89.96012 Y70.76366
X89.59657 Y70.76061
X89.21244 Y70.84225
X88.89382 Y70.98494
X88.58918 Y71.20910
X88.34816 Y71.48136
X88.17424 Y71.78408
X88.06563 Y72.11591
X88.02382 Y72.49177
X88.06563 Y72.86767
X88.17424 Y73.19947
X88.34816 Y73.50221
X88.58918 Y73.77447
X88.89377 Y73.99863
X89.22611 Y74.14658
X89.58191 Y74.22220
X89.93103 Y74.22299
X90.30144 Y74.14658
X90.62069 Y74.00528
X90.93840 Y73.77447
X91.17942 Y73.50221
X91.35333 Y73.19949
X91.46801 Y72.83907
X91.50299 Y72.47714
G04 P0 ( dwell for no time -- G64 should not smooth over this point )
G00 Z1.00000 ( retract )

G00 X93.34583 Y49.03581 ( rapid move to begin. )
F150.00000
G01 Z-0.06000
G04 P0 ( dwell for no time -- G64 should not smooth over this point )
F300.00000
G01 X93.34583 Y49.03581
X93.34583 Y50.73579
X93.35648 Y50.78933
X93.38683 Y50.83474
X93.43225 Y50.86510
X93.48581 Y50.87576
X95.18579 Y50.87576
X95.23933 Y50.86510
X95.28474 Y50.83474
X95.31510 Y50.78933
X95.32576 Y50.73579
X95.32576 Y49.03581
X95.31510 Y48.98225
X95.28474 Y48.93683
X95.23933 Y48.90648
X95.18579 Y48.89583
X93.48581 Y48.89583
X93.43225 Y48.90648
X93.38683 Y48.93683
X93.35648 Y48.98225
X93.34583 Y49.03581
G04 P0 ( dwell for no time -- G64 should not smooth over this point )
G00 Z1.00000 ( retract )

G00 X94.32160 Y46.35655 ( rapid move to begin. )
F150.00000
G01 Z-0.06000
G04 P0 ( dwell for no time -- G64 should not smooth over this point )
F300.00000
G01 X94.32160 Y46.35655
X94.12280 Y46.37966
X93.95871 Y46.43112
X93.78231 Y46.52576
X93.62856 Y46.65398
X93.50377 Y46.81049
X93.41304 Y46.98896
X93.36011 Y47.18200
X93.34710 Y47.38172
X93.37459 Y47.58004
X93.44139 Y47.76871
X93.54487 Y47.94011
X93.68068 Y48.08715
X93.84332 Y48.20386
X94.02617 Y48.28542
X94.22163 Y48.32853
X94.32869 Y48.33556
X94.52107 Y48.31760
X94.71286 Y48.26045
X94.88927 Y48.16581
X95.04301 Y48.03759
X95.16780 Y47.88108
X95.25853 Y47.70262
X95.31146 Y47.50958
X95.32447 Y47.30986
X95.29699 Y47.11154
X95.23018 Y46.92286
X95.12671 Y46.75147
X94.99089 Y46.60442
X94.82826 Y46.48771
X94.64540 Y46.40615
X94.44995 Y46.36305
X94.32160 Y46.35655
G04 P0 ( dwell for no time -- G64 should not smooth over this point )
G00 Z1.00000 ( retract )

G00 X93.34583 Y40.90781 ( rapid move to begin. )
F150.00000
G01 Z-0.06000
G04 P0 ( dwell for no time -- G64 should not smooth over this point )
F300.00000
G01 X93.34583 Y40.90781
X93.34583 Y42.60779
X93.35648 Y42.66133
X93.38683 Y42.70674
X93.43225 Y42.73710
X93.48581 Y42.74776
X95.18579 Y42.74776
X95.23933 Y42.73710
X95.28474 Y42.70674
X95.31510 Y42.66133
X95.32576 Y42.60779
X95.32576 Y40.90781
X95.31510 Y40.85425
X95.28474 Y40.80883
X95.23933 Y40.77848
X95.18579 Y40.76783
X93.48581 Y40.76783
X93.43225 Y40.77848
X93.38683 Y40.80883
X93.35648 Y40.85425
X93.34583 Y40.90781
G04 P0 ( dwell for no time -- G64 should not smooth over this point )
G00 Z1.00000 ( retract )

G00 X94.32160 Y38.22855 ( rapid move to begin. )
F150.00000
G01 Z-0.06000
G04 P0 ( dwell for no time -- G64 should not smooth over this point )
F300.00000
G01 X94.32160 Y38.22855
X94.12280 Y38.25166
X93.95871 Y38.30312
X93.78231 Y38.39776
X93.62856 Y38.52598
X93.50377 Y38.68249
X93.41304 Y38.86096
X93.36011 Y39.05400
X93.34710 Y39.25372
X93.37459 Y39.45204
X93.44139 Y39.64071
X93.54487 Y39.81211
X93.68068 Y39.95915
X93.84332 Y40.07586
X94.02617 Y40.15742
X94.22163 Y40.20053
X94.32869 Y40.20756
X94.52107 Y40.18960
X94.71286 Y40.13245
X94.88927 Y40.03781
X95.04301 Y39.90959
X95.16780 Y39.75308
X95.25853 Y39.57462
X95.31146 Y39.38158
X95.32447 Y39.18186
X95.29699 Y38.98354
X95.23018 Y38.79486
X95.12671 Y38.62347
X94.99089 Y38.47642
X94.82826 Y38.35971
X94.64540 Y38.27815
X94.44995 Y38.23505
X94.32160 Y38.22855
G04 P0 ( dwell for no time -- G64 should not smooth over this point )
G00 Z1.00000 ( retract )

G00 X93.34583 Y32.77981 ( rapid move to begin. )
F150.00000
G01 Z-0.06000
G04 P0 ( dwell for no time -- G64 should not smooth over this point )
F300.00000
G01 X93.34583 Y32.77981
X93.34583 Y34.47979
X93.35648 Y34.53333
X93.38683 Y34.57874
X93.43225 Y34.60910
X93.48581 Y34.61976
X95.18579 Y34.61976
X95.23933 Y34.60910
X95.28474 Y34.57874
X95.31510 Y34.53333
X95.32576 Y34.47979
X95.32576 Y32.77981
X95.31510 Y32.72625
X95.28474 Y32.68083
X95.23933 Y32.65048
X95.18579 Y32.63983
X93.48581 Y32.63983
X93.43225 Y32.65048
X93.38683 Y32.68083
X93.35648 Y32.72625
X93.34583 Y32.77981
G04 P0 ( dwell for no time -- G64 should not smooth over this point )
G00 Z1.00000 ( retract )

G00 X94.32160 Y30.10055 ( rapid move to begin. )
F150.00000
G01 Z-0.06000
G04 P0 ( dwell for no time -- G64 should not smooth over this point )
F300.00000
G01 X94.32160 Y30.10055
X94.12280 Y30.12366
X93.95871 Y30.17512
X93.78231 Y30.26976
X93.62856 Y30.39798
X93.50377 Y30.55449
X93.41304 Y30.73296
X93.36011 Y30.92600
X93.34710 Y31.12572
X93.37459 Y31.32404
X93.44139 Y31.51271
X93.54487 Y31.68411
X93.68068 Y31.83115
