( pcb2gcode 1.3.2 )
( Software-independent Gcode )

G94 ( Millimeters per minute feed rate. )
G21 ( Units == Millimeters. )

G90 ( Absolute coordinates. )
S10000 ( RPM spindle speed. )
F600.00000 ( Feedrate. )

F600.00000 ( Feedrate. )
M3 ( Spindle on clockwise. )
G04 P0 ( dwell for no time -- G64 should not smooth over this point )
G00 Z1.00000 ( retract )

G00 X0.12580 Y1.62580 ( rapid move to begin. )
G01 Z-2.50000 F300.00000 ( plunge. )
G04 P0 ( dwell for no time -- G64 should not smooth over this point )
F600.00000
G01 X0.12580 Y1.62580
X0.12580 Y76.68280
X0.15463 Y76.97543
X0.24000 Y77.25681
X0.37861 Y77.51615
X0.56515 Y77.74345
X0.79245 Y77.92999
X1.05179 Y78.06860
X1.33317 Y78.15397
X1.62580 Y78.18280
X47.81830 Y78.18280
Z-0.60000
X51.31830 Y78.18280
Z-2.50000 F300.00000
F600.00000
G01 X97.51080 Y78.18280
X97.80343 Y78.15397
X98.08481 Y78.06860
X98.34415 Y77.92999
X98.57145 Y77.74345
X98.75799 Y77.51615
X98.89660 Y77.25681
X98.98197 Y76.97543
X99.01080 Y76.68280
X99.01080 Y1.62580
X98.98197 Y1.33317
X98.89660 Y1.05179
X98.75799 Y0.79245
X98.57145 Y0.56515
X98.34415 Y0.37861
X98.08481 Y0.24000
X97.80343 Y0.15463
X97.51080 Y0.12580
X51.31830 Y0.12580
Z-0.60000
X47.81830 Y0.12580
Z-2.50000 F300.00000
F600.00000
G01 X1.62580 Y0.12580
X1.33317 Y0.15463
X1.05179 Y0.24000
X0.79245 Y0.37861
X0.56515 Y0.56515
X0.37861 Y0.79245
X0.24000 Y1.05179
X0.15463 Y1.33317
X0.12580 Y1.62580

G04 P0 ( dwell for no time -- G64 should not smooth over this point )
G53 G00 Z20.000 ( retract )

M5 ( Spindle off. )
M9 ( Coolant off. )
M2 ( Program end. )

