( pcb2gcode 1.3.2 )
( Software-independent Gcode )

G94 ( Millimeters per minute feed rate. )
G21 ( Units == Millimeters. )

G90 ( Absolute coordinates. )
S10000 ( RPM spindle speed. )
G64 P0.01000 ( set maximum deviation from commanded toolpath )
F600.00000 ( Feedrate. )

F600.00000 ( Feedrate. )
M3 ( Spindle on clockwise. )
G04 P0 ( dwell for no time -- G64 should not smooth over this point )
G00 Z1.00000 ( retract )

G00 X7.59823 Y6.93029 ( rapid move to begin. )
F300.00000
G01 Z-0.05000
G04 P0 ( dwell for no time -- G64 should not smooth over this point )
F600.00000
G01 X7.59823 Y6.93029
X7.50999 Y6.84200
X7.42861 Y7.06834
X7.44997 Y7.51675
X7.50057 Y7.63890
X7.59826 Y7.54129
X7.56443 Y7.42302
X7.54583 Y7.23578
X7.56443 Y7.04855
X7.59823 Y6.93029
G04 P0 ( dwell for no time -- G64 should not smooth over this point )
G00 Z1.00000 ( retract )

G00 X8.82683 Y8.33163 ( rapid move to begin. )
F300.00000
G01 Z-0.05000
G04 P0 ( dwell for no time -- G64 should not smooth over this point )
F600.00000
G01 X8.82683 Y8.33163
X8.94898 Y8.28104
X8.85485 Y8.18683
X8.65035 Y8.23029
X8.46219 Y8.23140
X8.23770 Y8.18596
X8.15203 Y8.27159
X8.37842 Y8.35299
X8.82683 Y8.33163
G04 P0 ( dwell for no time -- G64 should not smooth over this point )
G00 Z1.00000 ( retract )

G00 X10.60971 Y6.34012 ( rapid move to begin. )
F300.00000
G01 Z-0.05000
G04 P0 ( dwell for no time -- G64 should not smooth over this point )
F600.00000
G01 X10.60971 Y6.34012
X10.72081 Y6.29090
X10.72081 Y4.69580
X10.74560 Y4.57134
X10.81639 Y4.46560
X11.50051 Y3.79042
X11.60790 Y3.74416
X11.68080 Y3.73581
X14.85580 Y3.73581
X14.94262 Y3.74912
X15.08562 Y3.83098
X16.35562 Y5.10098
X16.42608 Y5.20639
X16.45079 Y5.33080
X16.45079 Y5.84749
X16.56215 Y5.89308
X16.69103 Y5.97342
X16.83309 Y6.10281
X16.94622 Y6.25821
X17.03784 Y6.47172
X17.07251 Y6.66003
X17.07637 Y7.73417
X17.05183 Y7.94586
X16.99042 Y8.12798
X16.91671 Y8.26074
X16.76532 Y8.43704
X16.61089 Y8.55142
X16.43662 Y8.63234
X16.28960 Y8.67042
X16.05750 Y8.68220
X15.90739 Y8.65919
X15.72585 Y8.59633
X15.52862 Y8.47339
X15.39215 Y8.33803
X15.30541 Y8.21337
X15.22590 Y8.03847
X15.17912 Y7.81154
X15.17526 Y6.73740
X15.19164 Y6.56537
X15.26121 Y6.34360
X15.35803 Y6.17766
X15.48630 Y6.03453
X15.60640 Y5.94157
X15.80081 Y5.84452
X15.80081 Y5.46534
X14.72126 Y4.38579
X11.81539 Y4.38579
X11.37079 Y4.83040
X11.37079 Y6.29107
X11.52713 Y6.36026
X11.69863 Y6.47946
X11.86619 Y6.66557
X11.95936 Y6.82907
X12.01852 Y7.00768
X12.04580 Y7.23578
X12.02721 Y7.42302
X11.96685 Y7.62295
X11.84163 Y7.83981
X11.72972 Y7.96412
X11.56338 Y8.09038
X11.33460 Y8.19224
X11.12942 Y8.23140
X10.94128 Y8.23029
X10.75703 Y8.19224
X10.56450 Y8.11131
X10.36190 Y7.96412
X10.24999 Y7.83981
X10.14179 Y7.66117
X10.06442 Y7.42302
X10.04583 Y7.23578
X10.06442 Y7.04855
X10.14875 Y6.79834
X9.00626 Y5.65579
X6.73539 Y5.65579
X5.62839 Y6.76275
X5.68648 Y6.89044
X5.72961 Y7.05693
X5.74444 Y7.26869
X5.71635 Y7.47913
X5.64650 Y7.67954
X5.53766 Y7.86186
X5.39443 Y8.01850
X5.22257 Y8.14311
X5.02910 Y8.23059
X4.79194 Y8.28114
X4.50446 Y8.26732
X4.30078 Y8.20773
X4.11320 Y8.10829
X3.94947 Y7.97314
X3.81632 Y7.80783
X3.70515 Y7.58114
X3.65590 Y7.37461
X3.64922 Y7.16245
X3.67528 Y6.99244
X3.74513 Y6.79204
X3.87871 Y6.57774
X4.02791 Y6.42671
X4.20446 Y6.30880
X4.36253 Y6.24098
X4.59969 Y6.19044
X4.88716 Y6.20426
X5.09085 Y6.26384
X5.16928 Y6.30268
X6.37103 Y5.10098
X6.46753 Y5.03448
X6.54703 Y5.01035
X9.14062 Y5.00581
X9.26521 Y5.03052
X9.37062 Y5.10098
X10.60971 Y6.34012
G04 P0 ( dwell for no time -- G64 should not smooth over this point )
G00 Z1.00000 ( retract )

G00 X8.67326 Y11.19853 ( rapid move to begin. )
F300.00000
G01 Z-0.05000
G04 P0 ( dwell for no time -- G64 should not smooth over this point )
F600.00000
G01 X8.67326 Y11.19853
X8.22485 Y11.21989
X8.10268 Y11.27051
X8.19686 Y11.36475
X8.38060 Y11.32457
X8.58942 Y11.32020
X8.81390 Y11.36559
X8.89960 Y11.27991
X8.67326 Y11.19853
G04 P0 ( dwell for no time -- G64 should not smooth over this point )
G00 Z1.00000 ( retract )

G00 X7.46999 Y11.92200 ( rapid move to begin. )
F300.00000
G01 Z-0.05000
G04 P0 ( dwell for no time -- G64 should not smooth over this point )
F600.00000
G01 X7.46999 Y11.92200
X7.38861 Y12.14834
X7.40997 Y12.59675
X7.46056 Y12.71890
X7.55825 Y12.62129
X7.52442 Y12.50302
X7.50583 Y12.31578
X7.52442 Y12.12855
X7.55823 Y12.01029
X7.46999 Y11.92200
G04 P0 ( dwell for no time -- G64 should not smooth over this point )
G00 Z1.00000 ( retract )

G00 X8.78683 Y13.41163 ( rapid move to begin. )
F300.00000
G01 Z-0.05000
G04 P0 ( dwell for no time -- G64 should not smooth over this point )
F600.00000
G01 X8.78683 Y13.41163
X8.90897 Y13.36104
X8.81484 Y13.26683
X8.58942 Y13.31140
X8.40128 Y13.31029
X8.19683 Y13.26685
X8.11205 Y13.35161
X8.33841 Y13.43299
X8.78683 Y13.41163
G04 P0 ( dwell for no time -- G64 should not smooth over this point )
G00 Z1.00000 ( retract )

G00 X10.27621 Y15.16581 ( rapid move to begin. )
F300.00000
G01 Z-0.05000
G04 P0 ( dwell for no time -- G64 should not smooth over this point )
F600.00000
G01 X10.27621 Y15.16581
X10.68083 Y14.76119
X10.68083 Y13.26050
X10.48832 Y13.17041
X10.33673 Y13.05893
X10.21001 Y12.91981
X10.09228 Y12.72251
X10.02444 Y12.50302
X10.00694 Y12.29487
X10.03313 Y12.08768
X10.08479 Y11.92863
X10.18545 Y11.74557
X10.32193 Y11.58746
X10.50585 Y11.44976
X10.67730 Y11.37224
X10.88062 Y11.32457
X11.13104 Y11.32457
X11.33437 Y11.37224
X11.48715 Y11.44026
X11.67493 Y11.57265
X11.82621 Y11.74557
X11.91938 Y11.90907
X11.94707 Y11.99081
X12.63589 Y11.99081
X12.63627 Y11.79645
X12.65979 Y11.60572
X12.72121 Y11.42360
X12.79492 Y11.29083
X12.94630 Y11.11453
X13.10074 Y11.00016
X13.23708 Y10.93328
X13.46203 Y10.87504
X13.65413 Y10.86937
X13.80424 Y10.89238
X14.02215 Y10.97308
X14.15103 Y11.05342
X14.29309 Y11.18281
X14.42583 Y11.37356
X14.49784 Y11.55172
X14.53251 Y11.74003
X14.53637 Y12.81417
X14.51999 Y12.98621
X14.45042 Y13.20798
X14.35359 Y13.37391
X14.22532 Y13.51704
X14.10523 Y13.61001
X13.89662 Y13.71234
X13.74960 Y13.75042
X13.55796 Y13.76424
X13.32827 Y13.72906
X13.14948 Y13.65850
X13.02060 Y13.57816
X12.87854 Y13.44877
X12.76541 Y13.29337
X12.68590 Y13.11847
X12.64321 Y12.93109
X12.63823 Y12.64079
X11.94707 Y12.64079
X11.91938 Y12.72251
X11.82621 Y12.88601
X11.68974 Y13.04412
X11.50584 Y13.18179
X11.33061 Y13.26076
X11.32843 Y14.92039
X11.30214 Y15.02905
X11.23526 Y15.12596
X10.62132 Y15.73652
X10.52609 Y15.79456
X10.41067 Y15.81577
X7.21129 Y15.81336
X7.07682 Y15.77251
X7.00603 Y15.72057
X4.65125 Y13.36579
X3.84581 Y13.36579
X3.76928 Y13.35055
X3.67955 Y13.27689
X3.64581 Y13.16579
X3.64581 Y11.46582
X3.67955 Y11.35469
X3.76928 Y11.28103
X3.84581 Y11.26582
X5.54579 Y11.26582
X5.62234 Y11.28103
X5.68721 Y11.32439
X5.73057 Y11.38926
X5.74579 Y11.46582
X5.74579 Y13.16579
X5.73057 Y13.24232
X5.68721 Y13.30719
X5.62234 Y13.35055
X5.56821 Y13.36355
X7.37045 Y15.16581
X10.27621 Y15.16581
G04 P0 ( dwell for no time -- G64 should not smooth over this point )
G00 Z1.00000 ( retract )

G00 X5.74319 Y18.21180 ( rapid move to begin. )
F300.00000
G01 Z-0.05000
G04 P0 ( dwell for no time -- G64 should not smooth over this point )
F600.00000
G01 X5.74319 Y18.21180
X5.68729 Y18.07680
X5.37942 Y17.73898
X5.14980 Y17.63111
X5.14980 Y17.72189
X5.31165 Y17.81640
X5.44215 Y17.92844
X5.57530 Y18.09374
X5.63773 Y18.21180
X5.74319 Y18.21180
G04 P0 ( dwell for no time -- G64 should not smooth over this point )
G00 Z1.00000 ( retract )

G00 X3.70446 Y18.07675 ( rapid move to begin. )
F300.00000
G01 Z-0.05000
G04 P0 ( dwell for no time -- G64 should not smooth over this point )
F600.00000
G01 X3.70446 Y18.07675
X3.64851 Y18.21180
X3.75013 Y18.21180
X3.85397 Y18.03972
X3.99720 Y17.88307
X4.16905 Y17.75846
X4.24180 Y17.72285
X4.24180 Y17.63118
X4.01234 Y17.73890
X3.70446 Y18.07675
G04 P0 ( dwell for no time -- G64 should not smooth over this point )
G00 Z1.00000 ( retract )

G00 X19.63796 Y11.37712 ( rapid move to begin. )
F300.00000
G01 Z-0.05000
G04 P0 ( dwell for no time -- G64 should not smooth over this point )
F600.00000
G01 X19.63796 Y11.37712
X19.40987 Y11.03574
X19.06849 Y10.80765
X18.66583 Y10.72754
X18.26324 Y10.80760
X17.92188 Y11.03569
X17.65463 Y11.44219
X17.59392 Y11.50892
X17.45216 Y11.57818
X17.31937 Y11.57897
X17.21927 Y11.54087
X17.14693 Y11.48354
X17.08699 Y11.39485
X17.06225 Y11.32421
X16.80258 Y11.00341
X16.57980 Y10.88238
X16.57980 Y10.98408
X16.72300 Y11.07819
X16.85948 Y11.21354
X16.96583 Y11.37356
X17.03784 Y11.55172
X17.07251 Y11.74003
X17.07637 Y12.81417
X17.05183 Y13.02586
X16.99042 Y13.20798
X16.91671 Y13.34074
X16.79466 Y13.48915
X16.57980 Y13.64630
X16.57980 Y13.74912
X16.80253 Y13.62817
X17.06222 Y13.30732
X17.10619 Y13.20081
X17.16557 Y13.12979
X17.28008 Y13.06307
X17.38592 Y13.04613
X17.51543 Y13.07379
X17.59395 Y13.12263
X17.65460 Y13.18936
X17.92183 Y13.59578
X18.26318 Y13.82387
X18.66580 Y13.90394
X19.06844 Y13.82393
X19.40982 Y13.59583
X19.63791 Y13.25446
X19.68617 Y13.01196
X19.73499 Y12.89406
X19.82526 Y12.80384
X19.94312 Y12.75507
X20.09016 Y12.75987
X20.20821 Y12.81976
X20.26755 Y12.87854
X20.30275 Y12.93937
X20.62041 Y13.25758
X20.72396 Y13.33000
X20.78797 Y13.42893
X20.81281 Y13.55400
X20.81281 Y18.06339
X20.77949 Y18.20639
X20.69170 Y18.31856
X20.59795 Y18.54436
X20.59770 Y18.78607
X20.69010 Y19.00974
X20.86089 Y19.18084
X21.08444 Y19.27365
X21.32615 Y19.27390
X21.54982 Y19.18150
X21.72091 Y19.01071
X21.81372 Y18.78716
X21.81398 Y18.54548
X21.70361 Y18.27837
X21.67885 Y18.15338
X21.68515 Y13.49050
X21.71550 Y13.40726
X21.76158 Y13.33757
X21.86943 Y13.25885
X22.18708 Y12.94178
X22.21946 Y12.87851
X22.30775 Y12.79121
X22.46465 Y12.73866
X22.55307 Y12.74252
X22.64512 Y12.77437
X22.79825 Y12.62129
X22.76442 Y12.50302
X22.74583 Y12.31578
X22.76442 Y12.12855
X22.79823 Y12.01029
X22.64514 Y11.85713
X22.57064 Y11.88499
X22.47722 Y11.89462
X22.32830 Y11.85223
X22.24659 Y11.78644
X22.18835 Y11.69160
X21.87438 Y11.37704
X21.46714 Y11.20795
X21.02655 Y11.20757
X20.61901 Y11.37592
X20.30407 Y11.69027
X20.23166 Y11.79383
X20.13247 Y11.85797
X20.00656 Y11.88276
X19.91919 Y11.86924
X19.84202 Y11.83772
X19.73496 Y11.73739
X19.68617 Y11.61956
X19.63796 Y11.37712
G04 P0 ( dwell for no time -- G64 should not smooth over this point )
G00 Z1.00000 ( retract )

G00 X20.30461 Y12.64079 ( rapid move to begin. )
F300.00000
G01 Z-0.05000
G04 P0 ( dwell for no time -- G64 should not smooth over this point )
F600.00000
G01 X20.30461 Y12.64079
X19.61573 Y12.64079
X19.59999 Y12.98621
X19.53042 Y13.20798
X19.45671 Y13.34074
X19.33466 Y13.48915
X19.15089 Y13.63142
X18.97662 Y13.71234
X18.82960 Y13.75042
X18.63796 Y13.76424
X18.44739 Y13.73919
X18.26585 Y13.67633
X18.10060 Y13.57816
X17.93215 Y13.41803
X17.82580 Y13.25801
X17.75379 Y13.07986
X17.71912 Y12.89154
X17.71526 Y11.81740
X17.73979 Y11.60572
X17.80121 Y11.42360
X17.87492 Y11.29083
X17.99697 Y11.14242
X18.18074 Y11.00016
X18.35501 Y10.91923
X18.50202 Y10.88116
X18.73413 Y10.86937
X18.92336 Y10.90252
X19.10215 Y10.97308
X19.26300 Y11.07819
X19.39948 Y11.21354
X19.50583 Y11.37356
X19.57784 Y11.55172
X19.61251 Y11.74006
X19.61340 Y11.99081
X20.30456 Y11.99081
X20.33229 Y11.90905
X20.42544 Y11.74557
X20.59297 Y11.55949
X20.74583 Y11.44976
X20.91728 Y11.37224
X21.16219 Y11.32020
X21.35035 Y11.32129
X21.53460 Y11.35934
X21.76333 Y11.46117
X21.91492 Y11.57265
X22.04164 Y11.71176
X22.15937 Y11.90907
X22.22721 Y12.12855
X22.24580 Y12.31578
X22.22721 Y12.50302
X22.15937 Y12.72251
X22.06620 Y12.88601
X21.92973 Y13.04412
X21.74583 Y13.18179
X21.57080 Y13.26068
X21.57080 Y18.32638
X21.67006 Y18.48198
X21.69813 Y18.58244
X21.70471 Y18.68678
X21.68944 Y18.78996
X21.65309 Y18.88772
X21.55518 Y19.02254
X21.43712 Y19.10829
X21.25810 Y19.16303
X21.07148 Y19.14670
X20.97451 Y19.10829
X20.87128 Y19.03738
X20.75853 Y18.88772
X20.72218 Y18.78996
X20.70692 Y18.68678
X20.71350 Y18.58244
X20.75853 Y18.44386
X20.81449 Y18.35564
X20.92081 Y18.25689
X20.92081 Y13.26050
X20.72831 Y13.17041
X20.56191 Y13.04412
X20.42544 Y12.88601
X20.33227 Y12.72251
X20.30461 Y12.64079
G04 P0 ( dwell for no time -- G64 should not smooth over this point )
G00 Z1.00000 ( retract )

G00 X23.35205 Y13.35161 ( rapid move to begin. )
F300.00000
G01 Z-0.05000
G04 P0 ( dwell for no time -- G64 should not smooth over this point )
F600.00000
G01 X23.35205 Y13.35161
X23.57841 Y13.43299
X24.02683 Y13.41163
X24.14897 Y13.36104
X24.05484 Y13.26683
X23.82942 Y13.31140
X23.64128 Y13.31029
X23.43683 Y13.26685
X23.35205 Y13.35161
G04 P0 ( dwell for no time -- G64 should not smooth over this point )
G00 Z1.00000 ( retract )

G00 X24.84171 Y12.03478 ( rapid move to begin. )
F300.00000
G01 Z-0.05000
G04 P0 ( dwell for no time -- G64 should not smooth over this point )
F600.00000
G01 X24.84171 Y12.03478
X24.79109 Y11.91258
X24.69337 Y12.01026
X24.72721 Y12.12855
X24.74580 Y12.31578
X24.72721 Y12.50302
X24.69340 Y12.62124
X24.78169 Y12.70955
X24.86307 Y12.48319
X24.84171 Y12.03478
G04 P0 ( dwell for no time -- G64 should not smooth over this point )
G00 Z1.00000 ( retract )

G00 X23.34268 Y11.27051 ( rapid move to begin. )
F300.00000
G01 Z-0.05000
G04 P0 ( dwell for no time -- G64 should not smooth over this point )
F600.00000
G01 X23.34268 Y11.27051
X23.43686 Y11.36475
X23.62060 Y11.32457
X23.82942 Y11.32020
X24.05390 Y11.36559
X24.13960 Y11.27991
X23.91326 Y11.19853
X23.46485 Y11.21989
X23.34268 Y11.27051
G04 P0 ( dwell for no time -- G64 should not smooth over this point )
G00 Z1.00000 ( retract )

G00 X23.31207 Y8.27161 ( rapid move to begin. )
F300.00000
G01 Z-0.05000
G04 P0 ( dwell for no time -- G64 should not smooth over this point )
F600.00000
G01 X23.31207 Y8.27161
X23.53841 Y8.35299
X23.98682 Y8.33163
X24.10902 Y8.28101
X24.01400 Y8.18594
X23.78944 Y8.23140
X23.60130 Y8.23029
X23.39688 Y8.18685
X23.31207 Y8.27161
G04 P0 ( dwell for no time -- G64 should not smooth over this point )
G00 Z1.00000 ( retract )

G00 X24.74168 Y7.62955 ( rapid move to begin. )
F300.00000
G01 Z-0.05000
G04 P0 ( dwell for no time -- G64 should not smooth over this point )
F600.00000
G01 X24.74168 Y7.62955
X24.82306 Y7.40319
X24.80170 Y6.95478
X24.75111 Y6.83263
X24.65339 Y6.93026
X24.68723 Y7.04855
X24.70582 Y7.23578
X24.68723 Y7.42302
X24.65342 Y7.54126
X24.74168 Y7.62955
G04 P0 ( dwell for no time -- G64 should not smooth over this point )
G00 Z1.00000 ( retract )

G00 X23.30270 Y6.19049 ( rapid move to begin. )
F300.00000
G01 Z-0.05000
G04 P0 ( dwell for no time -- G64 should not smooth over this point )
F600.00000
G01 X23.30270 Y6.19049
X23.39688 Y6.28475
X23.58062 Y6.24457
X23.78944 Y6.24020
X24.01390 Y6.28559
X24.09962 Y6.19991
X23.87326 Y6.11853
X23.42485 Y6.13989
X23.30270 Y6.19049
G04 P0 ( dwell for no time -- G64 should not smooth over this point )
G00 Z1.00000 ( retract )

G00 X17.71627 Y6.71645 ( rapid move to begin. )
F300.00000
G01 Z-0.05000
G04 P0 ( dwell for no time -- G64 should not smooth over this point )
F600.00000
G01 X17.71627 Y6.71645
X17.73164 Y6.56537
X17.78526 Y6.38081
X17.89803 Y6.17766
X18.02630 Y6.03453
X18.14640 Y5.94157
X18.35501 Y5.83923
X18.50202 Y5.80116
X18.69366 Y5.78734
X18.88424 Y5.81238
X19.10215 Y5.89308
X19.23103 Y5.97342
X19.37309 Y6.10281
X19.50583 Y6.29356
X19.57784 Y6.47172
X19.60842 Y6.62049
X19.61637 Y7.73417
X19.59183 Y7.94586
X19.53042 Y8.12798
X19.43359 Y8.29391
X19.30532 Y8.43704
X19.15089 Y8.55142
X18.97662 Y8.63234
X18.78960 Y8.67654
X18.59750 Y8.68220
X18.40827 Y8.64906
X18.22948 Y8.57850
X18.10060 Y8.49816
X17.95854 Y8.36877
X17.82580 Y8.17801
X17.75379 Y7.99986
X17.72321 Y7.85109
X17.71627 Y6.71645
G04 P0 ( dwell for no time -- G64 should not smooth over this point )
G00 Z1.00000 ( retract )

G00 X32.86999 Y18.27200 ( rapid move to begin. )
F300.00000
G01 Z-0.05000
G04 P0 ( dwell for no time -- G64 should not smooth over this point )
F600.00000
G01 X32.86999 Y18.27200
X32.78861 Y18.49834
X32.80997 Y18.94675
X32.86056 Y19.06890
X32.95825 Y18.97129
X32.92442 Y18.85302
X32.90583 Y18.66578
X32.92442 Y18.47855
X32.95823 Y18.36029
X32.86999 Y18.27200
G04 P0 ( dwell for no time -- G64 should not smooth over this point )
G00 Z1.00000 ( retract )

G00 X34.32094 Y22.11078 ( rapid move to begin. )
F300.00000
G01 Z-0.05000
G04 P0 ( dwell for no time -- G64 should not smooth over this point )
F600.00000
G01 X34.32094 Y22.11078
X33.98942 Y22.15609
X33.78967 Y22.15439
X33.49069 Y22.11080
X33.38830 Y22.06041
X33.22190 Y21.93412
X33.08543 Y21.77601
X32.99226 Y21.61251
X32.96460 Y21.53079
X5.74579 Y21.53079
X5.74195 Y22.09480
X5.68721 Y22.19719
X5.62234 Y22.24055
X5.54579 Y22.25579
X3.84581 Y22.25579
X3.76928 Y22.24055
X3.70441 Y22.19719
X3.64968 Y22.09480
X3.64581 Y20.35582
X3.66105 Y20.27926
X3.70441 Y20.21439
X3.80680 Y20.15965
X5.58483 Y20.15965
X5.68721 Y20.21439
X5.74195 Y20.31678
X5.74579 Y20.88081
X32.96455 Y20.88081
X33.00179 Y20.78040
X33.10999 Y20.60176
X33.25297 Y20.44949
X33.40583 Y20.33976
X33.57728 Y20.26224
X33.78060 Y20.21457
X34.01035 Y20.21129
X34.19460 Y20.24934
X34.38713 Y20.33026
X34.57491 Y20.46265
X34.70163 Y20.60176
X34.80984 Y20.78040
X34.88721 Y21.01855
X34.90580 Y21.20578
X34.88721 Y21.39302
X34.80984 Y21.63117
X34.70163 Y21.80981
X34.58972 Y21.93412
X34.42338 Y22.06038
X34.32094 Y22.11078
G04 P0 ( dwell for no time -- G64 should not smooth over this point )
G00 Z1.00000 ( retract )

G00 X34.05396 Y22.75947 ( rapid move to begin. )
F300.00000
G01 Z-0.05000
G04 P0 ( dwell for no time -- G64 should not smooth over this point )
F600.00000
G01 X34.05396 Y22.75947
X32.81053 Y22.76066
X31.69079 Y23.88040
X31.69079 Y24.11202
X31.86433 Y24.19409
X31.99321 Y24.28771
X32.13090 Y24.43409
X32.24461 Y24.62449
X32.31005 Y24.83645
X32.32671 Y25.03670
X32.30136 Y25.23602
X32.25213 Y25.38753
X32.15546 Y25.56368
X32.00951 Y25.73066
X31.84683 Y25.84887
X31.68261 Y25.92319
X31.46636 Y25.97249
X31.26527 Y25.97249
X31.08876 Y25.93609
X30.90349 Y25.85839
X30.72214 Y25.73068
X30.60073 Y25.59749
X30.47949 Y25.38753
X30.43027 Y25.23602
X30.40492 Y25.03670
X30.43027 Y24.79556
X30.49651 Y24.60584
X30.60073 Y24.43409
X30.72214 Y24.30089
X30.88483 Y24.18268
X31.04081 Y24.11204
X31.04467 Y23.70674
X31.06204 Y23.63051
X31.10128 Y23.55715
X32.46498 Y22.19043
X32.57492 Y22.12840
X32.67580 Y22.11080
X33.49076 Y22.11080
X33.82218 Y22.15609
X34.02195 Y22.15439
X34.32086 Y22.11080
X35.04121 Y22.11080
X35.50879 Y21.64326
X35.42444 Y21.39302
X35.40585 Y21.20578
X35.43313 Y20.97768
X35.49231 Y20.79905
X35.61001 Y20.60176
X35.75299 Y20.44949
X35.90585 Y20.33976
X36.11705 Y20.24934
X36.32220 Y20.21020
X36.51037 Y20.21129
X36.73437 Y20.26224
X36.92335 Y20.35117
X37.08974 Y20.47746
X37.22621 Y20.63557
X37.31938 Y20.79907
X37.34707 Y20.88081
X38.22786 Y20.88081
X38.30323 Y20.78551
X38.41433 Y20.75180
X39.55733 Y20.75180
X39.66845 Y20.78551
X39.74211 Y20.87525
X39.75733 Y20.95180
X39.75349 Y21.49882
X39.69875 Y21.60120
X39.63388 Y21.64456
X39.55733 Y21.65980
X38.41433 Y21.65980
X38.30323 Y21.62607
X38.22789 Y21.53079
X37.34707 Y21.53079
X37.30986 Y21.63117
X37.20165 Y21.80981
X37.05868 Y21.96209
X36.90584 Y22.07179
X36.69462 Y22.16224
X36.48944 Y22.20140
X36.28062 Y22.19701
X36.11705 Y22.16224
X35.96975 Y22.10146
X35.40562 Y22.66556
X35.27676 Y22.74314
X35.20041 Y22.75835
X34.05396 Y22.75947
G04 P0 ( dwell for no time -- G64 should not smooth over this point )
G00 Z1.00000 ( retract )

G00 X33.75607 Y22.75980 ( rapid move to begin. )
F300.00000
G01 Z-0.05000
G04 P0 ( dwell for no time -- G64 should not smooth over this point )
F600.00000
G01 X33.75607 Y22.75980
X34.03049 Y22.75700
X34.19460 Y22.78934
X34.38713 Y22.87026
X34.57491 Y23.00265
X34.72619 Y23.17557
X34.81936 Y23.33907
X34.87852 Y23.51768
X34.90580 Y23.74578
X34.88721 Y23.93302
X34.85340 Y24.05126
X35.00651 Y24.20442
X35.08106 Y24.17653
X35.17443 Y24.16691
X35.26343 Y24.18281
X35.35680 Y24.23109
X35.42132 Y24.29464
X35.46333 Y24.36993
X35.77735 Y24.68453
X35.91004 Y24.76269
X35.96302 Y24.82728
X35.99520 Y24.89934
X36.01039 Y24.97465
X36.01281 Y25.38636
X35.97618 Y25.53467
X35.87539 Y25.65387
X35.70615 Y25.73294
X35.33811 Y26.10036
X35.13859 Y26.58087
X35.13811 Y27.10086
X35.33676 Y27.58171
X35.70417 Y27.94975
X36.18469 Y28.14927
X36.70468 Y28.14975
X37.18552 Y27.95110
X37.55357 Y27.58369
X37.75309 Y27.10317
X37.75357 Y26.58318
X37.55492 Y26.10234
X37.18745 Y25.73424
X37.00478 Y25.64379
X36.92215 Y25.54742
X36.87882 Y25.38783
X36.87882 Y24.96790
X36.90376 Y24.84265
X36.94984 Y24.76686
X37.34455 Y24.37427
X37.51364 Y23.96706
X37.50374 Y23.42596
X37.53686 Y23.29282
X37.58237 Y23.22505
X37.79810 Y23.00587
X37.90625 Y22.93346
X37.99312 Y22.91263
X38.12047 Y22.92320
X38.29065 Y23.01847
X38.44727 Y23.05022
X39.52672 Y23.05022
X39.66944 Y23.02340
X39.77610 Y22.95477
X39.84638 Y22.85190
X39.87775 Y22.69709
X39.87775 Y22.25213
X39.85097 Y22.10971
X39.75527 Y21.93636
X39.73957 Y21.82548
X39.76494 Y21.71266
X39.84605 Y21.58350
X39.87775 Y21.42709
X39.87775 Y20.98213
X39.85097 Y20.83971
X39.75527 Y20.66636
X39.73957 Y20.55548
X39.76494 Y20.44266
X39.84605 Y20.31350
X39.87775 Y20.15709
X39.87775 Y19.71213
X39.85097 Y19.56971
X39.75527 Y19.39636
X39.73957 Y19.28548
X39.76494 Y19.17266
X39.84605 Y19.04350
X39.87775 Y18.88709
X39.87775 Y18.44213
X39.85097 Y18.29966
X39.78234 Y18.19303
X39.53342 Y18.04914
X39.47371 Y17.98384
X39.42512 Y17.86623
X39.41887 Y15.52301
X39.38001 Y15.32755
X39.26926 Y15.16182
X38.04483 Y13.93739
X37.87910 Y13.82664
X37.68382 Y13.78778
X32.03194 Y13.78778
X31.76209 Y13.83503
X31.57962 Y13.78595
X31.15409 Y13.78555
X30.76049 Y13.94816
X30.45932 Y14.24879
X30.29603 Y14.64206
X30.29562 Y15.06751
X30.45823 Y15.46111
X30.75887 Y15.76228
X31.15214 Y15.92557
X31.57759 Y15.92598
X31.97118 Y15.76337
X32.07085 Y15.66934
X32.14672 Y15.62341
X32.23285 Y15.60248
X32.31617 Y15.60213
X32.45338 Y15.65394
X32.54350 Y15.74422
X32.59211 Y15.86162
X32.59785 Y16.30533
X32.79676 Y16.78671
X33.16519 Y17.15577
X33.30684 Y17.22026
X33.39221 Y17.30190
X33.44334 Y17.40982
X33.44550 Y17.56334
X33.59686 Y17.71475
X33.78060 Y17.67457
X33.98942 Y17.67020
X34.23435 Y17.72224
X34.38713 Y17.79026
X34.55863 Y17.90946
X34.70163 Y18.06176
X34.81936 Y18.25907
X34.88721 Y18.47855
X34.90471 Y18.68670
X34.88721 Y18.85302
X34.85340 Y18.97126
X35.00651 Y19.12442
X35.08106 Y19.09653
X35.17443 Y19.08691
X35.26343 Y19.10281
X35.35680 Y19.15109
X35.42132 Y19.21464
X35.46333 Y19.28993
X35.77859 Y19.60578
X35.90539 Y19.66486
X35.96927 Y19.72389
X36.01585 Y19.79295
X36.04448 Y19.88172
X36.03071 Y20.04246
X35.95312 Y20.16699
X35.88151 Y20.21937
X35.77902 Y20.26587
X35.46503 Y20.57931
X35.37997 Y20.71182
X35.28982 Y20.77197
X35.20979 Y20.79615
X35.09190 Y20.79437
X34.97405 Y20.74537
X34.88555 Y20.65747
X34.84776 Y20.58101
X34.53290 Y20.26557
X34.42152 Y20.21294
X34.35784 Y20.15404
X34.29566 Y20.04342
X34.28050 Y19.96689
X34.28439 Y19.87832
X34.34403 Y19.74606
X34.21484 Y19.61683
X33.98942 Y19.66140
X33.80128 Y19.66029
X33.59683 Y19.61685
X33.46996 Y19.74365
X33.52356 Y19.84881
X33.53646 Y19.95302
X33.52056 Y20.04197
X33.47227 Y20.13534
X33.38596 Y20.21619
X33.28053 Y20.26440
X32.96407 Y20.58027
X32.89165 Y20.68383
X32.79275 Y20.74786
X32.66760 Y20.77278
X6.19326 Y20.77278
X6.07728 Y20.75139
X5.95531 Y20.66989
X5.87980 Y20.53344
X5.83949 Y20.24375
X5.77078 Y20.13699
X5.66791 Y20.06669
X5.54340 Y20.02828
X5.47982 Y19.98632
X5.42054 Y19.92310
X5.37060 Y19.80883
X5.36710 Y19.68414
X5.41023 Y19.56773
X5.68701 Y19.25526
X5.74314 Y19.11980
X5.64149 Y19.11980
X5.51292 Y19.32384
X5.36372 Y19.47487
X5.22257 Y19.57311
X4.99052 Y19.67268
X4.70596 Y19.71551
X4.46486 Y19.68919
X4.30078 Y19.63773
X4.11320 Y19.53829
X3.92161 Y19.37383
X3.81632 Y19.23783
X3.75392 Y19.11980
X3.64851 Y19.11980
X3.70439 Y19.25473
X3.96517 Y19.54634
X4.00718 Y19.62267
X4.02473 Y19.70804
X4.01122 Y19.83235
X3.95196 Y19.94228
X3.86908 Y20.01568
X3.73383 Y20.06211
X3.62707 Y20.13082
X3.55676 Y20.23369
X3.52537 Y20.38866
X3.52537 Y22.02513
X3.55219 Y22.16777
X3.62090 Y22.27453
X3.72377 Y22.34484
X3.87873 Y22.37623
X5.51520 Y22.37623
X5.65785 Y22.34941
X5.76461 Y22.28070
X5.83491 Y22.17783
X5.87980 Y21.87811
X5.93720 Y21.76483
X6.05038 Y21.67207
X6.19328 Y21.63879
X32.13481 Y21.64507
X32.25264 Y21.69384
X32.31800 Y21.75373
X32.36478 Y21.82294
X32.39341 Y21.91164
X32.39559 Y21.99041
X32.34301 Y22.14730
X31.08249 Y23.41674
X30.97172 Y23.58250
X30.92595 Y23.88487
X30.87766 Y24.00000
X30.45930 Y24.40884
X30.29603 Y24.80206
X30.29562 Y25.22751
X30.45823 Y25.62111
X30.75887 Y25.92228
X31.15214 Y26.08557
X31.57759 Y26.08598
X31.97118 Y25.92337
X32.27235 Y25.62273
X32.43565 Y25.22947
X32.43608 Y24.80292
X32.35549 Y24.60201
X32.33964 Y24.51844
X32.34355 Y24.45162
X32.37789 Y24.35002
X32.46316 Y24.24793
X32.54319 Y24.20132
X32.67410 Y24.17747
X32.80512 Y24.20437
X32.95825 Y24.05129
X32.92442 Y23.93302
X32.90692 Y23.76670
X32.92442 Y23.55855
X32.99229 Y23.33905
X33.08543 Y23.17557
X33.22190 Y23.01746
X33.40583 Y22.87976
X33.57728 Y22.80224
X33.75607 Y22.75980
G04 P0 ( dwell for no time -- G64 should not smooth over this point )
G00 Z1.00000 ( retract )

G00 X34.30897 Y24.79104 ( rapid move to begin. )
F300.00000
G01 Z-0.05000
G04 P0 ( dwell for no time -- G64 should not smooth over this point )
F600.00000
G01 X34.30897 Y24.79104
X34.21484 Y24.69683
X33.98942 Y24.74140
X33.80128 Y24.74029
X33.59683 Y24.69685
X33.51205 Y24.78161
X33.73841 Y24.86299
X34.18683 Y24.84163
X34.30897 Y24.79104
G04 P0 ( dwell for no time -- G64 should not smooth over this point )
G00 Z1.00000 ( retract )

G00 X37.85039 Y22.80079 ( rapid move to begin. )
F300.00000
G01 Z-0.05000
G04 P0 ( dwell for no time -- G64 should not smooth over this point )
F600.00000
G01 X37.85039 Y22.80079
X37.31689 Y23.33424
X37.37854 Y23.51768
X37.40582 Y23.74578
X37.37854 Y23.97389
X37.30986 Y24.17117
X37.20165 Y24.34981
X37.08974 Y24.47412
X36.90584 Y24.61179
X36.77079 Y24.67310
X36.77079 Y25.69042
X37.04554 Y25.80325
X37.23216 Y25.93749
X37.40302 Y26.12075
X37.54158 Y26.35415
X37.61367 Y26.57244
X37.64529 Y26.84204
X37.62235 Y27.07076
X37.54910 Y27.31039
X37.42759 Y27.52954
X37.26322 Y27.71861
X37.02690 Y27.89034
X36.81646 Y27.98283
X36.57120 Y28.03495
X36.34133 Y28.03606
X36.07519 Y27.98283
X35.82853 Y27.86944
X35.64321 Y27.73342
X35.48860 Y27.56334
X35.35002 Y27.32992
X35.26927 Y27.07076
X35.24634 Y26.84204
X35.27796 Y26.57244
X35.35004 Y26.35415
X35.46404 Y26.15456
X35.62840 Y25.96548
X35.82850 Y25.81468
X36.12081 Y25.69045
X36.12081 Y24.70305
X35.92452 Y24.62131
X35.73673 Y24.48893
X35.61001 Y24.34981
X35.49228 Y24.15251
X35.42444 Y23.93302
X35.40585 Y23.74578
X35.42444 Y23.55855
X35.48479 Y23.35863
X35.58545 Y23.17557
X35.72193 Y23.01746
X35.90585 Y22.87976
X36.07730 Y22.80224
X36.28062 Y22.75457
X36.51037 Y22.75129
X36.69462 Y22.78934
X36.86955 Y22.86241
X37.48603 Y22.24598
X37.55690 Y22.19399
X37.63340 Y22.16181
X38.22769 Y22.15144
X38.30323 Y22.05551
X38.41433 Y22.02180
X39.55733 Y22.02180
X39.66845 Y22.05551
X39.74211 Y22.14525
X39.75733 Y22.22180
X39.75349 Y22.76882
X39.69875 Y22.87120
X39.63388 Y22.91456
X39.55733 Y22.92980
X38.41433 Y22.92980
X38.30323 Y22.89607
X38.22789 Y22.80079
X37.85039 Y22.80079
G04 P0 ( dwell for no time -- G64 should not smooth over this point )
G00 Z1.00000 ( retract )

G00 X38.22771 Y20.26016 ( rapid move to begin. )
F300.00000
G01 Z-0.05000
G04 P0 ( dwell for no time -- G64 should not smooth over this point )
F600.00000
G01 X38.22771 Y20.26016
X37.69076 Y20.25836
X37.58245 Y20.23204
X37.48603 Y20.16557
X36.86962 Y19.54911
X36.69462 Y19.62224
X36.53104 Y19.65701
X36.32220 Y19.66140
X36.07730 Y19.60933
X35.88832 Y19.52041
X35.73673 Y19.40893
X35.61001 Y19.26981
X35.49228 Y19.07251
X35.43313 Y18.89389
X35.40585 Y18.66578
X35.42444 Y18.47855
X35.48479 Y18.27863
X35.52340 Y18.20299
X34.94603 Y17.62557
X34.87956 Y17.52915
X34.85703 Y17.45783
X34.49198 Y17.09275
X34.27646 Y17.18783
X34.05185 Y17.23667
X33.75978 Y17.23667
X33.53519 Y17.18783
X33.32475 Y17.09534
X33.10321 Y16.93842
X32.94860 Y16.76834
X32.81002 Y16.53492
X32.73796 Y16.31666
X32.70634 Y16.04704
X32.73796 Y15.77744
X32.81004 Y15.55915
X32.92404 Y15.35956
X33.08840 Y15.17048
X33.32472 Y14.99875
X33.53519 Y14.90627
X33.80133 Y14.85306
X34.05185 Y14.85743
X34.27646 Y14.90627
X34.50554 Y15.00825
X34.72322 Y15.17048
X34.86302 Y15.32575
X34.99208 Y15.54051
X35.08235 Y15.81833
X35.10529 Y16.04704
X35.08235 Y16.27576
X35.00910 Y16.51539
X34.94814 Y16.62971
X35.40562 Y17.08724
X35.47209 Y17.18366
X35.49462 Y17.25498
X35.99741 Y17.75780
X36.11705 Y17.70934
X36.28062 Y17.67457
X36.53104 Y17.67457
X36.73437 Y17.72224
X36.88715 Y17.79026
X37.08974 Y17.93746
X37.20165 Y18.06176
X37.30986 Y18.24040
X37.38723 Y18.47855
X37.40582 Y18.66578
X37.38723 Y18.85302
X37.31697 Y19.07728
X37.85045 Y19.61081
X38.22786 Y19.61081
X38.30323 Y19.51551
X38.41433 Y19.48180
X39.55733 Y19.48180
X39.66845 Y19.51551
X39.74211 Y19.60525
X39.75733 Y19.68180
X39.75349 Y20.22882
X39.69875 Y20.33120
X39.63388 Y20.37456
X39.55733 Y20.38980
X38.41433 Y20.38980
X38.30323 Y20.35607
X38.22771 Y20.26016
G04 P0 ( dwell for no time -- G64 should not smooth over this point )
G00 Z1.00000 ( retract )

G00 X37.58128 Y14.54579 ( rapid move to begin. )
F300.00000
G01 Z-0.05000
G04 P0 ( dwell for no time -- G64 should not smooth over this point )
F600.00000
G01 X37.58128 Y14.54579
X32.27217 Y14.54579
X32.31005 Y14.67645
X32.32671 Y14.83487
X32.31005 Y15.03512
X32.24464 Y15.24706
X32.15546 Y15.40368
X32.00951 Y15.57066
X31.84683 Y15.68887
X31.64286 Y15.77609
X31.44543 Y15.81361
X31.26527 Y15.81249
X31.04901 Y15.76319
X30.86730 Y15.67749
X30.72214 Y15.57068
X30.60073 Y15.43749
X30.48699 Y15.24706
X30.43027 Y15.07602
X30.40383 Y14.85578
X30.42158 Y14.67645
X30.47949 Y14.48405
X30.60073 Y14.27409
X30.72214 Y14.14089
X30.88483 Y14.02268
X31.04901 Y13.94839
X31.24459 Y13.90236
X31.48703 Y13.90236
X31.64286 Y13.93548
X31.77530 Y13.98964
X31.85485 Y13.93208
X32.00080 Y13.89581
X37.71580 Y13.89581
X37.84021 Y13.92052
X37.94562 Y13.99098
X39.21564 Y15.26098
X39.28610 Y15.36639
X39.31082 Y15.49080
X39.31082 Y18.21180
X39.59637 Y18.21564
X39.69875 Y18.27037
X39.74211 Y18.33525
X39.75733 Y18.41180
X39.75349 Y18.95882
X39.69875 Y19.06120
X39.63388 Y19.10456
X39.55733 Y19.11980
X38.41433 Y19.11980
X38.30323 Y19.08607
X38.22957 Y18.99633
X38.21433 Y18.91980
X38.21433 Y18.41180
X38.24806 Y18.30068
X38.30323 Y18.24551
X38.37531 Y18.21564
X38.66083 Y18.21180
X38.66083 Y15.62537
X37.58128 Y14.54579
G04 P0 ( dwell for no time -- G64 should not smooth over this point )
G00 Z1.00000 ( retract )

G00 X44.88180 Y18.21180 ( rapid move to begin. )
F300.00000
G01 Z-0.05000
G04 P0 ( dwell for no time -- G64 should not smooth over this point )
F600.00000
G01 X44.88180 Y18.21180
X44.88180 Y18.10380
X44.70304 Y18.10380
X44.58988 Y18.15064
X44.52871 Y18.21180
X44.88180 Y18.21180
G04 P0 ( dwell for no time -- G64 should not smooth over this point )
G00 Z1.00000 ( retract )

G00 X45.78980 Y18.21180 ( rapid move to begin. )
F300.00000
G01 Z-0.05000
G04 P0 ( dwell for no time -- G64 should not smooth over this point )
F600.00000
G01 X45.78980 Y18.21180
X46.14296 Y18.21180
X46.08187 Y18.15071
X45.96867 Y18.10380
X45.78980 Y18.10380
X45.78980 Y18.21180
G04 P0 ( dwell for no time -- G64 should not smooth over this point )
G00 Z1.00000 ( retract )

G00 X49.37999 Y18.27200 ( rapid move to begin. )
F300.00000
G01 Z-0.05000
G04 P0 ( dwell for no time -- G64 should not smooth over this point )
F600.00000
G01 X49.37999 Y18.27200
X49.29863 Y18.49834
X49.31997 Y18.94675
X49.37056 Y19.06890
X49.46825 Y18.97129
X49.43442 Y18.85302
X49.41583 Y18.66578
X49.43442 Y18.47855
X49.46823 Y18.36029
X49.37999 Y18.27200
G04 P0 ( dwell for no time -- G64 should not smooth over this point )
G00 Z1.00000 ( retract )

G00 X50.73993 Y22.15076 ( rapid move to begin. )
F300.00000
G01 Z-0.05000
G04 P0 ( dwell for no time -- G64 should not smooth over this point )
F600.00000
G01 X50.73993 Y22.15076
X50.53615 Y22.17418
X50.29548 Y22.17418
X50.09172 Y22.15078
X49.93450 Y22.08131
X49.74671 Y21.94893
X49.61999 Y21.80981
X49.51179 Y21.63117
X49.47460 Y21.53079
X47.87580 Y21.53079
X47.75142 Y21.50600
X47.64603 Y21.43557
X46.47126 Y20.26079
X46.09379 Y20.26079
X46.01842 Y20.35607
X45.90730 Y20.38980
X44.76430 Y20.38980
X44.68777 Y20.37456
X44.62290 Y20.33120
X44.56816 Y20.22882
X44.56430 Y19.68180
X44.57954 Y19.60525
X44.65320 Y19.51551
X44.76430 Y19.48180
X45.90730 Y19.48180
X46.01842 Y19.51551
X46.09376 Y19.61081
X46.60580 Y19.61081
X46.73021 Y19.63552
X46.83562 Y19.70598
X48.01045 Y20.88081
X49.47455 Y20.88081
X49.51179 Y20.78040
X49.61999 Y20.60176
X49.76297 Y20.44949
X49.93447 Y20.33026
X50.12703 Y20.24934
X50.33218 Y20.21020
X50.52035 Y20.21129
X50.74435 Y20.26224
X50.89713 Y20.33026
X51.06863 Y20.44946
X51.23619 Y20.63557
X51.32936 Y20.79907
X51.38852 Y20.97768
X51.41580 Y21.20578
X51.38852 Y21.43389
X51.32936 Y21.61251
X51.23619 Y21.77601
X51.06866 Y21.96209
X50.91582 Y22.07179
X50.73993 Y22.15076
G04 P0 ( dwell for no time -- G64 should not smooth over this point )
G00 Z1.00000 ( retract )

G00 X50.73513 Y22.79927 ( rapid move to begin. )
F300.00000
G01 Z-0.05000
G04 P0 ( dwell for no time -- G64 should not smooth over this point )
F600.00000
G01 X50.73513 Y22.79927
X50.53630 Y22.77677
X50.33221 Y22.77494
X50.09462 Y22.79988
X49.28052 Y22.80067
X48.20079 Y23.88040
X48.20079 Y24.11202
X48.37433 Y24.19409
X48.50321 Y24.28771
X48.64090 Y24.43409
X48.75461 Y24.62449
X48.82004 Y24.83645
X48.83671 Y25.03670
X48.81136 Y25.23602
X48.76213 Y25.38753
X48.64090 Y25.59749
X48.50323 Y25.74387
X48.35683 Y25.84887
X48.15286 Y25.93609
X47.97636 Y25.97249
X47.77527 Y25.97249
X47.59876 Y25.93609
X47.41349 Y25.85839
X47.23214 Y25.73068
X47.11073 Y25.59749
X46.98949 Y25.38753
X46.94027 Y25.23602
X46.91492 Y25.03670
X46.94027 Y24.79556
X47.00651 Y24.60584
X47.11073 Y24.43409
X47.23214 Y24.30089
X47.39483 Y24.18268
X47.55081 Y24.11204
X47.55467 Y23.70674
X47.57204 Y23.63051
X47.61128 Y23.55715
X48.93498 Y22.23044
X49.04491 Y22.16841
X49.14580 Y22.15081
X50.09192 Y22.15081
X50.33218 Y22.17611
X50.53615 Y22.17418
X50.73968 Y22.15081
X51.51123 Y22.15081
X52.01879 Y21.64326
X51.93444 Y21.39302
X51.91585 Y21.20578
X51.94313 Y20.97768
X52.00231 Y20.79905
X52.12001 Y20.60176
X52.26299 Y20.44949
X52.41585 Y20.33976
X52.62705 Y20.24934
X52.83220 Y20.21020
X53.02037 Y20.21129
X53.24437 Y20.26224
X53.43335 Y20.35117
X53.59974 Y20.47746
X53.73622 Y20.63557
X53.82938 Y20.79907
X53.85707 Y20.88081
X54.73784 Y20.88081
X54.81320 Y20.78551
X54.92430 Y20.75180
X56.06730 Y20.75180
X56.17842 Y20.78551
X56.25209 Y20.87525
X56.26730 Y20.95180
X56.26346 Y21.49882
X56.20873 Y21.60120
X56.14386 Y21.64456
X56.06730 Y21.65980
X54.92430 Y21.65980
X54.81320 Y21.62607
X54.73786 Y21.53079
X53.85707 Y21.53079
X53.81986 Y21.63117
X53.71165 Y21.80981
X53.56868 Y21.96209
X53.41584 Y22.07179
X53.20462 Y22.16224
X52.99944 Y22.20140
X52.79062 Y22.19701
X52.62705 Y22.16224
X52.47978 Y22.10148
X51.87564 Y22.70557
X51.74679 Y22.78314
X51.67043 Y22.79836
X50.73513 Y22.79927
G04 P0 ( dwell for no time -- G64 should not smooth over this point )
G00 Z1.00000 ( retract )

G00 X50.09449 Y22.79990 ( rapid move to begin. )
F300.00000
G01 Z-0.05000
G04 P0 ( dwell for no time -- G64 should not smooth over this point )
F600.00000
G01 X50.09449 Y22.79990
X50.33221 Y22.77494
X50.53630 Y22.77677
X50.73518 Y22.79927
X50.93332 Y22.89117
X51.08491 Y23.00265
X51.23619 Y23.17557
X51.32936 Y23.33907
X51.38852 Y23.51768
X51.41580 Y23.74578
X51.39721 Y23.93302
X51.36340 Y24.05126
X51.51651 Y24.20442
X51.59106 Y24.17653
X51.68443 Y24.16691
X51.77343 Y24.18281
X51.86680 Y24.23109
X51.93132 Y24.29464
X51.97333 Y24.36993
X52.29040 Y24.68758
X52.39395 Y24.76000
X52.45796 Y24.85893
X52.48280 Y24.98400
X52.48280 Y25.40409
X52.44955 Y25.54691
X52.36761 Y25.65123
X52.21750 Y25.73160
X51.84811 Y26.10036
X51.64859 Y26.58087
X51.64811 Y27.10086
X51.84676 Y27.58171
X52.21417 Y27.94975
X52.69469 Y28.14927
X53.21468 Y28.14975
X53.69552 Y27.95110
X54.06357 Y27.58369
X54.26309 Y27.10317
X54.26357 Y26.58318
X54.06492 Y26.10234
X53.69745 Y25.73424
X53.51592 Y25.65471
X53.44450 Y25.60229
X53.39215 Y25.53081
X53.34881 Y25.37122
X53.34881 Y24.98443
X53.37378 Y24.85913
X53.43794 Y24.76020
X53.53942 Y24.68885
X53.85455 Y24.37427
X54.02364 Y23.96706
X54.01374 Y23.42596
X54.04686 Y23.29282
X54.09237 Y23.22505
X54.30810 Y23.00587
X54.41625 Y22.93346
X54.50312 Y22.91263
X54.63047 Y22.92320
X54.80065 Y23.01847
X54.95727 Y23.05022
X56.03669 Y23.05022
X56.17944 Y23.02340
X56.28610 Y22.95477
X56.35638 Y22.85190
X56.38775 Y22.69709
X56.38775 Y22.25213
X56.36097 Y22.10971
X56.26527 Y21.93636
X56.24957 Y21.82548
X56.27494 Y21.71266
X56.35605 Y21.58350
X56.38775 Y21.42709
X56.38775 Y20.98213
X56.36097 Y20.83971
X56.26527 Y20.66636
X56.24957 Y20.55548
X56.27494 Y20.44266
X56.35605 Y20.31350
X56.38775 Y20.15709
X56.38775 Y19.71213
X56.36097 Y19.56971
X56.26527 Y19.39636
X56.24957 Y19.28548
X56.27494 Y19.17266
X56.35605 Y19.04350
X56.38775 Y18.88709
X56.38775 Y18.44213
X56.36097 Y18.29966
X56.29234 Y18.19303
X56.04342 Y18.04914
X55.98371 Y17.98384
X55.93512 Y17.86621
X55.92887 Y14.88798
X55.89001 Y14.69255
X55.77926 Y14.52682
X55.18983 Y13.93739
X55.02410 Y13.82664
X54.82882 Y13.78778
X48.54194 Y13.78778
X48.27209 Y13.83503
X48.08962 Y13.78595
X47.66409 Y13.78555
X47.27049 Y13.94816
X46.96932 Y14.24879
X46.80603 Y14.64206
X46.80562 Y15.06751
X46.96823 Y15.46111
X47.26887 Y15.76228
X47.66214 Y15.92557
X48.08759 Y15.92598
X48.48118 Y15.76337
X48.58085 Y15.66934
X48.69424 Y15.61209
X48.82617 Y15.60213
X48.96338 Y15.65394
X49.05350 Y15.74422
X49.10211 Y15.86162
X49.10785 Y16.30533
X49.30676 Y16.78671
X49.67519 Y17.15577
X49.81684 Y17.22026
X49.90221 Y17.30190
X49.95334 Y17.40982
X49.95550 Y17.56334
X50.10686 Y17.71475
X50.33218 Y17.67020
X50.54102 Y17.67457
X50.74435 Y17.72224
X50.89713 Y17.79026
X51.08491 Y17.92265
X51.23619 Y18.09557
X51.32936 Y18.25907
X51.38852 Y18.43768
X51.41580 Y18.66578
X51.39721 Y18.85302
X51.36340 Y18.97126
X51.51651 Y19.12442
X51.61925 Y19.09095
X51.70978 Y19.08886
X51.81082 Y19.11762
X51.88659 Y19.16702
X51.97333 Y19.28993
X52.28735 Y19.60453
X52.39192 Y19.65211
X52.48831 Y19.73491
X52.53027 Y19.80171
X52.55448 Y19.88172
X52.54795 Y20.01863
X52.46995 Y20.15983
X52.40680 Y20.21195
X52.29032 Y20.26458
X51.97709 Y20.57728
X51.89705 Y20.70509
X51.77224 Y20.78259
X51.60190 Y20.79437
X51.51857 Y20.76389
X51.44917 Y20.71794
X51.35568 Y20.57893
X51.04290 Y20.26557
X50.93152 Y20.21294
X50.84303 Y20.12374
X50.79431 Y20.00590
X50.79053 Y19.91733
X50.80577 Y19.84083
X50.85403 Y19.74606
X50.72484 Y19.61683
X50.49942 Y19.66140
X50.31128 Y19.66029
X50.10683 Y19.61685
X49.97996 Y19.74365
X50.03356 Y19.84881
X50.04646 Y19.95302
X50.03056 Y20.04197
X49.98227 Y20.13534
X49.89596 Y20.21619
X49.79053 Y20.26440
X49.47407 Y20.58027
X49.44707 Y20.63102
X49.35926 Y20.71769
X49.25101 Y20.76435
X49.17712 Y20.77276
X48.13633 Y20.76811
X48.05657 Y20.74390
X47.95942 Y20.67697
X46.93483 Y19.65239
X46.76910 Y19.54164
X46.57189 Y19.50240
X46.40590 Y19.49173
X46.32889 Y19.45937
X46.25741 Y19.40697
X46.18652 Y19.30088
X46.16547 Y19.21475
X46.16882 Y19.11980
X45.56978 Y19.11980
X45.46280 Y19.13979
X45.18901 Y19.13880
X45.10187 Y19.11980
X44.52109 Y19.11980
X44.55859 Y19.19107
X44.57952 Y19.30799
X44.55419 Y19.43222
X44.47565 Y19.55792
X44.44388 Y19.71469
X44.44388 Y20.15914
X44.49938 Y20.42521
X44.49628 Y20.50347
X44.45508 Y20.61294
X44.38510 Y20.69399
X44.32049 Y20.73671
X44.23974 Y20.76618
X44.09986 Y20.77238
X43.90263 Y20.81159
X43.73690 Y20.92234
X43.14746 Y21.51177
X43.03672 Y21.67750
X42.99781 Y21.87303
X42.99781 Y28.79352
X43.03667 Y28.98897
X43.14741 Y29.15471
X45.00684 Y31.01414
X45.17258 Y31.12488
X45.36808 Y31.16379
X60.26102 Y31.16379
X60.38616 Y31.18866
X60.49226 Y31.25955
X67.23184 Y37.99914
X67.39758 Y38.10988
X67.59316 Y38.14879
X70.57225 Y38.15507
X70.70580 Y38.21557
X70.79201 Y38.31603
X70.83156 Y38.43683
X70.86219 Y38.67777
X70.93090 Y38.78453
X71.03377 Y38.85484
X71.18873 Y38.88623
X72.82520 Y38.88623
X72.96785 Y38.85941
X73.07461 Y38.79070
X73.14491 Y38.68783
X73.17626 Y38.53312
X73.17626 Y36.89614
X73.14949 Y36.75375
X73.08078 Y36.64699
X72.97484 Y36.57458
X72.87463 Y36.53719
X72.78375 Y36.45604
X72.73793 Y36.38019
X72.71428 Y36.23567
X72.76328 Y36.08210
X72.84662 Y35.99401
X73.09886 Y35.61647
X73.18649 Y35.17580
X73.09891 Y34.73511
X72.84895 Y34.36102
X72.54278 Y34.15388
X72.48949 Y34.10072
X72.44377 Y34.02698
X72.41736 Y33.90496
X72.43862 Y33.78187
X72.50450 Y33.67573
X72.57230 Y33.62163
X72.68934 Y33.56262
X72.99721 Y33.22478
X73.05314 Y33.08980
X72.95144 Y33.08980
X72.82292 Y33.29381
X72.67372 Y33.44484
X72.53257 Y33.54309
X72.30052 Y33.64266
X72.01596 Y33.68548
X71.77486 Y33.65917
X71.61078 Y33.60771
X71.42320 Y33.50827
X71.23161 Y33.34380
X71.12632 Y33.20781
X71.06392 Y33.08980
X70.95851 Y33.08980
X71.01439 Y33.22473
X71.32229 Y33.56257
X71.43941 Y33.62163
X71.50725 Y33.67578
X71.57306 Y33.78190
X71.59432 Y33.90496
X71.56790 Y34.02698
X71.49808 Y34.12983
X71.16280 Y34.36094
X70.97989 Y34.62772
X70.92264 Y34.68192
X70.84893 Y34.72137
X70.73255 Y34.74276
X69.09143 Y34.73813
X69.01157 Y34.71390
X68.94469 Y34.67184
X68.68912 Y34.41499
X68.65021 Y34.34197
X68.62882 Y34.22599
X68.62882 Y26.31778
X68.59001 Y26.12255
X68.47926 Y25.95682
X64.12441 Y21.60196
X64.05349 Y21.49582
X64.02888 Y21.38050
X64.03708 Y21.29727
X64.06535 Y21.22348
X64.16619 Y21.10433
X64.23995 Y21.06501
X64.31689 Y21.04756
X64.60513 Y21.04395
X65.01267 Y20.87560
X65.32456 Y20.56427
X65.40464 Y20.43636
X65.51089 Y20.36557
X65.63599 Y20.34085
X65.76103 Y20.36582
X65.86705 Y20.43679
X65.94599 Y20.56260
X66.25730 Y20.87448
X66.66454 Y21.04357
X67.10512 Y21.04395
X67.51267 Y20.87560
X67.82765 Y20.56120
X67.90746 Y20.45129
X67.97703 Y20.40535
X68.06021 Y20.37504
X70.50819 Y20.36879
X70.65129 Y20.40207
X70.76448 Y20.49483
X70.82191 Y20.60821
X70.86219 Y20.89777
X70.93090 Y21.00453
X71.03377 Y21.07484
X71.18873 Y21.10623
X72.82520 Y21.10623
X72.96785 Y21.07941
X73.07461 Y21.01070
X73.14491 Y20.90783
X73.17626 Y20.75312
X73.17626 Y19.11614
X73.14949 Y18.97375
X73.08078 Y18.86699
X72.97791 Y18.79669
X72.81959 Y18.74035
X72.75523 Y18.68244
X72.69645 Y18.58945
X72.67324 Y18.45747
X72.69673 Y18.34467
X72.73511 Y18.27779
X72.99721 Y17.98478
X73.05314 Y17.84980
X72.95149 Y17.84980
X72.82292 Y18.05384
X72.67372 Y18.20487
X72.53257 Y18.30311
X72.30052 Y18.40268
X72.01596 Y18.44551
X71.77486 Y18.41919
X71.61078 Y18.36773
X71.42320 Y18.26829
X71.23161 Y18.10383
X71.12632 Y17.96783
X71.06392 Y17.84980
X70.95851 Y17.84980
X71.01439 Y17.98473
X71.25200 Y18.24543
X71.30042 Y18.31790
X71.33473 Y18.43801
X71.32663 Y18.54840
X71.27794 Y18.65366
X71.21764 Y18.71673
X71.15307 Y18.75828
X71.04383 Y18.79211
X70.93707 Y18.86082
X70.86676 Y18.96369
X70.82191 Y19.26334
X70.79201 Y19.33550
X70.70580 Y19.43595
X70.57217 Y19.49646
X68.07032 Y19.49813
X67.99026 Y19.47383
X67.90014 Y19.41353
X67.82895 Y19.31218
X67.51437 Y18.99704
X67.10713 Y18.82795
X66.66657 Y18.82755
X66.25900 Y18.99592
X65.94709 Y19.30728
X65.86705 Y19.43509
X65.76088 Y19.50593
X65.63571 Y19.53067
X65.51064 Y19.50570
X65.40462 Y19.43473
X65.32568 Y19.30893
X65.01435 Y18.99704
X64.60714 Y18.82795
X64.16657 Y18.82755
X63.75900 Y18.99592
X63.44407 Y19.31027
X63.37165 Y19.41383
X63.27275 Y19.47786
X63.16584 Y19.50194
X62.93348 Y19.49618
X62.81699 Y19.44766
X62.70823 Y19.32280
X62.67793 Y19.23954
X62.67701 Y19.11980
X62.07978 Y19.11980
X61.97280 Y19.13979
X61.69901 Y19.13880
X61.61187 Y19.11980
X61.03109 Y19.11980
X61.06859 Y19.19107
X61.08951 Y19.30799
X61.06419 Y19.43222
X60.98565 Y19.55792
X60.95388 Y19.71469
X60.95388 Y20.15914
X60.98070 Y20.30181
X61.07295 Y20.46056
X61.09249 Y20.57613
X61.06681 Y20.69877
X60.98563 Y20.82803
X60.95388 Y20.98469
X60.95388 Y21.42914
X60.98070 Y21.57181
X61.07295 Y21.73056
X61.09249 Y21.84613
X61.06681 Y21.96877
X60.98563 Y22.09803
X60.95388 Y22.25469
X60.95388 Y22.69914
X60.98070 Y22.84187
X61.04933 Y22.94852
X61.15220 Y23.01880
X61.30727 Y23.05022
X62.38669 Y23.05022
X62.52939 Y23.02340
X62.69053 Y22.92950
X62.84905 Y22.91354
X62.98375 Y22.96490
X63.24691 Y23.22462
X63.29294 Y23.30044
X63.31781 Y23.42558
X63.31781 Y25.52578
X63.29296 Y25.65088
X63.24691 Y25.72670
X63.18824 Y25.78595
X63.10686 Y25.83139
X63.02987 Y25.84892
X61.37438 Y25.84643
X61.24087 Y25.78595
X61.15467 Y25.68550
X61.11512 Y25.56485
X61.08449 Y25.32375
X61.01578 Y25.21699
X60.91291 Y25.14669
X60.75820 Y25.11534
X59.12122 Y25.11534
X58.97883 Y25.14211
X58.87207 Y25.21082
X58.80176 Y25.31369
X58.75056 Y25.46388
X58.69922 Y25.52743
X58.60346 Y25.59152
X58.48180 Y25.61872
X58.32427 Y25.58174
X58.25228 Y25.53355
X57.98985 Y25.29439
X57.85480 Y25.23843
X57.85480 Y25.34189
X58.01665 Y25.43640
X58.14715 Y25.54844
X58.30171 Y25.74813
X58.39148 Y25.94044
X58.43461 Y26.10693
X58.44944 Y26.31869
X58.42135 Y26.52913
X58.33364 Y26.76591
X58.21792 Y26.94384
X58.09943 Y27.06850
X57.92757 Y27.19311
X57.85480 Y27.22875
X57.85480 Y27.33312
X57.98980 Y27.27721
X58.25053 Y27.03957
X58.32300 Y26.99116
X58.48175 Y26.95443
X58.59508 Y26.97889
X58.68807 Y27.03883
X58.74576 Y27.10426
X58.79719 Y27.24777
X58.86590 Y27.35453
X58.96877 Y27.42484
X59.12373 Y27.45623
X60.76020 Y27.45623
X60.90285 Y27.42941
X61.00961 Y27.36070
X61.07991 Y27.25783
X61.11174 Y27.10063
X61.11806 Y26.97963
X61.14788 Y26.89873
X61.21418 Y26.80777
X61.31316 Y26.74364
X61.43859 Y26.71879
X63.01593 Y26.72123
X63.09210 Y26.73642
X63.17247 Y26.77386
X63.25707 Y26.85606
X63.29647 Y26.92979
X63.31400 Y27.00683
X63.31781 Y28.51099
X63.29296 Y28.63609
X63.22205 Y28.74218
X63.00198 Y28.95684
X62.88870 Y29.01424
X62.80099 Y29.02776
X46.89582 Y29.02529
X46.78657 Y28.99890
X46.68942 Y28.93197
X45.86463 Y28.10718
X45.79374 Y28.00114
X45.76882 Y27.87599
X45.76981 Y23.32190
X45.78675 Y23.23976
X45.85000 Y23.12843
X45.90806 Y23.07415
X46.12610 Y22.95477
X46.19638 Y22.85190
X46.22775 Y22.69709
X46.22775 Y22.25213
X46.20097 Y22.10971
X46.10527 Y21.93636
X46.08957 Y21.82548
X46.11494 Y21.71266
X46.19605 Y21.58350
X46.22775 Y21.42709
X46.22775 Y20.95952
X46.25269 Y20.83433
X46.31680 Y20.73537
X46.43882 Y20.65383
X46.55475 Y20.63252
X46.67075 Y20.65386
X46.76643 Y20.71218
X47.54667 Y21.48904
X47.71258 Y21.59988
X47.90841 Y21.63885
X48.64514 Y21.64512
X48.79294 Y21.71870
X48.84727 Y21.77606
X48.89454 Y21.87819
X48.90801 Y21.96574
X48.89454 Y22.05332
X48.81225 Y22.19698
X47.59246 Y23.41677
X47.48172 Y23.58250
X47.43595 Y23.88487
X47.38766 Y24.00000
X46.96930 Y24.40884
X46.80603 Y24.80206
X46.80562 Y25.22751
X46.96823 Y25.62111
X47.26887 Y25.92228
X47.66214 Y26.08557
X48.08759 Y26.08598
X48.48118 Y25.92337
X48.78235 Y25.62273
X48.94565 Y25.22947
X48.94608 Y24.80292
X48.86549 Y24.60201
X48.84964 Y24.51844
X48.85355 Y24.45162
X48.88789 Y24.35002
X48.97316 Y24.24793
X49.05319 Y24.20132
X49.18410 Y24.17747
X49.31512 Y24.20437
X49.46825 Y24.05129
X49.43442 Y23.93302
X49.41583 Y23.74578
X49.44311 Y23.51768
X49.50229 Y23.33905
X49.59543 Y23.17557
X49.73190 Y23.01746
X49.91583 Y22.87976
X50.09449 Y22.79990
G04 P0 ( dwell for no time -- G64 should not smooth over this point )
G00 Z1.00000 ( retract )

G00 X50.02205 Y24.78161 ( rapid move to begin. )
F300.00000
G01 Z-0.05000
G04 P0 ( dwell for no time -- G64 should not smooth over this point )
F600.00000
G01 X50.02205 Y24.78161
X50.24841 Y24.86299
X50.69683 Y24.84163
X50.81897 Y24.79104
X50.72484 Y24.69683
X50.49942 Y24.74140
X50.31128 Y24.74029
X50.10683 Y24.69685
X50.02205 Y24.78161
G04 P0 ( dwell for no time -- G64 should not smooth over this point )
G00 Z1.00000 ( retract )

G00 X54.36039 Y22.80079 ( rapid move to begin. )
F300.00000
G01 Z-0.05000
G04 P0 ( dwell for no time -- G64 should not smooth over this point )
F600.00000
G01 X54.36039 Y22.80079
X53.82689 Y23.33424
X53.89723 Y23.55855
X53.91473 Y23.76670
X53.88854 Y23.97389
X53.83688 Y24.13295
X53.73622 Y24.31601
X53.56868 Y24.50209
X53.41584 Y24.61179
X53.24081 Y24.69068
X53.24081 Y25.68194
X53.34599 Y25.70876
X53.55554 Y25.80325
X53.74216 Y25.93749
X53.91302 Y26.12075
X54.05158 Y26.35415
X54.12367 Y26.57244
X54.15529 Y26.84204
X54.13235 Y27.07076
X54.05910 Y27.31039
X53.93759 Y27.52954
X53.77322 Y27.71861
X53.53690 Y27.89034
X53.32646 Y27.98283
X53.08120 Y28.03495
X52.85133 Y28.03606
X52.58519 Y27.98283
X52.33853 Y27.86944
X52.15321 Y27.73342
X51.99860 Y27.56334
X51.86002 Y27.32992
X51.77927 Y27.07076
X51.75634 Y26.84204
X51.78796 Y26.57244
X51.86004 Y26.35415
X51.97404 Y26.15456
X52.16947 Y25.93752
X52.35608 Y25.80325
X52.59083 Y25.69975
X52.59083 Y24.69050
X52.39832 Y24.60041
X52.24673 Y24.48893
X52.12001 Y24.34981
X52.00228 Y24.15251
X51.93444 Y23.93302
X51.91585 Y23.74578
X51.93444 Y23.55855
X51.99479 Y23.35863
X52.09545 Y23.17557
X52.23193 Y23.01746
X52.41585 Y22.87976
X52.58730 Y22.80224
X52.79062 Y22.75457
X53.02037 Y22.75129
X53.20462 Y22.78934
X53.37955 Y22.86241
X53.99603 Y22.24598
X54.06690 Y22.19399
X54.14340 Y22.16181
X54.73766 Y22.15144
X54.81320 Y22.05551
X54.92430 Y22.02180
X56.06730 Y22.02180
X56.17842 Y22.05551
X56.25209 Y22.14525
X56.26730 Y22.22180
X56.26346 Y22.76882
X56.20873 Y22.87120
X56.14386 Y22.91456
X56.06730 Y22.92980
X54.92430 Y22.92980
X54.81320 Y22.89607
X54.73786 Y22.80079
X54.36039 Y22.80079
G04 P0 ( dwell for no time -- G64 should not smooth over this point )
G00 Z1.00000 ( retract )

G00 X54.73769 Y20.26016 ( rapid move to begin. )
F300.00000
G01 Z-0.05000
G04 P0 ( dwell for no time -- G64 should not smooth over this point )
F600.00000
G01 X54.73769 Y20.26016
X54.20076 Y20.25836
X54.09245 Y20.23204
X53.99603 Y20.16557
X53.37962 Y19.54911
X53.20462 Y19.62224
X53.04104 Y19.65701
X52.83220 Y19.66140
X52.58730 Y19.60933
X52.39832 Y19.52041
X52.24673 Y19.40893
X52.12001 Y19.26981
X52.00228 Y19.07251
X51.94313 Y18.89389
X51.91585 Y18.66578
X51.93444 Y18.47855
X51.99479 Y18.27863
X52.03340 Y18.20299
X51.45603 Y17.62557
X51.38956 Y17.52915
X51.36703 Y17.45783
X51.00198 Y17.09275
X50.78646 Y17.18783
X50.56185 Y17.23667
X50.26978 Y17.23667
X50.04519 Y17.18783
X49.83475 Y17.09534
X49.61321 Y16.93842
X49.45860 Y16.76834
X49.32002 Y16.53492
X49.24796 Y16.31666
X49.21634 Y16.04704
X49.24796 Y15.77744
X49.32004 Y15.55915
X49.43404 Y15.35956
X49.59840 Y15.17048
X49.83472 Y14.99875
X50.04519 Y14.90627
X50.31133 Y14.85306
X50.56185 Y14.85743
X50.78646 Y14.90627
X51.01554 Y15.00825
X51.23322 Y15.17048
X51.37302 Y15.32575
X51.50208 Y15.54051
X51.59235 Y15.81833
X51.61529 Y16.04704
X51.59235 Y16.27576
X51.51910 Y16.51539
X51.45814 Y16.62971
X51.91562 Y17.08724
X51.98209 Y17.18366
X52.00462 Y17.25498
X52.50741 Y17.75780
X52.62705 Y17.70934
X52.79062 Y17.67457
X53.04104 Y17.67457
X53.24437 Y17.72224
X53.39715 Y17.79026
X53.59974 Y17.93746
X53.71165 Y18.06176
X53.81986 Y18.24040
X53.89723 Y18.47855
X53.91582 Y18.66578
X53.89723 Y18.85302
X53.82697 Y19.07728
X54.36045 Y19.61081
X54.73784 Y19.61081
X54.81320 Y19.51551
X54.92430 Y19.48180
X56.06730 Y19.48180
X56.17842 Y19.51551
X56.25209 Y19.60525
X56.26730 Y19.68180
X56.26346 Y20.22882
X56.20873 Y20.33120
X56.14386 Y20.37456
X56.06730 Y20.38980
X54.92430 Y20.38980
X54.81320 Y20.35607
X54.73769 Y20.26016
G04 P0 ( dwell for no time -- G64 should not smooth over this point )
G00 Z1.00000 ( retract )

G00 X56.47406 Y25.60219 ( rapid move to begin. )
F300.00000
G01 Z-0.05000
G04 P0 ( dwell for no time -- G64 should not smooth over this point )
F600.00000
G01 X56.47406 Y25.60219
X56.36618 Y25.83180
X56.45513 Y25.83180
X56.55897 Y25.65972
X56.70220 Y25.50307
X56.87405 Y25.37846
X56.94680 Y25.34285
X56.94680 Y25.23843
X56.81188 Y25.29431
X56.47406 Y25.60219
G04 P0 ( dwell for no time -- G64 should not smooth over this point )
G00 Z1.00000 ( retract )

G00 X56.36626 Y26.73980 ( rapid move to begin. )
F300.00000
G01 Z-0.05000
G04 P0 ( dwell for no time -- G64 should not smooth over this point )
F600.00000
G01 X56.36626 Y26.73980
X56.47398 Y26.96926
X56.81182 Y27.27714
X56.94680 Y27.33307
X56.94680 Y27.22969
X56.78498 Y27.13518
X56.65447 Y27.02314
X56.52132 Y26.85783
X56.45892 Y26.73980
X56.36626 Y26.73980
G04 P0 ( dwell for no time -- G64 should not smooth over this point )
G00 Z1.00000 ( retract )

G00 X60.44128 Y31.05579 ( rapid move to begin. )
F300.00000
G01 Z-0.05000
G04 P0 ( dwell for no time -- G64 should not smooth over this point )
F600.00000
G01 X60.44128 Y31.05579
X45.33580 Y31.05579
X45.17200 Y31.01101
X43.20116 Y29.05570
X43.13456 Y28.95915
X43.11040 Y28.87955
X43.10583 Y21.84085
X43.11919 Y21.75388
X43.15054 Y21.67702
X43.83565 Y20.97634
X43.97903 Y20.89414
X44.06580 Y20.88081
X44.57784 Y20.88081
X44.65320 Y20.78551
X44.76430 Y20.75180
X45.90730 Y20.75180
X46.01842 Y20.78551
X46.07359 Y20.84068
X46.10346 Y20.91276
X46.10346 Y21.49882
X46.04873 Y21.60120
X45.98386 Y21.64456
X45.90730 Y21.65980
X44.76430 Y21.65980
X44.65320 Y21.62607
X44.57786 Y21.53079
X44.20039 Y21.53079
X43.75579 Y21.97540
X43.75579 Y28.69116
X45.47045 Y30.40581
X60.65827 Y30.41681
X60.80562 Y30.50098
X67.69545 Y37.39081
X70.95581 Y37.39081
X70.95968 Y36.82678
X71.01441 Y36.72439
X71.07928 Y36.68103
X71.15581 Y36.66582
X72.89483 Y36.66965
X72.96691 Y36.69952
X73.02208 Y36.75469
X73.05579 Y36.86582
X73.05579 Y38.56579
X73.02208 Y38.67689
X72.93234 Y38.75055
X72.85579 Y38.76579
X71.15581 Y38.76579
X71.07928 Y38.75055
X71.01441 Y38.70719
X70.95968 Y38.60480
X70.95581 Y38.04079
X67.56080 Y38.04079
X67.39700 Y37.99601
X60.44128 Y31.05579
G04 P0 ( dwell for no time -- G64 should not smooth over this point )
G00 Z1.00000 ( retract )

G00 X62.98121 Y29.13581 ( rapid move to begin. )
F300.00000
G01 Z-0.05000
G04 P0 ( dwell for no time -- G64 should not smooth over this point )
F600.00000
G01 X62.98121 Y29.13581
X63.42581 Y28.69121
X63.42581 Y26.61079
X60.99079 Y26.61079
X60.98695 Y27.17480
X60.93221 Y27.27719
X60.86734 Y27.32055
X60.79079 Y27.33579
X59.05180 Y27.33193
X58.94941 Y27.27719
X58.90605 Y27.21232
X58.89081 Y27.13579
X58.89081 Y25.43582
X58.90605 Y25.35926
X58.94941 Y25.29439
X59.05180 Y25.23965
X60.82983 Y25.23965
X60.93221 Y25.29439
X60.98695 Y25.39678
X60.99079 Y25.96081
X63.42581 Y25.96081
X63.42581 Y23.24534
X62.98126 Y22.80079
X62.60379 Y22.80079
X62.52842 Y22.89607
X62.41730 Y22.92980
X61.27430 Y22.92980
X61.19777 Y22.91456
X61.13290 Y22.87120
X61.08954 Y22.80633
X61.07430 Y22.72980
X61.07816 Y22.18276
X61.13290 Y22.08037
X61.23529 Y22.02564
X62.41730 Y22.02180
X62.52842 Y22.05551
X62.60376 Y22.15081
X63.11580 Y22.15081
X63.21682 Y22.16844
X63.32632 Y22.23006
X63.98026 Y22.88060
X64.04709 Y22.97740
X64.07341 Y23.08629
X64.07196 Y28.86476
X64.05110 Y28.95008
X63.98062 Y29.05557
X63.34562 Y29.69057
X63.24026 Y29.76100
X63.11577 Y29.78577
X46.58139 Y29.78336
X46.47245 Y29.75704
X46.37603 Y29.69057
X45.10603 Y28.42057
X45.02186 Y28.27322
X45.01093 Y22.92980
X44.72529 Y22.92594
X44.65320 Y22.89607
X44.59803 Y22.84090
X44.56430 Y22.72980
X44.56430 Y22.22180
X44.57954 Y22.14525
X44.65320 Y22.05551
X44.76430 Y22.02180
X45.90730 Y22.02180
X46.01842 Y22.05551
X46.09208 Y22.14525
X46.10730 Y22.22180
X46.10730 Y22.72980
X46.07359 Y22.84090
X46.01842 Y22.89607
X45.94634 Y22.92594
X45.66079 Y22.92980
X45.66079 Y28.05616
X46.74045 Y29.13581
X62.98121 Y29.13581
G04 P0 ( dwell for no time -- G64 should not smooth over this point )
G00 Z1.00000 ( retract )

G00 X67.87081 Y26.42034 ( rapid move to begin. )
F300.00000
G01 Z-0.05000
G04 P0 ( dwell for no time -- G64 should not smooth over this point )
F600.00000
G01 X67.87081 Y26.42034
X62.98126 Y21.53079
X62.60379 Y21.53079
X62.52842 Y21.62607
X62.41730 Y21.65980
X61.27430 Y21.65980
X61.19777 Y21.64456
X61.10803 Y21.57090
X61.07430 Y21.45980
X61.07430 Y20.95180
X61.08954 Y20.87525
X61.13290 Y20.81037
X61.19777 Y20.76702
X61.27430 Y20.75180
X62.41730 Y20.75180
X62.52842 Y20.78551
X62.60376 Y20.88081
X63.13528 Y20.88175
X63.29637 Y20.93554
X68.45046 Y26.08623
X68.49608 Y26.16139
X68.52079 Y26.28580
X68.52079 Y34.40616
X68.96545 Y34.85081
X71.01114 Y34.85081
X71.07299 Y34.69566
X71.18871 Y34.51774
X71.33791 Y34.36671
X71.51446 Y34.24880
X71.71111 Y34.16889
X71.99567 Y34.12607
X72.19716 Y34.14426
X72.40085 Y34.20384
X72.62165 Y34.32640
X72.75215 Y34.43844
X72.88530 Y34.60374
X72.99648 Y34.83044
X73.03961 Y34.99693
X73.05444 Y35.20869
X73.02635 Y35.41913
X72.93864 Y35.65591
X72.82292 Y35.83384
X72.70443 Y35.95850
X72.49716 Y36.10277
X72.30052 Y36.18268
X72.01596 Y36.22551
X71.81446 Y36.20732
X71.61078 Y36.14773
X71.38998 Y36.02518
X71.23161 Y35.88383
X71.10491 Y35.71344
X71.00994 Y35.50062
X68.80621 Y35.49836
X68.72493 Y35.48263
X68.60065 Y35.40521
X67.95011 Y34.75127
X67.90403 Y34.68302
X67.87081 Y34.54080
X67.87081 Y26.42034
G04 P0 ( dwell for no time -- G64 should not smooth over this point )
G00 Z1.00000 ( retract )

G00 X71.32234 Y31.70890 ( rapid move to begin. )
F300.00000
G01 Z-0.05000
G04 P0 ( dwell for no time -- G64 should not smooth over this point )
F600.00000
G01 X71.32234 Y31.70890
X71.01446 Y32.04675
X70.95851 Y32.18180
X71.06013 Y32.18180
X71.16397 Y32.00969
X71.30720 Y31.85305
X71.47905 Y31.72844
X71.55180 Y31.69283
X71.55180 Y31.60118
X71.32234 Y31.70890
G04 P0 ( dwell for no time -- G64 should not smooth over this point )
G00 Z1.00000 ( retract )

G00 X72.68942 Y31.70898 ( rapid move to begin. )
F300.00000
G01 Z-0.05000
G04 P0 ( dwell for no time -- G64 should not smooth over this point )
F600.00000
G01 X72.68942 Y31.70898
X72.45980 Y31.60111
X72.45980 Y31.69186
X72.62165 Y31.78637
X72.75215 Y31.89841
X72.88530 Y32.06372
X72.94773 Y32.18180
X73.05319 Y32.18180
X72.99729 Y32.04680
X72.68942 Y31.70898
G04 P0 ( dwell for no time -- G64 should not smooth over this point )
G00 Z1.00000 ( retract )

G00 X78.55580 Y32.27891 ( rapid move to begin. )
F300.00000
G01 Z-0.05000
G04 P0 ( dwell for no time -- G64 should not smooth over this point )
F600.00000
G01 X78.55580 Y32.27891
X78.55580 Y41.39880
X78.53096 Y41.52390
X78.46007 Y41.62999
X78.36291 Y41.69692
X78.28290 Y41.72115
X0.37783 Y41.72577
X0.25265 Y41.70088
X0.15370 Y41.63675
X0.09586 Y41.56362
X0.06434 Y41.48646
X0.05080 Y41.39880
X0.05080 Y0.37780
X0.08131 Y0.24001
X0.13480 Y0.15901
X0.20980 Y0.09726
X0.28184 Y0.06520
X0.37780 Y0.05080
X78.22880 Y0.05080
X78.35395 Y0.07567
X78.45295 Y0.13980
X78.51079 Y0.21293
X78.54234 Y0.29022
X78.55580 Y0.37780
X78.55580 Y32.27891
G04 P0 ( dwell for no time -- G64 should not smooth over this point )
G00 Z1.00000 ( retract )

G00 X70.95581 Y20.26079 ( rapid move to begin. )
F300.00000
G01 Z-0.05000
G04 P0 ( dwell for no time -- G64 should not smooth over this point )
F600.00000
G01 X70.95581 Y20.26079
X67.82707 Y20.26079
X67.78986 Y20.36117
X67.68165 Y20.53981
X67.53868 Y20.69209
X67.38584 Y20.80179
X67.21437 Y20.87933
X67.01104 Y20.92701
X66.78130 Y20.93029
X66.59705 Y20.89224
X66.40452 Y20.81131
X66.21673 Y20.67893
X66.09001 Y20.53981
X65.96479 Y20.32295
X65.90444 Y20.12302
X65.88694 Y19.91487
X65.91313 Y19.70768
X65.97231 Y19.52905
X66.06545 Y19.36557
X66.20193 Y19.20746
X66.40449 Y19.06026
X66.55730 Y18.99224
X66.76062 Y18.94457
X67.01104 Y18.94457
X67.21437 Y18.99224
X67.40335 Y19.08117
X67.55493 Y19.19265
X67.68165 Y19.33176
X67.78986 Y19.51040
X67.82707 Y19.61081
X70.95581 Y19.61081
X70.95968 Y19.04678
X71.01441 Y18.94439
X71.07928 Y18.90103
X71.15581 Y18.88582
X72.85579 Y18.88582
X72.93234 Y18.90103
X73.02208 Y18.97469
X73.05579 Y19.08582
X73.05579 Y20.78579
X73.04057 Y20.86232
X72.96691 Y20.95205
X72.85579 Y20.98579
X71.15581 Y20.98579
X71.07928 Y20.97055
X71.01441 Y20.92719
X70.95968 Y20.82480
X70.95581 Y20.26079
G04 P0 ( dwell for no time -- G64 should not smooth over this point )
G00 Z1.00000 ( retract )

G00 X71.32234 Y16.46890 ( rapid move to begin. )
F300.00000
G01 Z-0.05000
G04 P0 ( dwell for no time -- G64 should not smooth over this point )
F600.00000
G01 X71.32234 Y16.46890
X71.01446 Y16.80675
X70.95851 Y16.94180
X71.06013 Y16.94180
X71.16397 Y16.76972
X71.30720 Y16.61307
X71.47905 Y16.48846
X71.55180 Y16.45285
X71.55180 Y16.36118
X71.32234 Y16.46890
G04 P0 ( dwell for no time -- G64 should not smooth over this point )
G00 Z1.00000 ( retract )

G00 X73.05319 Y16.94180 ( rapid move to begin. )
F300.00000
G01 Z-0.05000
G04 P0 ( dwell for no time -- G64 should not smooth over this point )
F600.00000
G01 X73.05319 Y16.94180
X72.99729 Y16.80680
X72.68942 Y16.46898
X72.45980 Y16.36111
X72.45980 Y16.45189
X72.62165 Y16.54640
X72.75215 Y16.65844
X72.88530 Y16.82374
X72.94773 Y16.94180
X73.05319 Y16.94180
G04 P0 ( dwell for no time -- G64 should not smooth over this point )
G00 Z1.00000 ( retract )

G00 X63.44455 Y19.61081 ( rapid move to begin. )
F300.00000
G01 Z-0.05000
G04 P0 ( dwell for no time -- G64 should not smooth over this point )
F600.00000
G01 X63.44455 Y19.61081
X63.48179 Y19.51040
X63.58999 Y19.33176
X63.73297 Y19.17949
X63.90447 Y19.06026
X64.09703 Y18.97934
X64.30218 Y18.94020
X64.49035 Y18.94129
X64.71435 Y18.99224
X64.90332 Y19.08117
X65.05491 Y19.19265
X65.18163 Y19.33176
X65.29936 Y19.52907
X65.36721 Y19.74855
X65.38580 Y19.93578
X65.36721 Y20.12302
X65.29936 Y20.34251
X65.20619 Y20.50601
X65.06972 Y20.66412
X64.88582 Y20.80179
X64.67460 Y20.89224
X64.49035 Y20.93029
X64.30218 Y20.93140
X64.05728 Y20.87933
X63.90450 Y20.81131
X63.73299 Y20.69211
X63.56543 Y20.50601
X63.47226 Y20.34251
X63.44460 Y20.26079
X62.60379 Y20.26079
X62.52842 Y20.35607
X62.41730 Y20.38980
X61.27430 Y20.38980
X61.19777 Y20.37456
X61.13290 Y20.33120
X61.07816 Y20.22882
X61.07816 Y19.64276
X61.13290 Y19.54037
X61.23529 Y19.48564
X62.41730 Y19.48180
X62.52842 Y19.51551
X62.60376 Y19.61081
X63.44455 Y19.61081
G04 P0 ( dwell for no time -- G64 should not smooth over this point )
G00 Z1.00000 ( retract )

G00 X62.29980 Y18.21180 ( rapid move to begin. )
F300.00000
G01 Z-0.05000
G04 P0 ( dwell for no time -- G64 should not smooth over this point )
F600.00000
G01 X62.29980 Y18.21180
X62.65296 Y18.21180
X62.59187 Y18.15071
X62.47867 Y18.10380
X62.29980 Y18.10380
X62.29980 Y18.21180
G04 P0 ( dwell for no time -- G64 should not smooth over this point )
G00 Z1.00000 ( retract )

G00 X61.39180 Y18.21180 ( rapid move to begin. )
F300.00000
G01 Z-0.05000
G04 P0 ( dwell for no time -- G64 should not smooth over this point )
F600.00000
G01 X61.39180 Y18.21180
X61.39180 Y18.10380
X61.21304 Y18.10380
X61.09988 Y18.15064
X61.03871 Y18.21180
X61.39180 Y18.21180
G04 P0 ( dwell for no time -- G64 should not smooth over this point )
G00 Z1.00000 ( retract )

G00 X54.72626 Y14.54579 ( rapid move to begin. )
F300.00000
G01 Z-0.05000
G04 P0 ( dwell for no time -- G64 should not smooth over this point )
F600.00000
G01 X54.72626 Y14.54579
X48.78217 Y14.54579
X48.82004 Y14.67645
X48.83671 Y14.83487
X48.82004 Y15.03512
X48.75464 Y15.24706
X48.66546 Y15.40368
X48.51951 Y15.57066
X48.35683 Y15.68887
X48.15286 Y15.77609
X47.95543 Y15.81361
X47.77527 Y15.81249
X47.55901 Y15.76319
X47.37730 Y15.67749
X47.23214 Y15.57068
X47.11073 Y15.43749
X46.99699 Y15.24706
X46.94027 Y15.07602
X46.91383 Y14.85578
X46.93158 Y14.67645
X46.98949 Y14.48405
X47.11073 Y14.27409
X47.23214 Y14.14089
X47.39483 Y14.02268
X47.55901 Y13.94839
X47.75459 Y13.90236
X47.99703 Y13.90236
X48.15286 Y13.93548
X48.28530 Y13.98964
X48.36485 Y13.93208
X48.51080 Y13.89581
X54.86080 Y13.89581
X54.98521 Y13.92052
X55.09062 Y13.99098
X55.72562 Y14.62598
X55.79209 Y14.72240
X55.81625 Y14.80195
X55.82064 Y18.21180
X56.10634 Y18.21564
X56.20873 Y18.27037
X56.25209 Y18.33525
X56.26730 Y18.41180
X56.26346 Y18.95882
X56.20873 Y19.06120
X56.14386 Y19.10456
X56.06730 Y19.11980
X54.92430 Y19.11980
X54.81320 Y19.08607
X54.73954 Y18.99633
X54.72430 Y18.91980
X54.72430 Y18.41180
X54.75803 Y18.30068
X54.81320 Y18.24551
X54.88529 Y18.21564
X55.17081 Y18.21180
X55.17081 Y14.99034
X54.72626 Y14.54579
G04 P0 ( dwell for no time -- G64 should not smooth over this point )
G00 Z1.00000 ( retract )

G00 X51.52492 Y5.14734 ( rapid move to begin. )
F300.00000
G01 Z-0.05000
G04 P0 ( dwell for no time -- G64 should not smooth over this point )
F600.00000
G01 X51.52492 Y5.14734
X51.15751 Y4.77929
X50.67699 Y4.57977
X50.15700 Y4.57929
X49.67615 Y4.77794
X49.30806 Y5.14541
X49.24514 Y5.28693
X49.19274 Y5.35836
X49.08674 Y5.42912
X48.96157 Y5.45402
X35.33549 Y5.45155
X35.21319 Y5.41736
X35.14822 Y5.37390
X35.08906 Y5.30962
X35.01593 Y5.14835
X34.64751 Y4.77929
X34.16699 Y4.57977
X33.64558 Y4.57924
X33.43953 Y4.64589
X33.35101 Y4.64203
X33.23328 Y4.59321
X31.13855 Y2.50736
X30.97284 Y2.39664
X30.77756 Y2.35778
X21.87283 Y2.35778
X21.67763 Y2.39659
X21.51190 Y2.50734
X20.92246 Y3.09677
X20.81172 Y3.26250
X20.77281 Y3.45811
X20.76821 Y6.05125
X20.74398 Y6.13121
X20.68378 Y6.22127
X20.58228 Y6.29265
X20.21167 Y6.66125
X20.09618 Y6.72618
X20.01970 Y6.74131
X19.91213 Y6.73265
X19.80535 Y6.68294
X19.74804 Y6.62866
X19.68576 Y6.51802
X19.63796 Y6.29712
X19.40987 Y5.95574
X19.06849 Y5.72765
X18.66583 Y5.64754
X18.26324 Y5.72760
X17.92150 Y5.95595
X17.65143 Y6.35605
X17.52994 Y6.45252
X17.44990 Y6.47677
X17.37104 Y6.47893
X17.21414 Y6.42628
X17.12392 Y6.33603
X16.86984 Y5.95577
X16.70413 Y5.84502
X16.60388 Y5.73799
X16.56268 Y5.61223
X16.55882 Y5.36278
X16.52001 Y5.16755
X16.40926 Y5.00182
X15.18483 Y3.77739
X15.01910 Y3.66664
X14.82382 Y3.62778
X11.71283 Y3.62778
X11.51763 Y3.66659
X11.35190 Y3.77734
X10.76246 Y4.36677
X10.65172 Y4.53250
X10.61276 Y4.72836
X10.60648 Y5.46504
X10.57623 Y5.54800
X10.53023 Y5.61762
X10.41100 Y5.70304
X10.32487 Y5.72412
X10.24126 Y5.72453
X10.15177 Y5.69910
X10.08489 Y5.65704
X9.46983 Y5.04739
X9.30410 Y4.93664
X9.10882 Y4.89778
X6.63283 Y4.89778
X6.43763 Y4.93659
X6.27184 Y5.04736
X5.20761 Y6.09600
X5.04355 Y6.14096
X4.69628 Y6.07830
X4.22610 Y6.17177
X3.85247 Y6.42143
X3.60281 Y6.79503
X3.51513 Y7.23578
X3.60276 Y7.67641
X3.85272 Y8.05051
X4.15889 Y8.25764
X4.21216 Y8.31075
X4.25788 Y8.38449
X4.28432 Y8.50651
X4.26311 Y8.62957
X4.19725 Y8.73575
X4.12941 Y8.78990
X4.01234 Y8.84890
X3.70446 Y9.18675
X3.64851 Y9.32180
X3.75013 Y9.32180
X3.87871 Y9.11774
X4.02791 Y8.96671
X4.16905 Y8.86846
X4.40111 Y8.76889
X4.68567 Y8.72607
X4.92676 Y8.75238
X5.09085 Y8.80384
X5.27843 Y8.90329
X5.47002 Y9.06775
X5.57530 Y9.20374
X5.63773 Y9.32180
X5.74319 Y9.32180
X5.68729 Y9.18680
X5.37939 Y8.84895
X5.26227 Y8.78990
X5.17116 Y8.70522
X5.13225 Y8.63857
X5.11063 Y8.55962
X5.12636 Y8.40773
X5.16395 Y8.32947
X5.22295 Y8.26582
X5.53921 Y8.05010
X5.78886 Y7.67649
X5.87654 Y7.23578
X5.81249 Y6.89415
X5.81635 Y6.80558
X5.86501 Y6.68787
X6.68411 Y5.85986
X6.79051 Y5.78864
X6.91561 Y5.76379
X7.75901 Y5.76379
X7.84629 Y5.77606
X7.93186 Y5.81365
X8.01319 Y5.88569
X8.07418 Y6.00507
X8.08312 Y6.13095
X8.23686 Y6.28475
X8.42061 Y6.24457
X8.65035 Y6.24129
X8.87435 Y6.29224
X9.06333 Y6.38117
X9.21492 Y6.49265
X9.34164 Y6.63176
X9.46686 Y6.84863
X9.52721 Y7.04855
X9.54580 Y7.23578
X9.52721 Y7.42302
X9.49340 Y7.54126
X9.64651 Y7.69442
X9.72106 Y7.66653
X9.81443 Y7.65691
X9.90343 Y7.67281
X9.99681 Y7.72109
X10.06132 Y7.78464
X10.10333 Y7.85993
X10.41730 Y8.17448
X10.82454 Y8.34357
X11.26510 Y8.34398
X11.67267 Y8.17560
X12.02616 Y7.82274
X12.09652 Y7.76984
X12.22421 Y7.72925
X12.31758 Y7.73321
X12.44143 Y7.78452
X12.51951 Y7.85965
X12.56030 Y7.93565
X12.64890 Y8.22663
X12.90886 Y8.54784
X13.13180 Y8.66790
X13.13180 Y8.56750
X12.98862 Y8.47339
X12.85215 Y8.33803
X12.74580 Y8.17801
X12.67379 Y7.99986
X12.63912 Y7.81154
X12.63526 Y6.73740
X12.65979 Y6.52572
X12.72121 Y6.34360
X12.79492 Y6.21083
X12.91697 Y6.06242
X13.13180 Y5.90527
X13.13180 Y5.80243
X12.90914 Y5.92336
X12.64945 Y6.24421
X12.56373 Y6.53011
X12.51930 Y6.61248
X12.41895 Y6.70151
X12.31710 Y6.73890
X12.18301 Y6.73598
X12.06124 Y6.67929
X11.67130 Y6.29394
X11.56782 Y6.22163
X11.49236 Y6.08521
X11.47882 Y5.99758
X11.47882 Y5.01058
X11.50376 Y4.88539
X11.57463 Y4.77934
X11.79469 Y4.56469
X11.87051 Y4.51864
X11.99561 Y4.49379
X14.54102 Y4.49379
X14.62860 Y4.50726
X14.77226 Y4.58955
X15.55364 Y5.37093
X15.62057 Y5.46806
X15.64480 Y5.54802
X15.64698 Y5.62679
X15.59959 Y5.77548
X15.54744 Y5.83931
X15.38249 Y5.95475
X15.08343 Y6.40080
X14.99880 Y6.46631
X14.91216 Y6.49818
X14.77937 Y6.49897
X14.67927 Y6.46087
X14.62550 Y6.42163
X14.56624 Y6.35079
X14.52225 Y6.24421
X14.26258 Y5.92341
X14.03980 Y5.80238
X14.03980 Y5.90408
X14.18300 Y5.99819
X14.31948 Y6.13354
X14.42583 Y6.29356
X14.49784 Y6.47172
X14.53251 Y6.66003
X14.53637 Y7.73417
X14.51183 Y7.94586
X14.45042 Y8.12798
X14.37671 Y8.26074
X14.25466 Y8.40915
X14.03980 Y8.56630
X14.03980 Y8.66793
X14.26276 Y8.54789
X14.52222 Y8.22732
X14.56619 Y8.12081
X14.62557 Y8.04979
X14.74008 Y7.98307
X14.84592 Y7.96613
X14.97543 Y7.99379
X15.05395 Y8.04263
X15.11460 Y8.10936
X15.38183 Y8.51578
X15.72318 Y8.74387
X16.12580 Y8.82394
X16.52844 Y8.74393
X16.86979 Y8.51583
X17.17172 Y8.07916
X17.27073 Y8.01502
X17.39585 Y7.99018
X17.51175 Y8.01149
X17.60786 Y8.07019
X17.66771 Y8.13549
X17.92181 Y8.51576
X18.26318 Y8.74387
X18.66580 Y8.82394
X19.06844 Y8.74393
X19.40982 Y8.51583
X19.63847 Y8.17364
X19.69353 Y7.92813
X19.73918 Y7.85325
X19.86128 Y7.75602
X19.97065 Y7.72965
X20.05924 Y7.73354
X20.17677 Y7.78221
X20.57690 Y8.17433
X20.98454 Y8.34357
X21.42510 Y8.34398
X21.83267 Y8.17560
X22.14705 Y7.86183
X22.22528 Y7.74510
X22.28964 Y7.69953
X22.42462 Y7.65866
X22.51304 Y7.66252
X22.60511 Y7.69437
X22.75827 Y7.54129
X22.72444 Y7.42302
X22.70585 Y7.23578
X22.72444 Y7.04855
X22.75825 Y6.93029
X22.60516 Y6.77710
X22.53064 Y6.80499
X22.43722 Y6.81462
X22.34829 Y6.79874
X22.25487 Y6.75043
X22.19035 Y6.68688
X22.14834 Y6.61160
X21.83130 Y6.29394
X21.72142 Y6.21419
X21.67542 Y6.14457
X21.64509 Y6.06128
X21.64514 Y3.67678
X21.70572 Y3.54302
X21.92442 Y3.31955
X22.02157 Y3.25260
X22.10156 Y3.22837
X30.49471 Y3.22379
X30.61990 Y3.24866
X30.72613 Y3.31968
X32.61190 Y5.21437
X32.66069 Y5.33227
X32.66448 Y5.42092
X32.59859 Y5.62442
X32.59808 Y6.14581
X32.79676 Y6.62671
X33.16417 Y6.99475
X33.64469 Y7.19427
X34.16468 Y7.19475
X34.64552 Y6.99610
X35.01362 Y6.62864
X35.07654 Y6.48711
X35.12896 Y6.41569
X35.23506 Y6.34484
X35.36003 Y6.32005
X48.96132 Y6.32005
X49.08654 Y6.34497
X49.19269 Y6.41591
X49.24509 Y6.48749
X49.30676 Y6.62671
X49.67417 Y6.99475
X50.15469 Y7.19427
X50.67468 Y7.19475
X51.15552 Y6.99610
X51.52357 Y6.62869
X51.72309 Y6.14817
X51.72357 Y5.62818
X51.52492 Y5.14734
G04 P0 ( dwell for no time -- G64 should not smooth over this point )
G00 Z1.00000 ( retract )

G00 X49.26597 Y6.21205 ( rapid move to begin. )
F300.00000
G01 Z-0.05000
G04 P0 ( dwell for no time -- G64 should not smooth over this point )
F600.00000
G01 X49.26597 Y6.21205
X35.05568 Y6.21205
X35.00161 Y6.37492
X34.86302 Y6.60834
X34.72322 Y6.76361
X34.52312 Y6.91441
X34.25622 Y7.03324
X34.03120 Y7.07995
X33.75978 Y7.07667
X33.51563 Y7.02033
X33.30611 Y6.92584
X33.11947 Y6.79161
X32.94860 Y6.60834
X32.81002 Y6.37492
X32.73796 Y6.15666
X32.70634 Y5.88704
X32.73796 Y5.61744
X32.81004 Y5.39915
X32.86351 Y5.30436
X30.67500 Y3.11579
X21.97539 Y3.11579
X21.53079 Y3.56040
X21.53079 Y6.29107
X21.72332 Y6.38117
X21.87491 Y6.49265
X22.00163 Y6.63176
X22.11936 Y6.82907
X22.18721 Y7.04855
X22.20580 Y7.23578
X22.18721 Y7.42302
X22.11936 Y7.64251
X22.02619 Y7.80601
X21.88972 Y7.96412
X21.70582 Y8.10179
X21.53435 Y8.17933
X21.33102 Y8.22701
X21.08060 Y8.22701
X20.87728 Y8.17933
X20.72450 Y8.11131
X20.53671 Y7.97893
X20.40999 Y7.83981
X20.28477 Y7.62295
X20.22442 Y7.42302
X20.20583 Y7.23578
X20.23311 Y7.00768
X20.29229 Y6.82905
X20.38543 Y6.66557
X20.55297 Y6.47949
X20.70583 Y6.36976
X20.88081 Y6.29090
X20.88081 Y3.42580
X20.90560 Y3.30134
X20.97603 Y3.19598
X21.61103 Y2.56098
X21.71652 Y2.49050
X21.84088 Y2.46581
X30.89201 Y2.47681
X31.03936 Y2.56098
X33.31967 Y4.84134
X33.53519 Y4.74627
X33.80133 Y4.69306
X34.05185 Y4.69743
X34.29599 Y4.75376
X34.50554 Y4.84825
X34.72322 Y5.01048
X34.88759 Y5.19956
X35.00158 Y5.39915
X35.05566 Y5.56207
X49.26594 Y5.56207
X49.32004 Y5.39915
X49.45860 Y5.16575
X49.59840 Y5.01048
X49.79850 Y4.85968
X50.06541 Y4.74086
X50.31133 Y4.69306
X50.52027 Y4.69306
X50.80599 Y4.75376
X51.01554 Y4.84825
X51.20216 Y4.98249
X51.39759 Y5.19956
X51.51158 Y5.39915
X51.58367 Y5.61744
X51.61420 Y5.90796
X51.58367 Y6.15666
X51.50208 Y6.39359
X51.37302 Y6.60834
X51.20216 Y6.79158
X51.01557 Y6.92582
X50.76622 Y7.03324
X50.54120 Y7.07995
X50.26978 Y7.07667
X50.04519 Y7.02783
X49.81611 Y6.92584
X49.61321 Y6.77842
X49.45860 Y6.60834
X49.32002 Y6.37492
X49.26597 Y6.21205
G04 P0 ( dwell for no time -- G64 should not smooth over this point )
G00 Z1.00000 ( retract )

G00 X54.06492 Y36.26234 ( rapid move to begin. )
F300.00000
G01 Z-0.05000
G04 P0 ( dwell for no time -- G64 should not smooth over this point )
F600.00000
G01 X54.06492 Y36.26234
X53.69751 Y35.89429
X53.21699 Y35.69477
X52.69700 Y35.69429
X52.21615 Y35.89294
X51.84806 Y36.26041
X51.78514 Y36.40193
X51.73274 Y36.47336
X51.62674 Y36.54412
X51.50160 Y36.56904
X37.90031 Y36.56904
X37.77508 Y36.54407
X37.66899 Y36.47313
X37.61659 Y36.40155
X37.55492 Y36.26234
X37.18751 Y35.89429
X36.70699 Y35.69477
X36.18700 Y35.69429
X35.70615 Y35.89294
X35.33806 Y36.26041
X35.26089 Y36.44618
X35.19002 Y36.55210
X35.08403 Y36.62286
X34.95888 Y36.64778
X24.06061 Y36.64778
X23.93546 Y36.62286
X23.82942 Y36.55197
X21.73463 Y34.45718
X21.68223 Y34.38571
X21.64987 Y34.30870
X21.63884 Y24.30828
X21.66026 Y24.19210
X21.71878 Y24.09584
X21.81372 Y23.86716
X21.81398 Y23.62546
X21.72157 Y23.40178
X21.55078 Y23.23069
X21.32724 Y23.13788
X21.08553 Y23.13762
X20.86186 Y23.23003
X20.69076 Y23.40082
X20.59795 Y23.62436
X20.59770 Y23.86607
X20.69214 Y24.09470
X20.75155 Y24.19205
X20.77281 Y24.30790
X20.77281 Y34.50852
X20.81167 Y34.70397
X20.92241 Y34.86971
X23.41684 Y37.36414
X23.58258 Y37.47488
X23.77808 Y37.51379
X35.02386 Y37.51379
X35.14908 Y37.53871
X35.25523 Y37.60968
X35.33676 Y37.74171
X35.70417 Y38.10975
X36.18469 Y38.30927
X36.70468 Y38.30975
X37.18552 Y38.11110
X37.55362 Y37.74364
X37.61654 Y37.60211
X37.66896 Y37.53069
X37.77506 Y37.45984
X37.90003 Y37.43505
X51.50132 Y37.43505
X51.62654 Y37.45997
X51.73269 Y37.53091
X51.78509 Y37.60249
X51.84676 Y37.74171
X52.21417 Y38.10975
X52.69469 Y38.30927
X53.21468 Y38.30975
X53.69552 Y38.11110
X54.06357 Y37.74369
X54.26309 Y37.26317
X54.26357 Y36.74318
X54.06492 Y36.26234
G04 P0 ( dwell for no time -- G64 should not smooth over this point )
G00 Z1.00000 ( retract )

G00 X51.80597 Y37.32705 ( rapid move to begin. )
F300.00000
G01 Z-0.05000
G04 P0 ( dwell for no time -- G64 should not smooth over this point )
F600.00000
G01 X51.80597 Y37.32705
X37.59568 Y37.32705
X37.54161 Y37.48992
X37.42759 Y37.68954
X37.23216 Y37.90658
X37.04557 Y38.04082
X36.83599 Y38.13533
X36.55027 Y38.19606
X36.34133 Y38.19606
X36.09541 Y38.14824
X35.84611 Y38.04084
X35.64321 Y37.89342
X35.48860 Y37.72334
X35.35954 Y37.50859
X35.32185 Y37.40579
X23.74580 Y37.40579
X23.62142 Y37.38100
X23.51603 Y37.31057
X20.97603 Y34.77057
X20.90956 Y34.67415
X20.88540 Y34.59452
X20.88086 Y24.12515
X20.78987 Y24.02205
X20.72218 Y23.86996
X20.70692 Y23.72479
X20.74156 Y23.56198
X20.81449 Y23.43564
X20.93831 Y23.32416
X21.03181 Y23.27778
X21.13283 Y23.25182
X21.27880 Y23.25182
X21.43712 Y23.30328
X21.55518 Y23.38903
X21.65309 Y23.52386
X21.68944 Y23.62162
X21.70471 Y23.72479
X21.69813 Y23.82914
X21.67006 Y23.92960
X21.61035 Y24.03963
X21.53079 Y24.12510
X21.53079 Y34.40616
X23.88045 Y36.75581
X35.27298 Y36.75581
X35.35004 Y36.51415
X35.46404 Y36.31456
X35.65947 Y36.09752
X35.84608 Y35.96325
X36.05563 Y35.86876
X36.34133 Y35.80806
X36.59185 Y35.81243
X36.79622 Y35.85586
X37.06310 Y35.97466
X37.23216 Y36.09749
X37.40302 Y36.28075
X37.54158 Y36.51415
X37.59566 Y36.67707
X51.80594 Y36.67707
X51.86004 Y36.51415
X51.99860 Y36.28075
X52.13840 Y36.12548
X52.33850 Y35.97468
X52.60541 Y35.85586
X52.85133 Y35.80806
X53.06027 Y35.80806
X53.34599 Y35.86876
X53.55554 Y35.96325
X53.74216 Y36.09749
X53.93759 Y36.31456
X54.05158 Y36.51415
X54.12367 Y36.73244
X54.15420 Y37.02296
X54.12367 Y37.27166
X54.04208 Y37.50859
X53.91302 Y37.72334
X53.74216 Y37.90658
X53.55557 Y38.04082
X53.30622 Y38.14824
X53.08120 Y38.19495
X52.80978 Y38.19167
X52.58519 Y38.14283
X52.35611 Y38.04084
X52.15321 Y37.89342
X51.99860 Y37.72334
X51.86002 Y37.48992
X51.80597 Y37.32705

G04 P0 ( dwell for no time -- G64 should not smooth over this point )
G00 Z10.000 ( retract )

M5 ( Spindle off. )
M9 ( Coolant off. )
M2 ( Program end. )

