( pcb2gcode 1.3.2 )
( Software-independent Gcode )

( This file uses 4 drill bit sizes. )
( Bit sizes: [0.8mm] [0.813mm] [1mm] [1.001mm] )

G94       (Millimeters per minute feed rate.)
G21       (Units == Millimeters.)
G90       (Absolute coordinates.)
S10000     (RPM spindle speed.)

G53 G00 Z20.00000 (Retract)
T1
M5      (Spindle stop.)
(MSG, Change tool bit to drill size 0.80000 mm)
M6      (Tool change.)
M0      (Temporary machine stop.)
M3      (Spindle on clockwise.)
G0 Z1.00000

F80.00000
G0 X18.41500 Y27.30500
G1 Z-2.50000
G1 Z1.00000
G0 X20.91500 Y27.30500
G1 Z-2.50000
G1 Z1.00000
G0 X22.22500 Y31.75000
G1 Z-2.50000
G1 Z1.00000
G0 X17.22500 Y31.75000
G1 Z-2.50000
G1 Z1.00000
G0 X17.78000 Y34.92500
G1 Z-2.50000
G1 Z1.00000
G0 X20.95500 Y36.91000
G1 Z-2.50000
G1 Z1.00000
G0 X24.76500 Y39.37000
G1 Z-2.50000
G1 Z1.00000
G0 X27.30500 Y36.83000
G1 Z-2.50000
G1 Z1.00000
G0 X32.30500 Y36.83000
G1 Z-2.50000
G1 Z1.00000
G0 X32.38500 Y39.37000
G1 Z-2.50000
G1 Z1.00000
G0 X36.83000 Y37.46500
G1 Z-2.50000
G1 Z1.00000
G0 X39.33000 Y37.46500
G1 Z-2.50000
G1 Z1.00000
G0 X41.91000 Y35.56000
G1 Z-2.50000
G1 Z1.00000
G0 X44.45000 Y36.19500
G1 Z-2.50000
G1 Z1.00000
G0 X49.53000 Y36.83000
G1 Z-2.50000
G1 Z1.00000
G0 X54.53000 Y36.83000
G1 Z-2.50000
G1 Z1.00000
G0 X54.61000 Y39.37000
G1 Z-2.50000
G1 Z1.00000
G0 X59.05500 Y37.46500
G1 Z-2.50000
G1 Z1.00000
G0 X61.55500 Y37.46500
G1 Z-2.50000
G1 Z1.00000
G0 X62.86500 Y33.02000
G1 Z-2.50000
G1 Z1.00000
G0 X62.86500 Y30.48000
G1 Z-2.50000
G1 Z1.00000
G0 X65.40500 Y27.30500
G1 Z-2.50000
G1 Z1.00000
G0 X57.86500 Y30.48000
G1 Z-2.50000
G1 Z1.00000
G0 X57.86500 Y33.02000
G1 Z-2.50000
G1 Z1.00000
G0 X55.24500 Y27.30500
G1 Z-2.50000
G1 Z1.00000
G0 X43.18000 Y27.30500
G1 Z-2.50000
G1 Z1.00000
G0 X40.64000 Y30.48000
G1 Z-2.50000
G1 Z1.00000
G0 X40.64000 Y33.02000
G1 Z-2.50000
G1 Z1.00000
G0 X35.64000 Y33.02000
G1 Z-2.50000
G1 Z1.00000
G0 X35.64000 Y30.48000
G1 Z-2.50000
G1 Z1.00000
G0 X33.02000 Y27.30500
G1 Z-2.50000
G1 Z1.00000
G0 X41.91000 Y43.18000
G1 Z-2.50000
G1 Z1.00000
G0 X44.45000 Y50.16500
G1 Z-2.50000
G1 Z1.00000
G0 X54.61000 Y45.72000
G1 Z-2.50000
G1 Z1.00000
G0 X60.32500 Y43.18000
G1 Z-2.50000
G1 Z1.00000
G0 X60.32500 Y48.18000
G1 Z-2.50000
G1 Z1.00000
G0 X60.32500 Y53.34000
G1 Z-2.50000
G1 Z1.00000
G0 X60.32500 Y58.34000
G1 Z-2.50000
G1 Z1.00000
G0 X69.21500 Y58.42000
G1 Z-2.50000
G1 Z1.00000
G0 X69.21500 Y53.42000
G1 Z-2.50000
G1 Z1.00000
G0 X69.21500 Y48.18000
G1 Z-2.50000
G1 Z1.00000
G0 X69.21500 Y43.18000
G1 Z-2.50000
G1 Z1.00000
G0 X32.38500 Y45.72000
G1 Z-2.50000
G1 Z1.00000
G0 X27.30500 Y48.97500
G1 Z-2.50000
G1 Z1.00000
G0 X24.13000 Y48.89500
G1 Z-2.50000
G1 Z1.00000
G0 X24.76500 Y45.72000
G1 Z-2.50000
G1 Z1.00000
G0 X20.95500 Y48.97500
G1 Z-2.50000
G1 Z1.00000
G0 X17.78000 Y48.89500
G1 Z-2.50000
G1 Z1.00000
G0 X17.78000 Y45.08500
G1 Z-2.50000
G1 Z1.00000
G0 X20.95500 Y41.91000
G1 Z-2.50000
G1 Z1.00000
G0 X20.95500 Y53.97500
G1 Z-2.50000
G1 Z1.00000
G0 X24.13000 Y59.05500
G1 Z-2.50000
G1 Z1.00000
G0 X27.30500 Y53.97500
G1 Z-2.50000
G1 Z1.00000
G0 X17.78000 Y59.05500
G1 Z-2.50000
G1 Z1.00000

G53 G00 Z20.00000 (Retract)
T2
M5      (Spindle stop.)
(MSG, Change tool bit to drill size 0.81300 mm)
M6      (Tool change.)
M0      (Temporary machine stop.)
M3      (Spindle on clockwise.)
G0 Z1.00000

F80.00000
G0 X64.13500 Y43.18000
G1 Z-2.50000
G1 Z1.00000
G0 X64.11500 Y45.72000
G1 Z-2.50000
G1 Z1.00000
G0 X64.11500 Y48.22000
G1 Z-2.50000
G1 Z1.00000
G0 X65.40500 Y53.34000
G1 Z-2.50000
G1 Z1.00000
G0 X65.40500 Y55.88000
G1 Z-2.50000
G1 Z1.00000
G0 X65.40500 Y58.42000
G1 Z-2.50000
G1 Z1.00000

G53 G00 Z20.00000 (Retract)
T3
M5      (Spindle stop.)
(MSG, Change tool bit to drill size 1.00000 mm)
M6      (Tool change.)
M0      (Temporary machine stop.)
M3      (Spindle on clockwise.)
G0 Z1.00000

F80.00000
G0 X13.33500 Y29.21000
G1 Z-2.50000
G1 Z1.00000
G0 X13.33500 Y31.75000
G1 Z-2.50000
G1 Z1.00000
G0 X13.33500 Y36.83000
G1 Z-2.50000
G1 Z1.00000
G0 X13.33500 Y39.37000
G1 Z-2.50000
G1 Z1.00000
G0 X13.33500 Y49.53000
G1 Z-2.50000
G1 Z1.00000
G0 X13.33500 Y52.07000
G1 Z-2.50000
G1 Z1.00000
G0 X13.33500 Y54.61000
G1 Z-2.50000
G1 Z1.00000
G0 X33.09900 Y23.49500
G1 Z-2.50000
G1 Z1.00000
G0 X43.25900 Y23.49500
G1 Z-2.50000
G1 Z1.00000
G0 X55.32400 Y23.49500
G1 Z-2.50000
G1 Z1.00000
G0 X65.48400 Y23.49500
G1 Z-2.50000
G1 Z1.00000
G0 X74.93000 Y30.48000
G1 Z-2.50000
G1 Z1.00000
G0 X74.93000 Y33.02000
G1 Z-2.50000
G1 Z1.00000
G0 X74.93000 Y46.99000
G1 Z-2.50000
G1 Z1.00000
G0 X74.93000 Y49.53000
G1 Z-2.50000
G1 Z1.00000
G0 X74.93000 Y52.07000
G1 Z-2.50000
G1 Z1.00000

G53 G00 Z20.00000 (Retract)
T4
M5      (Spindle stop.)
(MSG, Change tool bit to drill size 1.00100 mm)
M6      (Tool change.)
M0      (Temporary machine stop.)
M3      (Spindle on clockwise.)
G0 Z1.00000

F80.00000
G0 X32.38500 Y48.18100
G1 Z-2.50000
G1 Z1.00000
G0 X32.38500 Y58.34100
G1 Z-2.50000
G1 Z1.00000
G0 X54.61000 Y58.34100
G1 Z-2.50000
G1 Z1.00000
G0 X54.61000 Y48.18100
G1 Z-2.50000
G1 Z1.00000

G53 G00 Z20.000 ( All done -- retract )

M5      (Spindle off.)
M9      (Coolant off.)
M2      (Program end.)

