( pcb2gcode 1.3.2 )
( Software-independent Gcode )

G94 ( Millimeters per minute feed rate. )
G21 ( Units == Millimeters. )

G90 ( Absolute coordinates. )
S10000 ( RPM spindle speed. )
F300.00000 ( Feedrate. )

F300.00000 ( Feedrate. )
M3 ( Spindle on clockwise. )
G04 P0 ( dwell for no time -- G64 should not smooth over this point )
G00 Z1.00000 ( retract )

G00 X12.61514 Y28.23388 ( rapid move to begin. )
F150.00000
G01 Z-0.06000
G04 P0 ( dwell for no time -- G64 should not smooth over this point )
F300.00000
G01 X12.61514 Y28.23388
X12.94102 Y28.08079
X12.94102 Y28.30256
X12.78151 Y28.38996
X12.62776 Y28.51818
X12.50297 Y28.67469
X12.43046 Y28.81602
X12.19779 Y28.81602
X12.29208 Y28.58839
X12.61514 Y28.23388
G04 P0 ( dwell for no time -- G64 should not smooth over this point )
G00 Z1.00000 ( retract )

G00 X14.37780 Y28.58831 ( rapid move to begin. )
F150.00000
G01 Z-0.06000
G04 P0 ( dwell for no time -- G64 should not smooth over this point )
F300.00000
G01 X14.37780 Y28.58831
X14.47211 Y28.81602
X14.24013 Y28.81602
X14.12591 Y28.61567
X13.99009 Y28.46862
X13.82746 Y28.35191
X13.72898 Y28.30662
X13.72898 Y28.08089
X14.05473 Y28.23383
X14.37780 Y28.58831
G04 P0 ( dwell for no time -- G64 should not smooth over this point )
G00 Z1.00000 ( retract )

G00 X14.32496 Y31.46003 ( rapid move to begin. )
F150.00000
G01 Z-0.06000
G04 P0 ( dwell for no time -- G64 should not smooth over this point )
F300.00000
G01 X14.32496 Y31.46003
X14.32227 Y30.87268
X14.30137 Y30.82224
X14.23853 Y30.77068
X14.18499 Y30.76003
X12.48501 Y30.76003
X12.40724 Y30.78361
X12.36861 Y30.82224
X12.34503 Y30.90001
X12.34503 Y32.59999
X12.36861 Y32.67773
X12.40724 Y32.71637
X12.48501 Y32.73996
X14.18499 Y32.73996
X14.23853 Y32.72930
X14.30137 Y32.67773
X14.32227 Y32.62729
X14.32496 Y32.03997
X16.33545 Y32.03997
X16.36626 Y32.13230
X16.45656 Y32.29021
X16.60741 Y32.45775
X16.75496 Y32.56402
X16.92084 Y32.63870
X17.12671 Y32.68480
X17.30860 Y32.68558
X17.51541 Y32.64395
X17.69494 Y32.56402
X17.86428 Y32.43816
X17.99339 Y32.29021
X18.07703 Y32.14538
X18.14667 Y31.93095
X18.16494 Y31.74997
X18.14667 Y31.56902
X18.05998 Y31.32506
X18.62000 Y30.76499
X18.66311 Y30.70929
X18.69603 Y30.62989
X18.70497 Y28.24498
X19.24230 Y28.24229
X19.31396 Y28.20396
X19.35229 Y28.13230
X19.35498 Y26.50500
X19.33138 Y26.42723
X19.29275 Y26.38859
X19.24230 Y26.36769
X17.61500 Y26.36502
X17.53723 Y26.38859
X17.48566 Y26.45143
X17.47502 Y26.50500
X17.47502 Y28.10500
X17.48566 Y28.15854
X17.53723 Y28.22138
X17.58767 Y28.24229
X18.12503 Y28.24498
X18.12503 Y30.43984
X17.64988 Y30.91505
X17.51541 Y30.85602
X17.30860 Y30.81442
X17.12671 Y30.81518
X16.92084 Y30.86128
X16.75501 Y30.93596
X16.58567 Y31.06181
X16.45656 Y31.20977
X16.36626 Y31.36768
X16.33548 Y31.46003
X14.32496 Y31.46003
X14.46494 Y31.32005
X14.46494 Y31.12727
X14.42110 Y30.80027
X14.36365 Y30.71622
X14.27566 Y30.65993
X14.11669 Y30.62006
X12.55779 Y30.62006
X12.38529 Y30.66385
X12.30125 Y30.72127
X12.24493 Y30.80929
X12.22477 Y30.93598
X12.22477 Y32.56123
X12.24882 Y32.69963
X12.30627 Y32.78370
X12.39426 Y32.84002
X12.52111 Y32.86021
X14.14610 Y32.86021
X14.28466 Y32.83613
X14.36870 Y32.77867
X14.42502 Y32.69066
X14.46494 Y32.37271
X14.46494 Y32.17995
X14.64003 Y32.17995
X14.78247 Y32.15643
X15.99715 Y32.15399
X16.23479 Y32.17995
X16.38516 Y32.39361
X16.63545 Y32.63384
X16.87398 Y32.74400
X17.01876 Y32.79181
X17.30860 Y32.80174
X17.43306 Y32.79143
X17.77832 Y32.65391
X17.94957 Y32.51495
X18.10944 Y32.33984
X18.19788 Y32.15399
X18.26877 Y31.95655
X18.26941 Y31.55610
X18.22767 Y31.35533
X18.37919 Y31.16707
X18.67411 Y30.87218
X18.77268 Y30.73453
X18.79849 Y30.66100
X18.81899 Y30.52242
X18.81899 Y28.75242
X18.84495 Y28.56004
X18.84495 Y28.38496
X19.03748 Y28.38496
X19.31497 Y28.34096
X19.39874 Y28.28366
X19.45500 Y28.19573
X19.49496 Y28.03926
X19.49496 Y26.57554
X19.45112 Y26.40526
X19.39366 Y26.32118
X19.30570 Y26.26495
X19.17896 Y26.24478
X17.65371 Y26.24478
X17.51523 Y26.26886
X17.43121 Y26.32629
X17.37495 Y26.41422
X17.35478 Y26.54097
X17.35478 Y28.06621
X17.37886 Y28.20469
X17.43626 Y28.28874
X17.52280 Y28.34429
X17.79748 Y28.38496
X17.98505 Y28.38496
X17.98505 Y28.55943
X18.00974 Y28.72720
X18.00852 Y30.28493
X17.99593 Y30.38635
X17.81033 Y30.59326
X17.61891 Y30.74805
X17.36247 Y30.70093
X17.08749 Y30.70106
X16.92425 Y30.73733
X16.72029 Y30.82199
X16.63395 Y30.86715
X16.50035 Y30.98503
X16.34973 Y31.14807
X16.23484 Y31.32005
X16.02146 Y31.34477
X14.80764 Y31.34477
X14.63947 Y31.32005
X14.46494 Y31.32005
G04 P0 ( dwell for no time -- G64 should not smooth over this point )
G00 Z1.00000 ( retract )

G00 X14.37785 Y39.99154 ( rapid move to begin. )
F150.00000
G01 Z-0.06000
G04 P0 ( dwell for no time -- G64 should not smooth over this point )
F300.00000
G01 X14.37785 Y39.99154
X14.05479 Y40.34605
X13.72898 Y40.49911
X13.72898 Y40.27741
X13.88847 Y40.19001
X14.04221 Y40.06179
X14.16700 Y39.90528
X14.23949 Y39.76398
X14.47211 Y39.76398
X14.37785 Y39.99154
G04 P0 ( dwell for no time -- G64 should not smooth over this point )
G00 Z1.00000 ( retract )

G00 X12.94102 Y40.27338 ( rapid move to begin. )
F150.00000
G01 Z-0.06000
G04 P0 ( dwell for no time -- G64 should not smooth over this point )
F300.00000
G01 X12.94102 Y40.27338
X12.94102 Y40.49908
X12.61519 Y40.34610
X12.29213 Y39.99161
X12.19784 Y39.76398
X12.42987 Y39.76398
X12.54407 Y39.96431
X12.67988 Y40.11135
X12.84252 Y40.22806
X12.94102 Y40.27338
G04 P0 ( dwell for no time -- G64 should not smooth over this point )
G00 Z1.00000 ( retract )

G00 X10.65502 Y42.12676 ( rapid move to begin. )
F150.00000
G01 Z-0.06000
G04 P0 ( dwell for no time -- G64 should not smooth over this point )
F300.00000
G01 X10.65502 Y42.12676
X10.65502 Y60.83300
X10.67532 Y60.93513
X10.71580 Y61.00056
X10.79558 Y61.06668
X10.85665 Y61.09150
X80.51797 Y61.09995
X80.62016 Y61.07963
X80.73179 Y60.99231
X80.76710 Y60.92876
X80.78498 Y60.83300
X80.78498 Y19.81200
X80.77187 Y19.72945
X80.73395 Y19.65503
X80.67487 Y19.59597
X80.60045 Y19.55805
X80.51800 Y19.54502
X10.92200 Y19.54502
X10.79558 Y19.57827
X10.73815 Y19.61848
X10.69294 Y19.67542
X10.65502 Y19.81200
X10.65502 Y42.12676
X10.51504 Y42.12676
X10.51504 Y60.83300
X10.54598 Y60.98868
X10.63419 Y61.12073
X10.75372 Y61.20341
X10.89718 Y61.23747
X80.51797 Y61.23993
X80.67375 Y61.20895
X80.79580 Y61.13021
X80.87045 Y61.03554
X80.90987 Y60.93625
X80.92496 Y60.83300
X80.92496 Y19.81200
X80.90499 Y19.68617
X80.84721 Y19.57276
X80.75717 Y19.48274
X80.64368 Y19.42490
X80.51800 Y19.40504
X10.92200 Y19.40504
X10.76625 Y19.43598
X10.64415 Y19.51477
X10.56950 Y19.60941
X10.53005 Y19.70885
X10.51504 Y19.81200
X10.51504 Y42.12676
G04 P0 ( dwell for no time -- G64 should not smooth over this point )
G00 Z1.00000 ( retract )

G00 X17.27683 Y44.02468 ( rapid move to begin. )
F150.00000
G01 Z-0.06000
G04 P0 ( dwell for no time -- G64 should not smooth over this point )
F300.00000
G01 X17.27683 Y44.02468
X17.60355 Y43.90720
X18.07421 Y43.92963
X18.28909 Y44.01863
X18.10306 Y44.20474
X17.86362 Y44.14942
X17.68173 Y44.15018
X17.45694 Y44.20471
X17.27683 Y44.02468
G04 P0 ( dwell for no time -- G64 should not smooth over this point )
G00 Z1.00000 ( retract )

G00 X16.71968 Y45.58810 ( rapid move to begin. )
F150.00000
G01 Z-0.06000
G04 P0 ( dwell for no time -- G64 should not smooth over this point )
F300.00000
G01 X16.71968 Y45.58810
X16.60220 Y45.26138
X16.62463 Y44.79072
X16.71363 Y44.57583
X16.90088 Y44.76303
X16.85828 Y44.90402
X16.84002 Y45.08497
X16.85828 Y45.26595
X16.90083 Y45.40687
X16.71968 Y45.58810
G04 P0 ( dwell for no time -- G64 should not smooth over this point )
G00 Z1.00000 ( retract )

G00 X17.27086 Y46.15132 ( rapid move to begin. )
F150.00000
G01 Z-0.06000
G04 P0 ( dwell for no time -- G64 should not smooth over this point )
F300.00000
G01 X17.27086 Y46.15132
X17.45686 Y45.96524
X17.69638 Y46.02058
X17.89270 Y46.01751
X18.10304 Y45.96526
X18.28307 Y46.14525
X17.95638 Y46.26272
X17.48572 Y46.24029
X17.27086 Y46.15132
G04 P0 ( dwell for no time -- G64 should not smooth over this point )
G00 Z1.00000 ( retract )

G00 X18.84632 Y45.59407 ( rapid move to begin. )
F150.00000
G01 Z-0.06000
G04 P0 ( dwell for no time -- G64 should not smooth over this point )
F300.00000
G01 X18.84632 Y45.59407
X18.65909 Y45.40694
X18.70169 Y45.26595
X18.71995 Y45.08497
X18.70169 Y44.90402
X18.65912 Y44.76303
X18.84027 Y44.58185
X18.95772 Y44.90855
X18.93529 Y45.37921
X18.84632 Y45.59407
G04 P0 ( dwell for no time -- G64 should not smooth over this point )
G00 Z1.00000 ( retract )

G00 X18.67162 Y49.18497 ( rapid move to begin. )
F150.00000
G01 Z-0.06000
G04 P0 ( dwell for no time -- G64 should not smooth over this point )
F300.00000
G01 X18.67162 Y49.18497
X20.03948 Y49.18497
X20.09628 Y49.35728
X20.18657 Y49.51519
X20.31568 Y49.66315
X20.48497 Y49.78900
X20.65086 Y49.86368
X20.85673 Y49.90978
X21.03862 Y49.91057
X21.24542 Y49.86894
X21.42495 Y49.78900
X21.58393 Y49.67351
X21.72340 Y49.51519
X21.81896 Y49.34359
X21.87062 Y49.18453
X21.89287 Y49.00214
X24.37773 Y46.51723
X24.48997 Y46.56640
X24.65751 Y46.60278
X24.87247 Y46.60278
X25.03998 Y46.56640
X25.19690 Y46.49737
X25.37084 Y46.37100
X25.47577 Y46.25447
X25.57135 Y46.09501
X25.63551 Y45.90501
X25.65418 Y45.73460
X25.63779 Y45.54944
X25.57135 Y45.34497
X25.47577 Y45.18551
X25.34910 Y45.04939
X25.20993 Y44.94926
X25.02583 Y44.86979
X24.84338 Y44.83415
X24.67196 Y44.83491
X24.50414 Y44.86979
X24.32002 Y44.94926
X24.18088 Y45.04939
X24.03701 Y45.20918
X23.94671 Y45.37169
X23.89447 Y45.53494
X23.87580 Y45.70537
X23.89218 Y45.89054
X23.96637 Y46.10847
X21.68614 Y48.38880
X21.57255 Y48.26721
X21.43727 Y48.16892
X21.25911 Y48.08626
X21.06770 Y48.04245
X20.85673 Y48.04016
X20.65086 Y48.08626
X20.48502 Y48.16094
X20.33742 Y48.26721
X20.20377 Y48.41110
X20.09153 Y48.60503
X18.67060 Y48.60503
X18.61701 Y48.46864
X18.51406 Y48.30887
X18.40253 Y48.19155
X18.24820 Y48.08065
X18.07464 Y48.00305
X17.88909 Y47.96198
X17.76583 Y47.95573
X17.60479 Y47.97212
X17.39659 Y48.03745
X17.25506 Y48.11601
X17.10898 Y48.23762
X16.97543 Y48.41016
X16.88836 Y48.60503
X15.87500 Y48.60503
X15.75158 Y48.63297
X15.66995 Y48.68995
X15.11986 Y49.24003
X14.32496 Y49.24003
X14.32227 Y48.65268
X14.28394 Y48.58103
X14.21229 Y48.54270
X12.48501 Y48.54003
X12.43145 Y48.55068
X12.36861 Y48.60224
X12.34503 Y48.68001
X12.34770 Y50.40729
X12.36861 Y50.45773
X12.40724 Y50.49637
X12.48501 Y50.51996
X14.18499 Y50.51996
X14.23853 Y50.50930
X14.30137 Y50.45773
X14.32227 Y50.40729
X14.32496 Y49.81997
X15.24000 Y49.81997
X15.33802 Y49.80249
X15.44500 Y49.73500
X15.99504 Y49.18497
X16.88937 Y49.18497
X16.94297 Y49.32134
X17.02859 Y49.45870
X17.17893 Y49.61684
X17.33657 Y49.72309
X17.48533 Y49.78692
X17.67088 Y49.82799
X17.77289 Y49.83477
X17.95518 Y49.81786
X18.13738 Y49.76371
X18.32816 Y49.65779
X18.47052 Y49.53183
X18.56958 Y49.40384
X18.67162 Y49.18497
X18.76737 Y49.32495
X19.93778 Y49.32495
X19.98172 Y49.44036
X20.09973 Y49.63249
X20.25513 Y49.79596
X20.44113 Y49.92355
X20.64959 Y50.00965
X20.84210 Y50.04900
X21.09681 Y50.04443
X21.31604 Y49.99157
X21.49493 Y49.91024
X21.69833 Y49.75680
X21.84461 Y49.58519
X21.94156 Y49.41423
X22.00374 Y49.22779
X22.02688 Y49.06607
X23.77128 Y47.32167
X23.87074 Y47.18723
X24.25837 Y46.80064
X24.40869 Y46.68426
X24.45037 Y46.70049
X24.68659 Y46.72188
X24.89716 Y46.71901
X25.05022 Y46.68500
X25.32797 Y46.56094
X25.56403 Y46.33392
X25.60752 Y46.28190
X25.67117 Y46.15261
X25.74643 Y45.95647
X25.76830 Y45.74659
X25.75895 Y45.52137
X25.60658 Y45.15655
X25.45608 Y44.99221
X25.32652 Y44.87796
X25.10053 Y44.77360
X24.96139 Y44.72752
X24.56675 Y44.72790
X24.42942 Y44.77352
X24.20198 Y44.87901
X24.07387 Y44.99219
X23.92243 Y45.15805
X23.78352 Y45.48350
X23.76167 Y45.74659
X23.77585 Y45.95899
X23.80173 Y46.07514
X23.66648 Y46.24540
X21.93041 Y47.98319
X21.69069 Y48.18626
X21.60031 Y48.11436
X21.45970 Y48.04689
X21.16117 Y47.93310
X20.87136 Y47.92320
X20.74687 Y47.93351
X20.60395 Y47.98090
X20.36394 Y48.09216
X20.23036 Y48.21001
X20.00745 Y48.46505
X19.79084 Y48.49099
X18.91685 Y48.48852
X18.76803 Y48.46505
X18.51515 Y48.13310
X18.26895 Y47.96079
X18.17609 Y47.91042
X18.07106 Y47.88060
X17.75343 Y47.83404
X17.38323 Y47.90905
X17.20047 Y48.01768
X17.04530 Y48.13221
X16.79260 Y48.46505
X16.59303 Y48.49099
X15.91239 Y48.49099
X15.72179 Y48.52515
X15.56276 Y48.63584
X15.18422 Y49.01438
X15.06637 Y49.11090
X14.90899 Y49.12596
X14.64104 Y49.10005
X14.46494 Y49.10005
X14.46494 Y48.91496
X14.42110 Y48.58027
X14.36365 Y48.49622
X14.27564 Y48.43993
X14.14894 Y48.41977
X12.52370 Y48.41977
X12.38529 Y48.44385
X12.30125 Y48.50127
X12.24493 Y48.58929
X12.22477 Y48.71598
X12.22865 Y50.37999
X12.24882 Y50.47963
X12.30627 Y50.56370
X12.40008 Y50.62289
X12.52718 Y50.65994
X14.23960 Y50.65456
X14.34051 Y50.61275
X14.41775 Y50.53551
X14.44363 Y50.48710
X14.46494 Y50.37999
X14.46494 Y49.95995
X15.24000 Y49.95995
X15.37868 Y49.93643
X15.45532 Y49.90155
X15.54399 Y49.83399
X16.05303 Y49.32495
X16.79194 Y49.32495
X16.94447 Y49.57755
X17.05600 Y49.69487
X17.23179 Y49.82421
X17.48414 Y49.93251
X17.76578 Y49.97458
X18.02486 Y49.94572
X18.17929 Y49.89726
X18.37286 Y49.79634
X18.58122 Y49.61750
X18.68028 Y49.48951
X18.76737 Y49.32495
G04 P0 ( dwell for no time -- G64 should not smooth over this point )
G00 Z1.00000 ( retract )

G00 X19.79963 Y53.68072 ( rapid move to begin. )
F150.00000
G01 Z-0.06000
G04 P0 ( dwell for no time -- G64 should not smooth over this point )
F300.00000
G01 X19.79963 Y53.68072
X19.88863 Y53.46583
X20.07588 Y53.65303
X20.03328 Y53.79403
X20.01502 Y53.97497
X20.03328 Y54.15595
X20.07583 Y54.29687
X19.89468 Y54.47810
X19.77720 Y54.15138
X19.79963 Y53.68072
G04 P0 ( dwell for no time -- G64 should not smooth over this point )
G00 Z1.00000 ( retract )

G00 X20.44586 Y55.04132 ( rapid move to begin. )
F150.00000
G01 Z-0.06000
G04 P0 ( dwell for no time -- G64 should not smooth over this point )
F300.00000
G01 X20.44586 Y55.04132
X20.63186 Y54.85524
X20.87138 Y54.91058
X21.06770 Y54.90751
X21.27804 Y54.85526
X21.45807 Y55.03525
X21.13138 Y55.15272
X20.66072 Y55.13029
X20.44586 Y55.04132
G04 P0 ( dwell for no time -- G64 should not smooth over this point )
G00 Z1.00000 ( retract )

G00 X22.13272 Y53.79855 ( rapid move to begin. )
F150.00000
G01 Z-0.06000
G04 P0 ( dwell for no time -- G64 should not smooth over this point )
F300.00000
G01 X22.13272 Y53.79855
X22.11029 Y54.26921
X22.02132 Y54.48407
X21.83409 Y54.29695
X21.87669 Y54.15595
X21.89495 Y53.97497
X21.87669 Y53.79403
X21.83412 Y53.65303
X22.01527 Y53.47185
X22.13272 Y53.79855
G04 P0 ( dwell for no time -- G64 should not smooth over this point )
G00 Z1.00000 ( retract )

G00 X26.14963 Y53.68072 ( rapid move to begin. )
F150.00000
G01 Z-0.06000
G04 P0 ( dwell for no time -- G64 should not smooth over this point )
F300.00000
G01 X26.14963 Y53.68072
X26.23863 Y53.46583
X26.42588 Y53.65303
X26.38328 Y53.79403
X26.36502 Y53.97497
X26.38328 Y54.15595
X26.42583 Y54.29687
X26.24468 Y54.47810
X26.12720 Y54.15138
X26.14963 Y53.68072
G04 P0 ( dwell for no time -- G64 should not smooth over this point )
G00 Z1.00000 ( retract )

G00 X26.80183 Y52.91468 ( rapid move to begin. )
F150.00000
G01 Z-0.06000
G04 P0 ( dwell for no time -- G64 should not smooth over this point )
F300.00000
G01 X26.80183 Y52.91468
X27.12855 Y52.79720
X27.59921 Y52.81963
X27.81409 Y52.90863
X27.62806 Y53.09474
X27.38862 Y53.03942
X27.20673 Y53.04018
X26.98194 Y53.09471
X26.80183 Y52.91468
G04 P0 ( dwell for no time -- G64 should not smooth over this point )
G00 Z1.00000 ( retract )

G00 X28.18412 Y53.65303 ( rapid move to begin. )
F150.00000
G01 Z-0.06000
G04 P0 ( dwell for no time -- G64 should not smooth over this point )
F300.00000
G01 X28.18412 Y53.65303
X28.36525 Y53.47185
X28.48270 Y53.79855
X28.46029 Y54.26923
X28.37129 Y54.48407
X28.18409 Y54.29695
X28.22669 Y54.15595
X28.24495 Y53.97497
X28.22669 Y53.79403
X28.18412 Y53.65303
G04 P0 ( dwell for no time -- G64 should not smooth over this point )
G00 Z1.00000 ( retract )

G00 X27.01072 Y55.13029 ( rapid move to begin. )
F150.00000
G01 Z-0.06000
G04 P0 ( dwell for no time -- G64 should not smooth over this point )
F300.00000
G01 X27.01072 Y55.13029
X26.79586 Y55.04132
X26.98186 Y54.85524
X27.22138 Y54.91058
X27.41770 Y54.90751
X27.62804 Y54.85526
X27.80807 Y55.03525
X27.48138 Y55.15272
X27.01072 Y55.13029
G04 P0 ( dwell for no time -- G64 should not smooth over this point )
G00 Z1.00000 ( retract )

G00 X25.19027 Y58.55185 ( rapid move to begin. )
F150.00000
G01 Z-0.06000
G04 P0 ( dwell for no time -- G64 should not smooth over this point )
F300.00000
G01 X25.19027 Y58.55185
X25.30772 Y58.87855
X25.28529 Y59.34921
X25.19632 Y59.56407
X25.00909 Y59.37694
X25.05169 Y59.23595
X25.06995 Y59.05497
X25.05169 Y58.87402
X25.00912 Y58.73303
X25.19027 Y58.55185
G04 P0 ( dwell for no time -- G64 should not smooth over this point )
G00 Z1.00000 ( retract )

G00 X23.62683 Y57.99468 ( rapid move to begin. )
F150.00000
G01 Z-0.06000
G04 P0 ( dwell for no time -- G64 should not smooth over this point )
F300.00000
G01 X23.62683 Y57.99468
X23.95355 Y57.87720
X24.42421 Y57.89963
X24.63909 Y57.98863
X24.45306 Y58.17474
X24.21362 Y58.11942
X24.03173 Y58.12018
X23.80694 Y58.17471
X23.62683 Y57.99468
G04 P0 ( dwell for no time -- G64 should not smooth over this point )
G00 Z1.00000 ( retract )

G00 X23.06363 Y58.54583 ( rapid move to begin. )
F150.00000
G01 Z-0.06000
G04 P0 ( dwell for no time -- G64 should not smooth over this point )
F300.00000
G01 X23.06363 Y58.54583
X23.25088 Y58.73303
X23.20828 Y58.87402
X23.19002 Y59.05497
X23.20828 Y59.23595
X23.25083 Y59.37687
X23.06968 Y59.55810
X22.95220 Y59.23138
X22.97463 Y58.76072
X23.06363 Y58.54583
G04 P0 ( dwell for no time -- G64 should not smooth over this point )
G00 Z1.00000 ( retract )

G00 X23.80686 Y59.93524 ( rapid move to begin. )
F150.00000
G01 Z-0.06000
G04 P0 ( dwell for no time -- G64 should not smooth over this point )
F300.00000
G01 X23.80686 Y59.93524
X24.04638 Y59.99058
X24.24270 Y59.98751
X24.45304 Y59.93526
X24.63307 Y60.11525
X24.30638 Y60.23272
X23.83572 Y60.21029
X23.62086 Y60.12132
X23.80686 Y59.93524
G04 P0 ( dwell for no time -- G64 should not smooth over this point )
G00 Z1.00000 ( retract )

G00 X18.84027 Y58.55185 ( rapid move to begin. )
F150.00000
G01 Z-0.06000
G04 P0 ( dwell for no time -- G64 should not smooth over this point )
F300.00000
G01 X18.84027 Y58.55185
X18.95772 Y58.87855
X18.93529 Y59.34921
X18.84632 Y59.56407
X18.65909 Y59.37694
X18.70169 Y59.23595
X18.71995 Y59.05497
X18.70169 Y58.87402
X18.65912 Y58.73303
X18.84027 Y58.55185
G04 P0 ( dwell for no time -- G64 should not smooth over this point )
G00 Z1.00000 ( retract )

G00 X17.27683 Y57.99468 ( rapid move to begin. )
F150.00000
G01 Z-0.06000
G04 P0 ( dwell for no time -- G64 should not smooth over this point )
F300.00000
G01 X17.27683 Y57.99468
X17.60355 Y57.87720
X18.07421 Y57.89963
X18.28909 Y57.98863
X18.10306 Y58.17474
X17.86362 Y58.11942
X17.68173 Y58.12018
X17.45694 Y58.17471
X17.27683 Y57.99468
G04 P0 ( dwell for no time -- G64 should not smooth over this point )
G00 Z1.00000 ( retract )

G00 X16.71363 Y58.54583 ( rapid move to begin. )
F150.00000
G01 Z-0.06000
G04 P0 ( dwell for no time -- G64 should not smooth over this point )
F300.00000
G01 X16.71363 Y58.54583
X16.90088 Y58.73303
X16.85828 Y58.87402
X16.84002 Y59.05497
X16.85828 Y59.23595
X16.90083 Y59.37687
X16.71968 Y59.55810
X16.60220 Y59.23138
X16.62463 Y58.76072
X16.71363 Y58.54583
G04 P0 ( dwell for no time -- G64 should not smooth over this point )
G00 Z1.00000 ( retract )

G00 X17.27086 Y60.12132 ( rapid move to begin. )
F150.00000
G01 Z-0.06000
G04 P0 ( dwell for no time -- G64 should not smooth over this point )
F300.00000
G01 X17.27086 Y60.12132
X17.45686 Y59.93524
X17.69638 Y59.99058
X17.89270 Y59.98751
X18.10304 Y59.93526
X18.28307 Y60.11525
X17.95638 Y60.23272
X17.48572 Y60.21029
X17.27086 Y60.12132
G04 P0 ( dwell for no time -- G64 should not smooth over this point )
G00 Z1.00000 ( retract )

G00 X13.72898 Y55.73911 ( rapid move to begin. )
F150.00000
G01 Z-0.06000
G04 P0 ( dwell for no time -- G64 should not smooth over this point )
F300.00000
G01 X13.72898 Y55.73911
X13.72898 Y55.51741
X13.88847 Y55.43001
X14.04221 Y55.30179
X14.16700 Y55.14528
X14.23949 Y55.00398
X14.47211 Y55.00398
X14.37785 Y55.23154
X14.05479 Y55.58605
X13.72898 Y55.73911
G04 P0 ( dwell for no time -- G64 should not smooth over this point )
G00 Z1.00000 ( retract )

G00 X12.61519 Y55.58610 ( rapid move to begin. )
F150.00000
G01 Z-0.06000
G04 P0 ( dwell for no time -- G64 should not smooth over this point )
F300.00000
G01 X12.61519 Y55.58610
X12.29213 Y55.23161
X12.19784 Y55.00398
X12.42987 Y55.00398
X12.54407 Y55.20431
X12.67988 Y55.35135
X12.84252 Y55.46806
X12.94102 Y55.51338
X12.94102 Y55.73908
X12.61519 Y55.58610
G04 P0 ( dwell for no time -- G64 should not smooth over this point )
G00 Z1.00000 ( retract )

G00 X21.27804 Y42.79026 ( rapid move to begin. )
F150.00000
G01 Z-0.06000
G04 P0 ( dwell for no time -- G64 should not smooth over this point )
F300.00000
G01 X21.27804 Y42.79026
X21.45807 Y42.97025
X21.13138 Y43.08772
X20.66072 Y43.06529
X20.44586 Y42.97632
X20.63186 Y42.79024
X20.87138 Y42.84558
X21.06770 Y42.84251
X21.27804 Y42.79026
G04 P0 ( dwell for no time -- G64 should not smooth over this point )
G00 Z1.00000 ( retract )

G00 X20.07588 Y41.58803 ( rapid move to begin. )
F150.00000
G01 Z-0.06000
G04 P0 ( dwell for no time -- G64 should not smooth over this point )
F300.00000
G01 X20.07588 Y41.58803
X20.03328 Y41.72903
X20.01502 Y41.90997
X20.03328 Y42.09095
X20.07583 Y42.23187
X19.89468 Y42.41310
X19.77720 Y42.08638
X19.79963 Y41.61572
X19.88863 Y41.40083
X20.07588 Y41.58803
G04 P0 ( dwell for no time -- G64 should not smooth over this point )
G00 Z1.00000 ( retract )

G00 X24.88509 Y42.89003 ( rapid move to begin. )
F150.00000
G01 Z-0.06000
G04 P0 ( dwell for no time -- G64 should not smooth over this point )
F300.00000
G01 X24.88509 Y42.89003
X21.24497 Y39.24991
X21.24497 Y37.80330
X21.43724 Y37.71603
X21.58393 Y37.60851
X21.70620 Y37.47384
X21.81896 Y37.27859
X21.87669 Y37.09093
X21.89495 Y36.90996
X21.87062 Y36.70041
X21.81370 Y36.52764
X21.72340 Y36.36975
X21.57255 Y36.20221
X21.42495 Y36.09594
X21.24497 Y36.01590
X21.24497 Y35.68004
X23.61504 Y33.30997
X25.96380 Y33.30997
X26.02073 Y33.39038
X26.09850 Y33.41398
X27.26880 Y33.41129
X27.31925 Y33.39038
X27.35788 Y33.35175
X27.38148 Y33.27400
X27.37879 Y32.73867
X27.35788 Y32.68823
X27.31925 Y32.64959
X27.24150 Y32.62602
X26.09850 Y32.62602
X26.02073 Y32.64959
X25.96383 Y32.73003
X23.49500 Y32.73003
X23.42505 Y32.73892
X23.34565 Y32.77184
X20.74067 Y35.36516
X20.69297 Y35.43658
X20.66856 Y35.51705
X20.66503 Y36.01664
X20.48502 Y36.09594
X20.31568 Y36.22180
X20.18657 Y36.36975
X20.09628 Y36.52766
X20.06549 Y36.62002
X17.97718 Y36.62002
X17.87799 Y36.55746
X17.78000 Y36.54003
X14.66997 Y36.54003
X15.99504 Y35.21497
X16.88937 Y35.21497
X16.94297 Y35.35134
X17.02859 Y35.48870
X17.17893 Y35.64684
X17.33657 Y35.75309
X17.51233 Y35.82540
X17.67088 Y35.85799
X17.79415 Y35.86424
X17.98295 Y35.84217
X18.16339 Y35.78253
X18.32816 Y35.68779
X18.47052 Y35.56183
X18.56958 Y35.43384
X18.66570 Y35.23790
X18.70626 Y35.08121
X18.71873 Y34.89157
X18.68571 Y34.67588
X18.62950 Y34.52409
X18.53138 Y34.36127
X18.38104 Y34.20313
X18.22341 Y34.09688
X18.07464 Y34.03305
X17.86801 Y33.98931
X17.76583 Y33.98573
X17.57703 Y34.00781
X17.42260 Y34.05627
X17.25506 Y34.14601
X17.10898 Y34.26762
X16.99039 Y34.41614
X16.88836 Y34.63503
X15.87500 Y34.63503
X15.80505 Y34.64392
X15.72565 Y34.67684
X14.32496 Y36.06493
X14.32227 Y35.95268
X14.30137 Y35.90224
X14.26274 Y35.86361
X14.18499 Y35.84004
X12.48501 Y35.84004
X12.40724 Y35.86361
X12.36861 Y35.90224
X12.34503 Y35.98001
X12.34503 Y37.67999
X12.36861 Y37.75774
X12.40724 Y37.79637
X12.45768 Y37.81727
X14.18499 Y37.81996
X14.23853 Y37.80930
X14.30137 Y37.75774
X14.32227 Y37.70729
X14.32496 Y37.11997
X17.66280 Y37.11997
X17.76192 Y37.18248
X17.85998 Y37.19995
X20.06547 Y37.19995
X20.09628 Y37.29228
X20.18657 Y37.45019
X20.31568 Y37.59815
X20.48497 Y37.72400
X20.66503 Y37.80406
X20.66503 Y39.37000
X20.68246 Y39.46799
X20.72208 Y39.54214
X24.55995 Y43.38500
X24.61562 Y43.42811
X24.69507 Y43.46103
X41.07325 Y43.46997
X41.10363 Y43.55501
X41.19921 Y43.71447
X41.32588 Y43.85059
X41.45272 Y43.94274
X41.64914 Y44.03019
X41.81696 Y44.06506
X41.98838 Y44.06585
X42.19867 Y44.02115
X42.35496 Y43.95071
X42.51584 Y43.83100
X42.63796 Y43.69079
X42.72826 Y43.52828
X42.78051 Y43.36501
X42.79918 Y43.19460
X42.78051 Y42.99494
X42.72826 Y42.83169
X42.63796 Y42.66918
X42.51584 Y42.52897
X42.35493 Y42.40926
X42.19867 Y42.33883
X41.98838 Y42.29415
X41.81696 Y42.29491
X41.64914 Y42.32979
X41.45272 Y42.41724
X41.32588 Y42.50939
X41.19921 Y42.64551
X41.10363 Y42.80497
X41.07325 Y42.89003
X24.88509 Y42.89003
X24.93858 Y42.76093
X24.83917 Y42.68112
X21.47065 Y39.31430
X21.37405 Y39.19642
X21.35899 Y39.04483
X21.35899 Y38.13782
X21.38495 Y37.89591
X21.53719 Y37.80031
X21.64083 Y37.71174
X21.83943 Y37.49985
X21.92790 Y37.31397
X21.99879 Y37.11656
X22.00829 Y36.93663
X21.99843 Y36.70148
X21.92790 Y36.50597
X21.83813 Y36.31786
X21.68014 Y36.14450
X21.49579 Y35.97526
X21.38495 Y35.92406
X21.38495 Y35.73803
X21.58040 Y35.50587
X23.56927 Y33.51873
X23.66853 Y33.43905
X23.82015 Y33.42399
X24.77483 Y33.42399
X24.96718 Y33.44995
X25.88247 Y33.44995
X25.99136 Y33.53265
X26.09850 Y33.55396
X27.24150 Y33.55396
X27.36726 Y33.52269
X27.48150 Y33.36470
X27.50170 Y33.23783
X27.50170 Y32.80486
X27.47698 Y32.66427
X27.36698 Y32.51716
X27.29611 Y32.49140
X26.09850 Y32.48604
X25.99136 Y32.50733
X25.88247 Y32.59005
X23.49500 Y32.59005
X23.38438 Y32.60499
X23.27963 Y32.64840
X23.19096 Y32.71596
X22.60674 Y33.30019
X22.48921 Y33.45439
X20.69582 Y35.24778
X20.57860 Y35.43041
X20.52505 Y35.92403
X20.37278 Y36.01959
X20.23036 Y36.14501
X20.07974 Y36.30806
X19.96486 Y36.48004
X19.75198 Y36.50475
X18.55993 Y36.50597
X18.36727 Y36.48004
X18.02922 Y36.48004
X17.91861 Y36.42350
X17.78000 Y36.40005
X15.00792 Y36.40005
X16.05303 Y35.35495
X16.79194 Y35.35495
X16.90980 Y35.56274
X17.09895 Y35.76173
X17.28137 Y35.88174
X17.43014 Y35.94557
X17.64269 Y35.99510
X17.76578 Y36.00458
X17.96936 Y35.98713
X18.17929 Y35.92726
X18.51464 Y35.68774
X18.65541 Y35.50026
X18.74365 Y35.35218
X18.80652 Y35.10717
X18.82963 Y34.89719
X18.79537 Y34.68756
X18.74421 Y34.49749
X18.62397 Y34.30359
X18.51434 Y34.16242
X18.31294 Y34.01764
X18.12166 Y33.92353
X17.77997 Y33.86074
X17.38323 Y33.93905
X17.20047 Y34.04768
X17.04530 Y34.16221
X16.79260 Y34.49505
X16.59303 Y34.52099
X15.91239 Y34.52099
X15.70040 Y34.56727
X15.56276 Y34.66584
X14.59939 Y35.62921
X14.39509 Y35.79685
X14.36073 Y35.76384
X14.15090 Y35.71977
X12.52370 Y35.71977
X12.38529 Y35.74385
X12.30125 Y35.80127
X12.24493 Y35.88929
X12.22477 Y36.01598
X12.22865 Y37.67996
X12.24882 Y37.77963
X12.30627 Y37.86370
X12.39426 Y37.92002
X12.55822 Y37.95994
X14.11196 Y37.95994
X14.28466 Y37.91613
X14.36870 Y37.85867
X14.42502 Y37.77066
X14.46494 Y37.45271
X14.46494 Y37.25995
X14.63926 Y37.25995
X14.80739 Y37.23521
X17.52905 Y37.23399
X17.61703 Y37.24016
X17.73042 Y37.28636
X17.89750 Y37.31397
X19.72716 Y37.31397
X19.96481 Y37.33993
X20.07959 Y37.51196
X20.23039 Y37.67493
X20.37517 Y37.80213
X20.52505 Y37.89589
X20.54974 Y38.11298
X20.55096 Y39.33231
X20.58513 Y39.52314
X20.65688 Y39.63375
X21.21725 Y40.20358
X21.33862 Y40.36164
X22.50730 Y41.53032
X22.64253 Y41.63052
X24.45268 Y43.43903
X24.59037 Y43.53768
X24.66401 Y43.56351
X24.80252 Y43.58399
X40.73629 Y43.58399
X40.97475 Y43.60995
X41.07538 Y43.75234
X41.21892 Y43.90774
X41.34846 Y44.02198
X41.43035 Y44.06455
X41.71353 Y44.17243
X41.98836 Y44.18188
X42.10817 Y44.17207
X42.38960 Y44.06445
X42.47297 Y44.02094
X42.60108 Y43.90776
X42.75252 Y43.74190
X42.81617 Y43.61261
X42.90428 Y43.37677
X42.91330 Y43.20659
X42.90395 Y42.98137
X42.81614 Y42.74736
X42.75158 Y42.61655
X42.70911 Y42.56595
X42.56232 Y42.41546
X42.43832 Y42.31940
X42.19522 Y42.21505
X42.10639 Y42.18752
X41.98836 Y42.17800
X41.71175 Y42.18790
X41.43037 Y42.29550
X41.34698 Y42.33901
X41.21887 Y42.45219
X41.07541 Y42.60766
X40.97477 Y42.75005
X40.73665 Y42.77599
X25.09015 Y42.77599
X24.93858 Y42.76093
G04 P0 ( dwell for no time -- G64 should not smooth over this point )
G00 Z1.00000 ( retract )

G00 X25.39911 Y40.31722 ( rapid move to begin. )
F150.00000
G01 Z-0.06000
G04 P0 ( dwell for no time -- G64 should not smooth over this point )
F300.00000
G01 X25.39911 Y40.31722
X24.98829 Y40.48780
X24.54369 Y40.48818
X24.13249 Y40.31833
X23.81771 Y40.00411
X23.64712 Y39.59329
X23.64674 Y39.14869
X23.81656 Y38.73751
X24.17750 Y38.37539
X24.24176 Y38.24862
X24.24692 Y34.95134
X24.29119 Y34.72876
X24.41735 Y34.53994
X24.99296 Y33.95873
X25.02393 Y33.90075
X25.04181 Y33.80499
X25.02393 Y33.70918
X24.97282 Y33.62637
X24.87696 Y33.55830
X24.80208 Y33.54067
X23.82015 Y33.53801
X23.74425 Y33.55033
X23.65068 Y33.60029
X21.66094 Y35.58657
X21.59574 Y35.69711
X21.58782 Y35.82764
X21.62754 Y35.92360
X21.94443 Y36.24710
X22.12279 Y36.67663
X22.12320 Y37.14115
X21.94573 Y37.57071
X21.61350 Y37.90356
X21.54631 Y37.95413
X21.49325 Y38.03574
X21.47301 Y38.13782
X21.47567 Y39.07208
X21.49330 Y39.14696
X21.55124 Y39.23363
X24.92063 Y42.59958
X24.97557 Y42.63578
X25.09015 Y42.66197
X40.73665 Y42.66197
X40.83891 Y42.64157
X40.90434 Y42.60103
X41.27581 Y42.23271
X41.68663 Y42.06212
X42.13123 Y42.06174
X42.54243 Y42.23159
X42.85722 Y42.54581
X43.02780 Y42.95663
X43.02818 Y43.40123
X42.85833 Y43.81243
X42.54411 Y44.12722
X42.13329 Y44.29780
X41.68869 Y44.29818
X41.27751 Y44.12836
X40.90431 Y43.75917
X40.83873 Y43.71843
X40.73629 Y43.69801
X24.79139 Y43.69801
X24.56876 Y43.65374
X24.38004 Y43.52765
X22.51687 Y41.68224
X22.44646 Y41.65521
X22.34443 Y41.65361
X22.23813 Y41.69814
X22.16244 Y41.78137
X22.12462 Y41.90373
X22.11029 Y42.20421
X22.02132 Y42.41907
X21.83409 Y42.23194
X21.92769 Y42.10497
X21.96465 Y42.01635
X21.97859 Y41.88386
X21.96084 Y41.78943
X21.91974 Y41.70274
X21.84370 Y41.61747
X21.81370 Y41.52765
X21.72340 Y41.36977
X21.59429 Y41.22181
X21.41192 Y41.08930
X21.24542 Y41.01602
X21.06770 Y40.97746
X20.85673 Y40.97518
X20.63191 Y41.02971
X20.45183 Y40.84968
X20.77855 Y40.73218
X20.97456 Y40.73830
X21.08205 Y40.70370
X21.14027 Y40.65758
X21.18571 Y40.59349
X21.21154 Y40.50505
X21.21217 Y40.43794
X21.19249 Y40.36629
X21.13661 Y40.28422
X20.60732 Y39.75494
X20.48124 Y39.56621
X20.43692 Y39.34356
X20.43448 Y38.11321
X20.42384 Y38.05989
X20.36785 Y37.95954
X19.96133 Y37.56843
X19.91091 Y37.50140
X19.82925 Y37.44829
X19.72716 Y37.42802
X17.88638 Y37.42802
X17.52915 Y37.34801
X14.78026 Y37.35314
X14.67307 Y37.40114
X14.59870 Y37.48857
X14.56812 Y37.58771
X14.53545 Y37.81455
X14.45377 Y37.94145
X14.33088 Y38.02545
X14.18179 Y38.07546
X14.10907 Y38.14671
X14.06830 Y38.23998
X14.06543 Y38.34168
X14.10063 Y38.43680
X14.37762 Y38.74790
X14.47211 Y38.97602
X14.24013 Y38.97602
X14.10858 Y38.75329
X13.96860 Y38.61016
X13.80266 Y38.49817
X13.61760 Y38.42187
X13.34209 Y38.38021
X13.12200 Y38.40386
X12.93188 Y38.46650
X12.78151 Y38.54996
X12.62776 Y38.67818
X12.50297 Y38.83470
X12.43046 Y38.97602
X12.19779 Y38.97602
X12.29208 Y38.74839
X12.55296 Y38.45827
X12.58753 Y38.39855
X12.60610 Y38.30462
X12.58329 Y38.19124
X12.52911 Y38.11219
X12.45994 Y38.06317
X12.35032 Y38.03040
X12.22347 Y37.94877
X12.13947 Y37.82588
X12.10452 Y37.65334
X12.10452 Y36.00475
X12.13449 Y35.84532
X12.21616 Y35.71847
X12.33904 Y35.63447
X12.51158 Y35.59952
X14.16131 Y35.59952
X14.33322 Y35.62675
X14.43314 Y35.60602
X14.51874 Y35.54857
X15.48999 Y34.57732
X15.67871 Y34.45124
X15.90114 Y34.40697
X16.59303 Y34.40697
X16.68877 Y34.38911
X16.79763 Y34.30946
X16.95773 Y34.07466
X17.33497 Y33.82259
X17.77997 Y33.73404
X18.22491 Y33.82254
X18.60215 Y34.07461
X18.85422 Y34.45187
X18.94802 Y34.92327
X18.85427 Y35.39800
X18.60217 Y35.77526
X18.41106 Y35.90300
X18.33032 Y35.98845
X18.29245 Y36.12495
X18.31025 Y36.22070
X18.34558 Y36.28431
X18.45719 Y36.37161
X18.55970 Y36.39195
X19.79211 Y36.38347
X19.91065 Y36.31832
X19.95980 Y36.25360
X20.39201 Y35.83038
X20.43158 Y35.73539
X20.43671 Y35.58741
X20.48119 Y35.36376
X20.60727 Y35.17504
X22.40857 Y33.37375
X22.46648 Y33.28708
X22.48675 Y33.18490
X22.45345 Y33.05848
X22.40844 Y32.99605
X22.34595 Y32.95117
X22.21956 Y32.91802
X21.99378 Y32.91820
X21.56422 Y32.74073
X21.23534 Y32.41246
X21.05713 Y31.98330
X21.05668 Y31.51314
X21.06849 Y31.42981
X21.04832 Y31.33461
X20.99046 Y31.24807
X20.56732 Y30.82493
X20.44123 Y30.63621
X20.39694 Y30.41360
X20.39178 Y28.48105
X20.32785 Y28.35453
X20.02300 Y28.06494
X19.93588 Y28.00695
X19.79460 Y27.99024
X19.68454 Y28.03291
X19.61111 Y28.10749
X19.56539 Y28.23967
X19.48383 Y28.36644
X19.36102 Y28.45034
X19.07357 Y28.51869
X19.01119 Y28.56362
X18.95330 Y28.65023
X18.93301 Y28.75242
X18.93301 Y30.53352
X18.88874 Y30.75615
X18.76262 Y30.94492
X18.45983 Y31.24771
X18.40194 Y31.33433
X18.38180 Y31.42963
X18.39321 Y31.98114
X18.21574 Y32.41070
X17.88747 Y32.73958
X17.45828 Y32.91777
X16.99379 Y32.91820
X16.56420 Y32.74073
X16.23131 Y32.40842
X16.18082 Y32.34134
X16.07292 Y32.28030
X15.99715 Y32.26801
X14.83243 Y32.26801
X14.73025 Y32.28830
X14.62623 Y32.36737
X14.57777 Y32.45909
X14.53545 Y32.73455
X14.45377 Y32.86145
X14.33088 Y32.94545
X14.15809 Y32.98045
X12.50991 Y32.98045
X12.35037 Y32.95045
X12.22347 Y32.86877
X12.13947 Y32.74588
X12.10452 Y32.57334
X12.10452 Y30.92475
X12.13449 Y30.76532
X12.21616 Y30.63847
X12.33904 Y30.55447
X12.41974 Y30.53550
X12.50899 Y30.48765
X12.57391 Y30.40977
X12.60798 Y30.28249
X12.59134 Y30.18869
X12.55446 Y30.12326
X12.29213 Y29.83159
X12.19784 Y29.60398
X12.42987 Y29.60398
X12.56139 Y29.82669
X12.70137 Y29.96982
X12.86731 Y30.08180
X13.05237 Y30.15811
X13.32789 Y30.19976
X13.54798 Y30.17611
X13.73810 Y30.11348
X13.88847 Y30.03001
X14.04221 Y29.90179
X14.16700 Y29.74528
X14.23949 Y29.60398
X14.47211 Y29.60398
X14.37767 Y29.83194
X14.10205 Y30.14162
X14.06688 Y30.23743
X14.06680 Y30.31307
X14.09873 Y30.40997
X14.16474 Y30.48765
X14.20993 Y30.51670
X14.31961 Y30.54952
X14.44645 Y30.63116
X14.53045 Y30.75404
X14.57777 Y31.04083
X14.63888 Y31.14878
X14.70833 Y31.19989
X14.80764 Y31.22950
X16.02146 Y31.22950
X16.07502 Y31.21884
X16.17538 Y31.16285
X16.56245 Y30.76034
X16.99163 Y30.58213
X17.56296 Y30.59120
X17.62727 Y30.57799
X17.71757 Y30.52397
X17.83608 Y30.40276
X17.88457 Y30.31076
X17.89694 Y30.23459
X17.89179 Y28.70020
X17.84378 Y28.59306
X17.75635 Y28.51869
X17.67896 Y28.48999
X17.47957 Y28.45496
X17.35348 Y28.37383
X17.26951 Y28.25090
X17.23454 Y28.07830
X17.23454 Y26.52974
X17.26453 Y26.37025
X17.34609 Y26.24348
X17.46903 Y26.15951
X17.64162 Y26.12453
X19.19018 Y26.12453
X19.34967 Y26.15453
X19.47642 Y26.23607
X19.56044 Y26.35905
X19.57903 Y26.43721
X19.62854 Y26.52809
X19.71863 Y26.59906
X19.83311 Y26.62497
X19.93511 Y26.60454
X20.00042 Y26.56406
X20.25246 Y26.31534
X20.68165 Y26.13716
X21.14613 Y26.13673
X21.57570 Y26.31420
X21.90458 Y26.64247
X22.08279 Y27.07162
X22.08322 Y27.53614
X21.90575 Y27.96570
X21.57346 Y28.29857
X21.50641 Y28.34899
X21.45607 Y28.42438
X21.43694 Y28.48750
X21.43694 Y30.16006
X21.45607 Y30.22321
X21.51118 Y30.30357
X21.74395 Y30.53253
X21.80938 Y30.57299
X21.90473 Y30.59313
X22.45614 Y30.58173
X22.88570 Y30.75920
X23.21855 Y31.09143
X23.26899 Y31.15848
X23.35058 Y31.21160
X23.45296 Y31.23194
X25.53178 Y31.22948
X25.65517 Y31.18696
X25.73586 Y31.10151
X25.76987 Y31.01022
X25.75583 Y30.87398
X26.44772 Y30.87398
X26.54297 Y30.89397
X26.81084 Y30.89326
X26.89220 Y30.87398
X27.58183 Y30.87398
X27.50381 Y31.02531
X27.48631 Y31.12183
X27.50706 Y31.22343
X27.58666 Y31.34883
X27.62194 Y31.52287
X27.62194 Y31.97890
X27.59192 Y32.13865
X27.50767 Y32.27525
X27.48333 Y32.38950
X27.50436 Y32.48980
X27.58669 Y32.61888
X27.62194 Y32.79287
X27.62194 Y33.24890
X27.59192 Y33.40865
X27.50767 Y33.54525
X27.48333 Y33.65950
X27.50436 Y33.75980
X27.58669 Y33.88888
X27.62194 Y34.06287
X27.62194 Y34.51890
X27.59189 Y34.67867
X27.51033 Y34.80544
X27.38740 Y34.88941
X27.21455 Y34.92444
X26.12354 Y34.92444
X25.96378 Y34.89442
X25.80140 Y34.81278
X25.67968 Y34.81197
X25.61669 Y34.83107
X25.53635 Y34.88619
X25.34379 Y35.08253
X25.29144 Y35.18479
X25.28694 Y38.24196
X25.30612 Y38.30516
X25.36134 Y38.38557
X25.71222 Y38.73581
X25.88280 Y39.14663
X25.88318 Y39.59123
X25.71333 Y40.00243
X25.39911 Y40.31722
X25.32797 Y40.21094
X25.10056 Y40.31640
X24.96317 Y40.36207
X24.63279 Y40.36916
X24.47976 Y40.33492
X24.20341 Y40.21196
X24.07389 Y40.09776
X23.92337 Y39.93337
X23.77100 Y39.56855
X23.76167 Y39.39659
X23.77067 Y39.17318
X23.92241 Y38.80810
X24.07389 Y38.64224
X24.29058 Y38.45832
X24.33437 Y38.39340
X24.34956 Y38.32314
X24.36099 Y34.96249
X24.38143 Y34.82393
X24.40727 Y34.75040
X24.50607 Y34.61248
X25.06142 Y34.05546
X25.15944 Y33.93445
X25.18179 Y33.80499
X25.17638 Y33.75033
X25.13901 Y33.62434
X25.08103 Y33.53758
X24.97130 Y33.45078
X24.82479 Y33.42643
X23.82015 Y33.42399
X23.66853 Y33.43905
X23.56927 Y33.51873
X21.58040 Y35.50587
X21.49894 Y35.60333
X21.45048 Y35.69612
X21.45053 Y35.85502
X21.49897 Y35.97859
X21.79503 Y36.26615
X21.83813 Y36.31786
X21.90681 Y36.45698
X21.99843 Y36.70148
X22.00829 Y36.93663
X21.99879 Y37.11656
X21.92790 Y37.31397
X21.83943 Y37.49985
X21.64083 Y37.71174
X21.42945 Y37.87696
X21.38578 Y37.94128
X21.35899 Y38.13782
X21.35899 Y39.04483
X21.37405 Y39.19642
X21.47065 Y39.31430
X24.89665 Y42.73065
X24.93858 Y42.76093
X25.09015 Y42.77599
X40.73665 Y42.77599
X40.93309 Y42.74917
X40.98219 Y42.71736
X41.25760 Y42.41538
X41.34698 Y42.33901
X41.43037 Y42.29550
X41.71175 Y42.18790
X41.98836 Y42.17800
X42.10639 Y42.18752
X42.19522 Y42.21505
X42.47152 Y42.33796
X42.60108 Y42.45221
X42.75158 Y42.61655
X42.90395 Y42.98137
X42.90428 Y43.37677
X42.75252 Y43.74190
X42.56235 Y43.94457
X42.47297 Y44.02094
X42.24556 Y44.12640
X42.10817 Y44.17207
X41.98836 Y44.18188
X41.71353 Y44.17243
X41.43035 Y44.06455
X41.34846 Y44.02198
X41.25768 Y43.94449
X40.98232 Y43.64294
X40.93286 Y43.61086
X40.73629 Y43.58399
X24.80252 Y43.58399
X24.71138 Y43.57294
X24.61179 Y43.54980
X24.45268 Y43.43903
X22.56561 Y41.56728
X22.47542 Y41.51828
X22.31987 Y41.51582
X22.18626 Y41.56502
X22.06495 Y41.67721
X21.96468 Y41.53687
X21.84461 Y41.29976
X21.65485 Y41.08900
X21.46884 Y40.96141
X21.31604 Y40.89339
X21.11151 Y40.84368
X21.20496 Y40.78790
X21.30742 Y40.66261
X21.35416 Y40.49349
X21.34138 Y40.37104
X21.21725 Y40.20358
X20.69584 Y39.68219
X20.58513 Y39.52314
X20.55096 Y39.33231
X20.54974 Y38.11298
X20.52434 Y37.94100
X20.48043 Y37.87605
X20.23039 Y37.67493
X20.07959 Y37.51196
X19.98574 Y37.38275
X19.92368 Y37.34079
X19.72716 Y37.31397
X17.89750 Y37.31397
X17.73042 Y37.28636
X17.61703 Y37.24016
X17.52905 Y37.23399
X14.70614 Y37.24529
X14.63284 Y37.26172
X14.58427 Y37.29294
X14.48232 Y37.41080
X14.45257 Y37.51425
X14.42502 Y37.77066
X14.36870 Y37.85867
X14.28466 Y37.91613
X14.09771 Y37.96426
X13.99383 Y38.06721
X13.93170 Y38.20942
X13.92370 Y38.31100
X13.94313 Y38.42189
X13.85786 Y38.36952
X13.64577 Y38.28476
X13.34920 Y38.24041
X13.08011 Y38.27031
X12.91603 Y38.32177
X12.72781 Y38.41968
X12.74544 Y38.27292
X12.72827 Y38.18539
X12.68448 Y38.08725
X12.63078 Y38.01600
X12.56401 Y37.96152
X12.39426 Y37.92002
X12.30627 Y37.86370
X12.24882 Y37.77963
X12.22865 Y37.67996
X12.22477 Y36.01598
X12.24493 Y35.88929
X12.30125 Y35.80127
X12.38529 Y35.74385
X12.52370 Y35.71977
X14.15090 Y35.71977
X14.36103 Y35.76391
X14.44173 Y35.74920
X14.59939 Y35.62921
X15.56276 Y34.66584
X15.72179 Y34.55515
X15.91239 Y34.52099
X16.59303 Y34.52099
X16.79070 Y34.49508
X17.04530 Y34.16221
X17.20047 Y34.04768
X17.38323 Y33.93905
X17.77997 Y33.86074
X18.17609 Y33.94042
X18.48803 Y34.14027
X18.59440 Y34.26252
X18.73740 Y34.48413
X18.79537 Y34.68756
X18.83166 Y34.92495
X18.80652 Y35.10717
X18.74365 Y35.35218
X18.65541 Y35.50026
X18.51464 Y35.68774
X18.22826 Y35.89939
X18.17845 Y35.98212
X18.15782 Y36.07041
X18.15782 Y36.17948
X18.17845 Y36.26785
X18.23738 Y36.37310
X18.36290 Y36.47915
X18.50934 Y36.50351
X19.75198 Y36.50475
X19.92318 Y36.47940
X19.98599 Y36.43660
X20.07974 Y36.30806
X20.23036 Y36.14501
X20.50842 Y35.90811
X20.53968 Y35.80836
X20.55467 Y35.56000
X20.58513 Y35.40681
X20.69582 Y35.24778
X22.48921 Y33.45439
X22.60912 Y33.29656
X22.62673 Y33.18485
X22.61166 Y33.08167
X22.56980 Y32.98066
X22.50735 Y32.89701
X22.42363 Y32.83471
X22.36536 Y32.81253
X22.01875 Y32.79181
X21.72028 Y32.67804
X21.63547 Y32.63384
X21.53917 Y32.55167
X21.34149 Y32.34141
X21.25205 Y32.15399
X21.18152 Y31.95846
X21.17166 Y31.72333
X21.20570 Y31.40179
X21.19109 Y31.32531
X21.07110 Y31.16743
X20.65584 Y30.75219
X20.55716 Y30.61439
X20.53143 Y30.54091
X20.51096 Y30.40240
X20.50974 Y28.50815
X20.48434 Y28.33599
X20.44047 Y28.27109
X20.22917 Y28.10667
X19.98909 Y27.87749
X19.88741 Y27.85212
X19.78025 Y27.85100
X19.60601 Y27.91704
X19.49963 Y28.02382
X19.45500 Y28.19573
X19.39874 Y28.28366
X19.31497 Y28.34096
X19.02259 Y28.38795
X18.91221 Y28.46464
X18.84578 Y28.55587
X18.81899 Y28.75242
X18.81899 Y30.52242
X18.78480 Y30.71312
X18.67411 Y30.87218
X18.37919 Y31.16707
X18.25925 Y31.32496
X18.24454 Y31.40230
X18.27825 Y31.72333
X18.26877 Y31.95655
X18.19788 Y32.15399
X18.10944 Y32.33984
X17.94957 Y32.51495
X17.81597 Y32.63280
X17.52570 Y32.76262
X17.36242 Y32.79889
X17.01876 Y32.79181
X16.72026 Y32.67804
X16.63545 Y32.63384
X16.53916 Y32.55167
X16.38516 Y32.39361
X16.25570 Y32.22269
X16.19364 Y32.18078
X15.99715 Y32.15399
X14.83243 Y32.15399
X14.63591 Y32.18076
X14.50985 Y32.28960
X14.46799 Y32.35759
X14.42502 Y32.69066
X14.36870 Y32.77867
X14.28466 Y32.83613
X14.14610 Y32.86021
X12.52111 Y32.86021
X12.39426 Y32.84002
X12.30627 Y32.78370
X12.24882 Y32.69963
X12.22477 Y32.56123
X12.22812 Y30.89999
X12.24493 Y30.80929
X12.30125 Y30.72127
X12.38529 Y30.66385
X12.57221 Y30.61569
X12.67610 Y30.51269
X12.74280 Y30.34416
X12.74793 Y30.27975
X12.72751 Y30.15856
X12.81212 Y30.21046
X13.02421 Y30.29521
X13.32078 Y30.33956
X13.58986 Y30.30967
X13.75395 Y30.25821
X13.94363 Y30.15948
X13.92527 Y30.26903
X13.93388 Y30.37129
X13.99751 Y30.51391
X14.10213 Y30.61571
X14.27566 Y30.65993
X14.36365 Y30.71622
X14.42110 Y30.80027
X14.45257 Y31.06570
X14.48232 Y31.16913
X14.58427 Y31.28698
X14.63291 Y31.31823
X14.70614 Y31.33466
X16.02146 Y31.34477
X16.17259 Y31.32478
X16.25529 Y31.27840
X16.38524 Y31.10644
X16.63395 Y30.86715
X16.87393 Y30.75589
X17.01688 Y30.70852
X17.14137 Y30.69821
X17.36247 Y30.70093
X17.57665 Y30.73016
X17.64929 Y30.71759
X17.81033 Y30.59326
X17.99593 Y30.38635
X18.01099 Y30.23441
X18.00974 Y28.72720
X17.98325 Y28.55293
X17.90779 Y28.45516
X17.80751 Y28.38722
X17.52280 Y28.34429
X17.43626 Y28.28874
X17.37886 Y28.20469
X17.35478 Y28.06621
X17.35478 Y26.54097
X17.37495 Y26.41422
X17.43121 Y26.32629
X17.51523 Y26.26886
X17.65371 Y26.24478
X19.21500 Y26.24813
X19.30570 Y26.26495
X19.39366 Y26.32118
X19.45112 Y26.40526
X19.49966 Y26.59083
X19.59615 Y26.68908
X19.69059 Y26.73927
X19.83336 Y26.76495
X20.00253 Y26.72646
X20.32396 Y26.42215
X20.56394 Y26.31089
X20.70687 Y26.26352
X21.05249 Y26.25595
X21.21568 Y26.29243
X21.41972 Y26.37691
X21.50445 Y26.42108
X21.60079 Y26.50330
X21.79846 Y26.71351
X21.88789 Y26.90099
X21.95843 Y27.09647
X21.95878 Y27.51155
X21.86686 Y27.75801
X21.79945 Y27.89484
X21.75469 Y27.94851
X21.60082 Y28.10673
X21.37735 Y28.28747
X21.34558 Y28.33616
X21.32020 Y28.50802
X21.32020 Y30.13959
X21.33404 Y30.26639
X21.43054 Y30.38422
X21.71776 Y30.66100
X21.80001 Y30.71571
X21.87387 Y30.72999
X22.08751 Y30.70106
X22.30862 Y30.69814
X22.43117 Y30.70812
X22.57598 Y30.75595
X22.81446 Y30.86608
X23.06480 Y31.10636
X23.20742 Y31.28752
X23.25629 Y31.31914
X23.40272 Y31.34352
X25.53190 Y31.34474
X25.70630 Y31.31756
X25.77544 Y31.26844
X25.87104 Y31.14558
X25.90957 Y31.01396
X26.42222 Y31.01396
X26.54297 Y31.03395
X26.82471 Y31.03255
X26.91768 Y31.01396
X27.36223 Y31.01396
X27.34633 Y31.12267
X27.36218 Y31.22643
X27.47693 Y31.39415
X27.50170 Y31.53486
X27.49832 Y32.00400
X27.48150 Y32.09470
X27.36576 Y32.25444
X27.34338 Y32.39140
X27.36687 Y32.51703
X27.47698 Y32.66427
X27.50170 Y32.80486
X27.49832 Y33.27400
X27.48150 Y33.36470
X27.36576 Y33.52444
X27.34338 Y33.66140
X27.36687 Y33.78703
X27.47698 Y33.93427
X27.49781 Y34.03600
X27.50170 Y34.50783
X27.48150 Y34.63473
X27.42524 Y34.72266
X27.34119 Y34.78009
X27.20259 Y34.80420
X26.13459 Y34.80420
X26.00772 Y34.78400
X25.87351 Y34.70460
X25.69982 Y34.69521
X25.57353 Y34.70905
X25.45573 Y34.80557
X25.18405 Y35.09853
X25.17021 Y35.22536
X25.17582 Y38.29718
X25.19558 Y38.39324
X25.24277 Y38.46068
X25.45608 Y38.64221
X25.60658 Y38.80655
X25.75895 Y39.17137
X25.76827 Y39.34338
X25.75928 Y39.56677
X25.60752 Y39.93190
X25.45608 Y40.09776
X25.32797 Y40.21094
G04 P0 ( dwell for no time -- G64 should not smooth over this point )
G00 Z1.00000 ( retract )

G00 X27.62804 Y37.71026 ( rapid move to begin. )
F150.00000
G01 Z-0.06000
G04 P0 ( dwell for no time -- G64 should not smooth over this point )
F300.00000
G01 X27.62804 Y37.71026
X27.80807 Y37.89025
X27.48138 Y38.00772
X27.01072 Y37.98529
X26.79586 Y37.89632
X26.98186 Y37.71024
X27.22138 Y37.76558
X27.41770 Y37.76251
X27.62804 Y37.71026
G04 P0 ( dwell for no time -- G64 should not smooth over this point )
G00 Z1.00000 ( retract )

G00 X28.18412 Y36.50803 ( rapid move to begin. )
F150.00000
G01 Z-0.06000
G04 P0 ( dwell for no time -- G64 should not smooth over this point )
F300.00000
G01 X28.18412 Y36.50803
X28.36525 Y36.32685
X28.48270 Y36.65355
X28.46029 Y37.12421
X28.37132 Y37.33907
X28.18409 Y37.15194
X28.22669 Y37.01095
X28.24495 Y36.82997
X28.22669 Y36.64902
X28.18412 Y36.50803
G04 P0 ( dwell for no time -- G64 should not smooth over this point )
G00 Z1.00000 ( retract )

G00 X26.80183 Y35.76968 ( rapid move to begin. )
F150.00000
G01 Z-0.06000
G04 P0 ( dwell for no time -- G64 should not smooth over this point )
F300.00000
G01 X26.80183 Y35.76968
X27.12855 Y35.65220
X27.59921 Y35.67463
X27.81409 Y35.76363
X27.62806 Y35.94974
X27.38862 Y35.89442
X27.20673 Y35.89518
X26.98194 Y35.94971
X26.80183 Y35.76968
G04 P0 ( dwell for no time -- G64 should not smooth over this point )
G00 Z1.00000 ( retract )

G00 X26.23863 Y36.32083 ( rapid move to begin. )
F150.00000
G01 Z-0.06000
G04 P0 ( dwell for no time -- G64 should not smooth over this point )
F300.00000
G01 X26.23863 Y36.32083
X26.42588 Y36.50803
X26.38328 Y36.64902
X26.36502 Y36.82997
X26.38328 Y37.01095
X26.42583 Y37.15187
X26.24468 Y37.33310
X26.12720 Y37.00638
X26.14963 Y36.53572
X26.23863 Y36.32083
G04 P0 ( dwell for no time -- G64 should not smooth over this point )
G00 Z1.00000 ( retract )

G00 X25.52004 Y34.57997 ( rapid move to begin. )
F150.00000
G01 Z-0.06000
G04 P0 ( dwell for no time -- G64 should not smooth over this point )
F300.00000
G01 X25.52004 Y34.57997
X25.96380 Y34.57997
X26.02073 Y34.66038
X26.09850 Y34.68398
X27.24150 Y34.68398
X27.29504 Y34.67331
X27.35788 Y34.62175
X27.37879 Y34.57131
X27.37081 Y33.98243
X27.31925 Y33.91959
X27.24150 Y33.89602
X26.09850 Y33.89602
X26.02073 Y33.91959
X25.96383 Y34.00003
X25.33005 Y34.00892
X25.25065 Y34.04184
X25.19495 Y34.08495
X24.55995 Y34.71995
X24.50297 Y34.80158
X24.47503 Y34.92500
X24.47503 Y38.52939
X24.32002 Y38.59926
X24.18088 Y38.69939
X24.03701 Y38.85918
X23.94671 Y39.02169
X23.89825 Y39.17079
X23.87580 Y39.38461
X23.89447 Y39.55501
X23.94671 Y39.71828
X24.03701 Y39.88079
X24.15913 Y40.02100
X24.33307 Y40.14737
X24.48997 Y40.21640
X24.67196 Y40.25506
X24.84338 Y40.25585
X25.03998 Y40.21640
X25.20996 Y40.14071
X25.36048 Y40.03137
X25.47577 Y39.90447
X25.57135 Y39.74501
X25.63551 Y39.55501
X25.65418 Y39.38461
X25.63172 Y39.17079
X25.58326 Y39.02169
X25.49296 Y38.85918
X25.34910 Y38.69939
X25.20993 Y38.59926
X25.05497 Y38.52941
X25.05497 Y35.04504
X25.52004 Y34.57997
X25.57353 Y34.70905
X25.69982 Y34.69521
X25.87351 Y34.70460
X26.00772 Y34.78400
X26.09850 Y34.80082
X27.20259 Y34.80420
X27.34119 Y34.78009
X27.42524 Y34.72266
X27.48150 Y34.63473
X27.49832 Y34.54400
X27.50170 Y34.07486
X27.47698 Y33.93427
X27.36698 Y33.78716
X27.24150 Y33.75604
X26.09850 Y33.75604
X25.99136 Y33.77733
X25.88247 Y33.86005
X25.40000 Y33.86005
X25.28938 Y33.87499
X25.15834 Y33.93595
X25.06142 Y34.05546
X24.50607 Y34.61248
X24.39513 Y34.77181
X24.36099 Y34.96249
X24.35974 Y38.22134
X24.33505 Y38.43848
X24.26254 Y38.47920
X24.11265 Y38.60546
X23.92241 Y38.80810
X23.77067 Y39.17318
X23.76167 Y39.39659
X23.77100 Y39.56855
X23.83777 Y39.75369
X23.93028 Y39.94239
X24.20341 Y40.21196
X24.42944 Y40.31638
X24.56853 Y40.36243
X24.96317 Y40.36207
X25.10056 Y40.31640
X25.32797 Y40.21094
X25.45608 Y40.09776
X25.60752 Y39.93190
X25.75928 Y39.56677
X25.75895 Y39.17137
X25.67114 Y38.93736
X25.60658 Y38.80655
X25.45608 Y38.64221
X25.26759 Y38.47950
X25.19495 Y38.43853
X25.17021 Y38.22144
X25.17579 Y35.14976
X25.18405 Y35.09853
X25.24694 Y35.01781
X25.45573 Y34.80557
X25.57353 Y34.70905
G04 P0 ( dwell for no time -- G64 should not smooth over this point )
G00 Z1.00000 ( retract )

G00 X23.11448 Y32.03997 ( rapid move to begin. )
F150.00000
G01 Z-0.06000
G04 P0 ( dwell for no time -- G64 should not smooth over this point )
F300.00000
G01 X23.11448 Y32.03997
X25.96380 Y32.03997
X26.02073 Y32.12038
X26.09850 Y32.14398
X27.26880 Y32.14129
X27.34046 Y32.10296
X27.37879 Y32.03130
X27.37879 Y31.46867
X27.35788 Y31.41823
X27.31925 Y31.37959
X27.24150 Y31.35602
X26.09850 Y31.35602
X26.02073 Y31.37959
X25.96383 Y31.46003
X23.11451 Y31.46003
X23.08370 Y31.36765
X22.99340 Y31.20977
X22.86429 Y31.06181
X22.69495 Y30.93596
X22.52911 Y30.86128
X22.33770 Y30.81746
X22.12673 Y30.81518
X21.93453 Y30.85602
X21.80013 Y30.91503
X21.20496 Y30.31990
X21.20496 Y28.19832
X21.38495 Y28.11902
X21.54392 Y28.00353
X21.66620 Y27.86885
X21.76704 Y27.70038
X21.83061 Y27.51455
X21.85419 Y27.31963
X21.83061 Y27.09542
X21.77369 Y26.92265
X21.66620 Y26.74112
X21.53255 Y26.59723
X21.37192 Y26.48430
X21.20542 Y26.41102
X20.99861 Y26.36942
X20.80227 Y26.37246
X20.62452 Y26.41102
X20.45807 Y26.48430
X20.27568 Y26.61681
X20.14657 Y26.76477
X20.05627 Y26.92268
X19.99328 Y27.12402
X19.97502 Y27.30497
X19.99328 Y27.48595
X20.05627 Y27.68730
X20.16376 Y27.86885
X20.29742 Y28.01275
X20.43270 Y28.11104
X20.62503 Y28.19908
X20.62503 Y30.43999
X20.64245 Y30.53799
X20.70994 Y30.64500
X21.39003 Y31.32503
X21.30328 Y31.56902
X21.28502 Y31.74997
X21.30936 Y31.95955
X21.36628 Y32.13230
X21.45657 Y32.29021
X21.58568 Y32.43816
X21.74270 Y32.55604
X21.93453 Y32.64395
X22.12673 Y32.68480
X22.30862 Y32.68558
X22.51542 Y32.64395
X22.69495 Y32.56402
X22.86429 Y32.43816
X22.99340 Y32.29021
X23.08370 Y32.13230
X23.11448 Y32.03997
X23.21512 Y32.17995
X25.88247 Y32.17995
X25.99136 Y32.26265
X26.09850 Y32.28396
X27.29611 Y32.27857
X27.36726 Y32.25269
X27.48150 Y32.09470
X27.50170 Y31.96783
X27.49781 Y31.49600
X27.47693 Y31.39415
X27.36896 Y31.24822
X27.24150 Y31.21604
X26.09850 Y31.21604
X25.99136 Y31.23733
X25.88247 Y31.32005
X25.69820 Y31.32005
X25.53190 Y31.34474
X23.35317 Y31.33862
X23.21517 Y31.32005
X23.10036 Y31.14799
X22.91080 Y30.94830
X22.81446 Y30.86608
X22.57598 Y30.75595
X22.43117 Y30.70812
X22.30862 Y30.69814
X22.08751 Y30.70106
X21.83107 Y30.74802
X21.64207 Y30.59575
X21.43054 Y30.38422
X21.33404 Y30.26639
X21.32020 Y30.13959
X21.32020 Y28.50802
X21.34494 Y28.29093
X21.49716 Y28.19535
X21.63958 Y28.06995
X21.79945 Y27.89484
X21.86686 Y27.75801
X21.95878 Y27.51155
X21.95843 Y27.09647
X21.88789 Y26.90099
X21.79846 Y26.71351
X21.60079 Y26.50330
X21.50445 Y26.42108
X21.41972 Y26.37691
X21.12117 Y26.26314
X20.99861 Y26.25314
X20.70687 Y26.26352
X20.41030 Y26.37699
X20.32396 Y26.42215
X20.22912 Y26.50320
X20.01164 Y26.71851
X19.92841 Y26.86573
X19.85406 Y27.10937
X19.83504 Y27.30497
X19.85406 Y27.50061
X19.92838 Y27.74424
X20.01253 Y27.89298
X20.33516 Y28.19715
X20.48505 Y28.29090
X20.50974 Y28.50815
X20.51096 Y30.40240
X20.53143 Y30.54091
X20.55716 Y30.61439
X20.65584 Y30.75219
X21.07110 Y31.16743
X21.22233 Y31.35531
X21.18035 Y31.55610
X21.18053 Y31.94388
X21.27313 Y32.20301
X21.34149 Y32.34141
X21.38517 Y32.39361
X21.53917 Y32.55167
X21.67151 Y32.65401
X22.01875 Y32.79181
X22.38609 Y32.81533
X22.58604 Y32.76658
X22.73882 Y32.69856
X22.92482 Y32.57100
X23.08024 Y32.40750
X23.21512 Y32.17995
G04 P0 ( dwell for no time -- G64 should not smooth over this point )
G00 Z1.00000 ( retract )

G00 X25.88992 Y29.91404 ( rapid move to begin. )
F150.00000
G01 Z-0.06000
G04 P0 ( dwell for no time -- G64 should not smooth over this point )
F300.00000
G01 X25.88992 Y29.91404
X26.02522 Y29.85798
X26.27363 Y29.85798
X26.27600 Y30.08602
X25.75809 Y30.08602
X25.78646 Y30.01749
X25.88992 Y29.91404
G04 P0 ( dwell for no time -- G64 should not smooth over this point )
G00 Z1.00000 ( retract )

G00 X27.06398 Y29.86027 ( rapid move to begin. )
F150.00000
G01 Z-0.06000
G04 P0 ( dwell for no time -- G64 should not smooth over this point )
F300.00000
G01 X27.06398 Y29.86027
X27.31470 Y29.85798
X27.44993 Y29.91396
X27.55339 Y30.01742
X27.58181 Y30.08602
X27.06398 Y30.08602
X27.06398 Y29.86027
G04 P0 ( dwell for no time -- G64 should not smooth over this point )
G00 Z1.00000 ( retract )

G00 X32.73003 Y28.19839 ( rapid move to begin. )
F150.00000
G01 Z-0.06000
G04 P0 ( dwell for no time -- G64 should not smooth over this point )
F300.00000
G01 X32.73003 Y28.19839
X32.73003 Y30.08602
X32.42117 Y30.08869
X32.37073 Y30.10959
X32.33209 Y30.14823
X32.30852 Y30.22600
X32.31916 Y30.78754
X32.37073 Y30.85038
X32.44850 Y30.87398
X33.59150 Y30.87398
X33.64504 Y30.86331
X33.70788 Y30.81175
X33.72879 Y30.76130
X33.72081 Y30.17243
X33.66925 Y30.10959
X33.61880 Y30.08869
X33.30997 Y30.08602
X33.30997 Y28.19392
X33.40339 Y28.16253
X33.56816 Y28.06779
X33.71052 Y27.94183
X33.80958 Y27.81384
X33.90570 Y27.61790
X33.95053 Y27.43322
X33.95731 Y27.24328
X33.92571 Y27.05588
X33.86950 Y26.90409
X33.75406 Y26.71887
X33.64253 Y26.60155
X33.48820 Y26.49065
X33.31464 Y26.41305
X33.12909 Y26.37198
X33.00583 Y26.36573
X32.81703 Y26.38781
X32.63659 Y26.44745
X32.47182 Y26.54219
X32.32945 Y26.66815
X32.21543 Y26.82016
X32.13428 Y26.99207
X32.08945 Y27.17676
X32.08266 Y27.36670
X32.11426 Y27.55410
X32.18297 Y27.73134
X32.28591 Y27.89110
X32.41893 Y28.02684
X32.57657 Y28.13309
X32.73003 Y28.19839
X32.59005 Y28.29121
X32.61599 Y28.49248
X32.61477 Y29.64703
X32.59005 Y29.81307
X32.59005 Y29.94604
X32.47738 Y29.94604
X32.35632 Y29.98579
X32.26471 Y30.04729
X32.20844 Y30.13522
X32.18825 Y30.26197
X32.18828 Y30.69521
X32.21297 Y30.83565
X32.32292 Y30.98279
X32.39386 Y31.00857
X33.59150 Y31.01396
X33.69861 Y30.99265
X33.74702 Y30.96677
X33.82427 Y30.88952
X33.86607 Y30.78861
X33.87146 Y30.34822
X33.82759 Y30.12623
X33.77016 Y30.04218
X33.65708 Y29.97413
X33.56643 Y29.94604
X33.44995 Y29.94604
X33.44995 Y29.81650
X33.42399 Y29.61815
X33.43079 Y28.39156
X33.44995 Y28.29532
X33.78291 Y28.04124
X33.92622 Y27.83967
X34.00669 Y27.69883
X34.08281 Y27.30497
X34.04626 Y27.06591
X34.00458 Y26.90879
X33.86724 Y26.68153
X33.78210 Y26.57091
X33.72518 Y26.52298
X33.44702 Y26.34163
X33.30885 Y26.30142
X33.01995 Y26.25189
X32.78599 Y26.28885
X32.59214 Y26.33990
X32.25637 Y26.56952
X32.03423 Y26.90833
X31.98274 Y27.12004
X31.95716 Y27.30497
X31.99369 Y27.54409
X32.03537 Y27.70114
X32.17271 Y27.92844
X32.25848 Y28.03985
X32.59005 Y28.29121
G04 P0 ( dwell for no time -- G64 should not smooth over this point )
G00 Z1.00000 ( retract )

G00 X34.20854 Y31.35988 ( rapid move to begin. )
F150.00000
G01 Z-0.06000
G04 P0 ( dwell for no time -- G64 should not smooth over this point )
F300.00000
G01 X34.20854 Y31.35988
X32.44880 Y31.35602
X32.39513 Y31.36659
X32.34962 Y31.39689
X32.31121 Y31.46864
X32.31919 Y32.05762
X32.37085 Y32.12048
X32.44878 Y32.14395
X34.37026 Y32.13994
X34.45937 Y32.12909
X34.53160 Y32.10438
X34.63552 Y32.03496
X35.31291 Y31.35848
X35.55637 Y31.41558
X35.75268 Y31.41251
X35.93041 Y31.37395
X36.10994 Y31.29402
X36.25753 Y31.18775
X36.40839 Y31.02021
X36.49868 Y30.86230
X36.56167 Y30.66095
X36.57994 Y30.47997
X36.55560 Y30.27042
X36.49868 Y30.09765
X36.39119 Y29.91612
X36.25753 Y29.77223
X36.10994 Y29.66596
X36.02995 Y29.62951
X36.02995 Y26.11498
X36.01908 Y26.02555
X35.97130 Y25.91011
X35.91570 Y25.83922
X34.10189 Y24.02545
X34.14494 Y23.94476
X34.21558 Y23.71743
X34.23818 Y23.49497
X34.21558 Y23.27255
X34.13303 Y23.01847
X34.01134 Y22.81385
X33.84979 Y22.63899
X33.66844 Y22.50818
X33.45081 Y22.41128
X33.23229 Y22.36407
X32.97961 Y22.36178
X32.74662 Y22.41128
X32.52902 Y22.50818
X32.34766 Y22.63899
X32.18612 Y22.81385
X32.05251 Y23.04522
X31.98188 Y23.27255
X31.95927 Y23.49497
X31.98188 Y23.71743
X32.05251 Y23.94476
X32.18612 Y24.17613
X32.34766 Y24.35098
X32.51670 Y24.47381
X32.74662 Y24.57869
X32.97961 Y24.62820
X33.20321 Y24.62898
X33.43666 Y24.58248
X33.52152 Y24.54806
X35.25002 Y26.27650
X35.25002 Y29.62946
X35.15771 Y29.67393
X35.00067 Y29.79181
X34.87156 Y29.93977
X34.78126 Y30.09768
X34.72434 Y30.27042
X34.70001 Y30.47997
X34.71827 Y30.66095
X34.76221 Y30.80619
X34.20854 Y31.35988
X34.15068 Y31.21977
X32.44911 Y31.21604
X32.32089 Y31.24830
X32.20844 Y31.40522
X32.19163 Y31.49600
X32.18828 Y31.96521
X32.21297 Y32.10565
X32.32290 Y32.25274
X32.44908 Y32.28393
X34.37057 Y32.27992
X34.50001 Y32.26305
X34.64077 Y32.20476
X34.72429 Y32.14319
X35.35116 Y31.51817
X35.52708 Y31.55401
X35.72360 Y31.55556
X36.00102 Y31.49658
X36.23097 Y31.36280
X36.36457 Y31.24495
X36.52444 Y31.06984
X36.61288 Y30.88399
X36.68377 Y30.68655
X36.68342 Y30.27147
X36.61288 Y30.07599
X36.52342 Y29.88851
X36.36457 Y29.71503
X36.16993 Y29.53964
X36.15080 Y29.43634
X36.14397 Y26.15260
X36.13005 Y26.04196
X36.10219 Y25.92352
X35.96970 Y25.73193
X34.40679 Y24.16731
X34.27372 Y23.99932
X34.34006 Y23.74069
X34.35149 Y23.46836
X34.33963 Y23.24699
X34.23282 Y22.96081
X34.14931 Y22.79165
X34.10085 Y22.73325
X33.79968 Y22.44387
X33.51152 Y22.31095
X33.34395 Y22.25606
X33.25719 Y22.24700
X32.85124 Y22.25655
X32.68591 Y22.31088
X32.39592 Y22.44517
X32.24052 Y22.58169
X32.06102 Y22.77519
X31.94352 Y23.00978
X31.85739 Y23.24923
X31.84594 Y23.52162
X31.85777 Y23.74290
X31.94355 Y23.98017
X32.04812 Y24.19828
X32.24055 Y24.40826
X32.39773 Y24.54605
X32.73633 Y24.69756
X32.85348 Y24.73388
X32.99427 Y24.74577
X33.25713 Y24.74283
X33.48876 Y24.71326
X33.65358 Y24.84308
X35.04103 Y26.23050
X35.12091 Y26.33000
X35.12863 Y26.38191
X35.13600 Y29.33537
X35.11004 Y29.54068
X34.91537 Y29.71503
X34.76473 Y29.87807
X34.66704 Y30.07599
X34.57118 Y30.35925
X34.56155 Y30.45069
X34.57905 Y30.67561
X34.60260 Y30.76783
X34.15068 Y31.21977
G04 P0 ( dwell for no time -- G64 should not smooth over this point )
G00 Z1.00000 ( retract )

G00 X37.81003 Y31.62986 ( rapid move to begin. )
F150.00000
G01 Z-0.06000
G04 P0 ( dwell for no time -- G64 should not smooth over this point )
F300.00000
G01 X37.81003 Y31.62986
X36.70986 Y32.73003
X36.52949 Y32.73003
X36.49868 Y32.63765
X36.39119 Y32.45612
X36.25753 Y32.31223
X36.10994 Y32.20596
X35.91626 Y32.12224
X35.75268 Y32.08746
X35.55637 Y32.08442
X35.33584 Y32.13128
X35.17001 Y32.20596
X35.02241 Y32.31223
X34.87156 Y32.47977
X34.78126 Y32.63768
X34.75048 Y32.73003
X33.72617 Y32.73003
X33.66925 Y32.64959
X33.59150 Y32.62602
X32.44850 Y32.62602
X32.37073 Y32.64959
X32.33209 Y32.68823
X32.31119 Y32.73867
X32.31119 Y33.30130
X32.34952 Y33.37296
X32.42117 Y33.41129
X33.59150 Y33.41398
X33.66925 Y33.39038
X33.72615 Y33.30997
X34.75045 Y33.30997
X34.78126 Y33.40230
X34.87156 Y33.56021
X35.00067 Y33.70816
X35.16996 Y33.83402
X35.35002 Y33.91408
X35.35068 Y34.38365
X35.36744 Y34.46798
X35.40707 Y34.54212
X36.54003 Y35.68009
X36.54003 Y36.52502
X36.00267 Y36.52769
X35.93102 Y36.56602
X35.89269 Y36.63767
X35.89002 Y38.26500
X35.91359 Y38.34275
X35.95223 Y38.38138
X36.00267 Y38.40229
X37.63000 Y38.40498
X37.70775 Y38.38138
X37.74638 Y38.34275
X37.76729 Y38.29230
X37.76998 Y36.66500
X37.75931 Y36.61143
X37.70775 Y36.54859
X37.65730 Y36.52769
X37.11997 Y36.52502
X37.11997 Y35.56000
X37.09198 Y35.43656
X37.03500 Y35.35495
X35.92995 Y34.24989
X35.92995 Y33.91332
X36.10994 Y33.83402
X36.27928 Y33.70816
X36.40839 Y33.56021
X36.49868 Y33.40230
X36.52947 Y33.30997
X36.87303 Y33.30638
X36.95337 Y33.28198
X37.02479 Y33.23427
X38.30500 Y31.95500
X38.36198 Y31.87337
X38.38997 Y31.75000
X38.38997 Y28.69504
X39.49004 Y27.59497
X42.29047 Y27.59497
X42.32128 Y27.68730
X42.42877 Y27.86885
X42.56242 Y28.01275
X42.70997 Y28.11902
X42.88953 Y28.19895
X43.08173 Y28.23980
X43.26362 Y28.24058
X43.47042 Y28.19895
X43.64995 Y28.11902
X43.81929 Y27.99316
X43.94840 Y27.84521
X44.03204 Y27.70038
X44.09562 Y27.51455
X44.11995 Y27.30497
X44.09562 Y27.09542
X44.03870 Y26.92265
X43.93120 Y26.74112
X43.79755 Y26.59723
X43.66227 Y26.49893
X43.48411 Y26.41628
X43.29270 Y26.37246
X43.08173 Y26.37018
X42.87586 Y26.41628
X42.71002 Y26.49096
X42.56242 Y26.59723
X42.41157 Y26.76477
X42.32128 Y26.92268
X42.29049 Y27.01503
X39.37000 Y27.01503
X39.27193 Y27.03246
X39.19789 Y27.07203
X37.89495 Y28.36995
X37.83797 Y28.45158
X37.81003 Y28.57500
X37.81003 Y31.62986
X37.68090 Y31.57637
X37.58438 Y31.69422
X36.96404 Y32.31457
X36.80595 Y32.43598
X36.65187 Y32.59005
X36.63015 Y32.59005
X36.53478 Y32.41873
X36.22942 Y32.13605
X36.01400 Y32.00918
X35.94537 Y31.98531
X35.78179 Y31.95053
X35.55637 Y31.94444
X35.33457 Y31.98531
X35.07544 Y32.10067
X34.91735 Y32.21744
X34.78472 Y32.36247
X34.64984 Y32.59005
X33.80753 Y32.59005
X33.69861 Y32.50733
X33.59150 Y32.48604
X32.44850 Y32.48604
X32.32092 Y32.51825
X32.26158 Y32.59125
X32.20844 Y32.67522
X32.19163 Y32.76600
X32.18828 Y33.23521
X32.21297 Y33.37565
X32.34136 Y33.53265
X32.44850 Y33.55396
X33.59150 Y33.55396
X33.69861 Y33.53265
X33.80748 Y33.44995
X33.99429 Y33.44995
X34.19216 Y33.42399
X34.46170 Y33.42579
X34.64979 Y33.44995
X34.76460 Y33.62198
X34.91540 Y33.78492
X35.06013 Y33.91212
X35.21004 Y34.00590
X35.25642 Y34.47090
X35.27014 Y34.52312
X35.34186 Y34.63374
X36.31438 Y35.61570
X36.41093 Y35.73358
X36.42599 Y36.01756
X36.40005 Y36.21517
X36.40005 Y36.38504
X36.20714 Y36.38504
X35.92998 Y36.42901
X35.84621 Y36.48629
X35.78995 Y36.57422
X35.77313 Y36.66500
X35.76975 Y38.22621
X35.79386 Y38.36469
X35.85126 Y38.44874
X35.93922 Y38.50500
X36.06609 Y38.52520
X37.59109 Y38.52520
X37.72969 Y38.50109
X37.81374 Y38.44366
X37.87336 Y38.34318
X37.90996 Y38.19926
X37.90996 Y36.73554
X37.86612 Y36.56526
X37.80866 Y36.48118
X37.72212 Y36.42566
X37.44770 Y36.38504
X37.25995 Y36.38504
X37.25995 Y36.21537
X37.23399 Y36.01756
X37.23399 Y35.59752
X37.19980 Y35.40679
X37.08908 Y35.24773
X36.26543 Y34.42411
X36.06993 Y34.19191
X36.06993 Y34.00593
X36.18329 Y33.95307
X36.36457 Y33.78495
X36.51519 Y33.62188
X36.63010 Y33.44995
X36.98314 Y33.38980
X37.14219 Y33.27908
X38.35911 Y32.06217
X38.46982 Y31.90314
X38.50399 Y31.71243
X38.50399 Y28.90015
X38.51905 Y28.74853
X38.59853 Y28.64947
X39.42535 Y27.82092
X39.54353 Y27.72405
X39.64518 Y27.71143
X41.97718 Y27.71021
X42.18981 Y27.73495
X42.30461 Y27.90698
X42.49417 Y28.10667
X42.59047 Y28.18884
X42.82900 Y28.29900
X42.97375 Y28.34683
X43.09638 Y28.35681
X43.38805 Y28.34643
X43.53103 Y28.29905
X43.77098 Y28.18780
X44.01970 Y27.94851
X44.06443 Y27.89484
X44.13184 Y27.75801
X44.21073 Y27.55194
X44.23329 Y27.33164
X44.22343 Y27.09647
X44.15290 Y26.90099
X44.05539 Y26.70299
X43.86580 Y26.50330
X43.76946 Y26.42108
X43.68472 Y26.37691
X43.38617 Y26.26312
X43.04251 Y26.25606
X42.87926 Y26.29233
X42.58894 Y26.42215
X42.34025 Y26.66144
X42.18986 Y26.87505
X41.97670 Y26.89974
X39.40749 Y26.90099
X39.21679 Y26.93515
X39.10632 Y27.00675
X37.84082 Y28.26278
X37.73013 Y28.42181
X37.69599 Y28.61252
X37.69474 Y31.44980
X37.68090 Y31.57637
G04 P0 ( dwell for no time -- G64 should not smooth over this point )
G00 Z1.00000 ( retract )

G00 X39.57363 Y29.97083 ( rapid move to begin. )
F150.00000
G01 Z-0.06000
G04 P0 ( dwell for no time -- G64 should not smooth over this point )
F300.00000
G01 X39.57363 Y29.97083
X39.76088 Y30.15803
X39.71828 Y30.29902
X39.70002 Y30.47997
X39.71828 Y30.66095
X39.76083 Y30.80187
X39.57968 Y30.98310
X39.46220 Y30.65638
X39.48463 Y30.18572
X39.57363 Y29.97083
G04 P0 ( dwell for no time -- G64 should not smooth over this point )
G00 Z1.00000 ( retract )

G00 X40.13683 Y29.41968 ( rapid move to begin. )
F150.00000
G01 Z-0.06000
G04 P0 ( dwell for no time -- G64 should not smooth over this point )
F300.00000
G01 X40.13683 Y29.41968
X40.46355 Y29.30220
X40.93421 Y29.32463
X41.14909 Y29.41363
X40.96306 Y29.59974
X40.72362 Y29.54442
X40.54173 Y29.54518
X40.31694 Y29.59971
X40.13683 Y29.41968
G04 P0 ( dwell for no time -- G64 should not smooth over this point )
G00 Z1.00000 ( retract )

G00 X42.03004 Y32.03997 ( rapid move to begin. )
F150.00000
G01 Z-0.06000
G04 P0 ( dwell for no time -- G64 should not smooth over this point )
F300.00000
G01 X42.03004 Y32.03997
X48.18880 Y32.03997
X48.24573 Y32.12038
X48.32350 Y32.14398
X49.46650 Y32.14398
X49.54425 Y32.12038
X49.58288 Y32.08175
X49.60379 Y32.03130
X49.60648 Y31.49600
X49.59581 Y31.44243
X49.56546 Y31.39702
X49.52004 Y31.36666
X49.46650 Y31.35602
X48.32350 Y31.35602
X48.24573 Y31.37959
X48.18883 Y31.46003
X41.89633 Y31.46069
X41.81193 Y31.47746
X41.71516 Y31.53567
X41.06489 Y32.18505
X40.93042 Y32.12602
X40.75270 Y32.08746
X40.55638 Y32.08442
X40.34953 Y32.12602
X40.17002 Y32.20596
X40.00068 Y32.33181
X39.87157 Y32.47977
X39.78793 Y32.62460
X39.72436 Y32.81042
X39.70078 Y33.03463
X39.72436 Y33.22955
X39.77602 Y33.38860
X39.88877 Y33.58385
X40.02242 Y33.72775
X40.15770 Y33.82604
X40.35003 Y33.91408
X40.35003 Y34.16983
X39.08184 Y35.45063
X39.04892 Y35.53003
X39.04003 Y35.59998
X39.04003 Y36.57166
X38.86002 Y36.65096
X38.69068 Y36.77681
X38.56157 Y36.92477
X38.47793 Y37.06960
X38.41435 Y37.25542
X38.39078 Y37.47963
X38.41435 Y37.67455
X38.47127 Y37.84730
X38.56157 Y38.00521
X38.69068 Y38.15316
X38.87305 Y38.28567
X39.03952 Y38.35895
X39.23172 Y38.39980
X39.41361 Y38.40058
X39.62042 Y38.35895
X39.79995 Y38.27902
X39.95892 Y38.16353
X40.09840 Y38.00521
X40.18869 Y37.84730
X40.24561 Y37.67455
X40.26995 Y37.46497
X40.24561 Y37.25542
X40.18869 Y37.08265
X40.08120 Y36.90112
X39.94755 Y36.75723
X39.79995 Y36.65096
X39.61996 Y36.57092
X39.61996 Y35.72005
X40.88811 Y34.43930
X40.92928 Y34.30377
X40.92997 Y33.91332
X41.10995 Y33.83402
X41.27929 Y33.70816
X41.40840 Y33.56021
X41.49204 Y33.41538
X41.55562 Y33.22955
X41.57995 Y33.01997
X41.56169 Y32.83902
X41.47500 Y32.59506
X42.03004 Y32.03997
X42.08803 Y32.17995
X48.10747 Y32.17995
X48.21636 Y32.26265
X48.32350 Y32.28396
X49.46650 Y32.28396
X49.59226 Y32.25269
X49.70650 Y32.09470
X49.72670 Y31.96783
X49.72670 Y31.53486
X49.70259 Y31.39623
X49.63267 Y31.29404
X49.57361 Y31.23733
X49.46650 Y31.21604
X48.32350 Y31.21604
X48.21636 Y31.23733
X48.10747 Y31.32005
X47.92947 Y31.32005
X47.73173 Y31.34599
X41.98036 Y31.34474
X41.83007 Y31.32889
X41.72057 Y31.36453
X41.62638 Y31.42745
X41.03393 Y32.01805
X40.78181 Y31.95053
X40.52710 Y31.94596
X40.27894 Y32.00339
X40.05100 Y32.13539
X39.91536 Y32.25503
X39.76474 Y32.41807
X39.66705 Y32.61599
X39.59616 Y32.81337
X39.59652 Y33.22846
X39.66705 Y33.42399
X39.75684 Y33.61218
X40.06728 Y33.93338
X40.21005 Y34.00590
X40.21005 Y34.11184
X40.09616 Y34.22574
X39.97467 Y34.38393
X39.07081 Y35.28776
X38.98740 Y35.40013
X38.95359 Y35.47039
X38.92598 Y35.63737
X38.92598 Y36.23716
X38.90005 Y36.47905
X38.74689 Y36.57519
X38.42423 Y36.88268
X38.34341 Y37.02573
X38.26906 Y37.26937
X38.25004 Y37.46497
X38.26906 Y37.66061
X38.34338 Y37.90424
X38.42753 Y38.05298
X38.64417 Y38.26667
X38.77650 Y38.36901
X39.12375 Y38.50683
X39.41361 Y38.51674
X39.53805 Y38.50643
X39.68102 Y38.45905
X39.92098 Y38.34780
X40.05458 Y38.22995
X40.21445 Y38.05484
X40.30289 Y37.86899
X40.37378 Y37.67163
X40.37343 Y37.25647
X40.30289 Y37.06099
X40.20538 Y36.86299
X40.01579 Y36.66330
X39.90972 Y36.57277
X39.75994 Y36.47907
X39.73398 Y36.23668
X39.73398 Y35.92515
X39.74904 Y35.77354
X39.82817 Y35.67483
X40.25478 Y35.24649
X40.41369 Y35.12429
X40.94399 Y34.59399
X41.01155 Y34.50532
X41.06568 Y34.34682
X41.06995 Y34.00593
X41.20452 Y33.93930
X41.38333 Y33.80181
X41.52961 Y33.63021
X41.63708 Y33.43186
X41.70091 Y33.21561
X41.71993 Y33.01997
X41.70091 Y32.82437
X41.64269 Y32.62533
X42.08803 Y32.17995
G04 P0 ( dwell for no time -- G64 should not smooth over this point )
G00 Z1.00000 ( retract )

G00 X44.57004 Y33.30997 ( rapid move to begin. )
F150.00000
G01 Z-0.06000
G04 P0 ( dwell for no time -- G64 should not smooth over this point )
F300.00000
G01 X44.57004 Y33.30997
X48.18880 Y33.30997
X48.24573 Y33.39038
X48.32350 Y33.41398
X49.49380 Y33.41129
X49.56546 Y33.37296
X49.60379 Y33.30130
X49.60379 Y32.73867
X49.58288 Y32.68823
X49.54425 Y32.64959
X49.46650 Y32.62602
X48.32350 Y32.62602
X48.24573 Y32.64959
X48.18883 Y32.73003
X44.45000 Y32.73003
X44.35193 Y32.74746
X44.24495 Y32.81495
X42.29722 Y34.76272
X42.18498 Y34.71357
X42.01747 Y34.67720
X41.81696 Y34.67491
X41.63497 Y34.71357
X41.47807 Y34.78261
X41.30413 Y34.90897
X41.18201 Y35.04918
X41.09171 Y35.21169
X41.03947 Y35.37494
X41.02080 Y35.54537
X41.04325 Y35.75919
X41.10363 Y35.93501
X41.19921 Y36.09447
X41.32588 Y36.23059
X41.46499 Y36.33071
X41.63497 Y36.40640
X41.81696 Y36.44506
X41.98838 Y36.44585
X42.18498 Y36.40640
X42.35496 Y36.33071
X42.50548 Y36.22137
X42.63796 Y36.07079
X42.72826 Y35.90828
X42.78051 Y35.74501
X42.79918 Y35.57460
X42.78279 Y35.38944
X42.70858 Y35.17148
X44.57004 Y33.30997
X44.62803 Y33.44995
X48.10747 Y33.44995
X48.21636 Y33.53265
X48.32350 Y33.55396
X49.52111 Y33.54857
X49.59226 Y33.52269
X49.70650 Y33.36470
X49.72670 Y33.23783
X49.72281 Y32.76600
X49.70198 Y32.66427
X49.59198 Y32.51716
X49.46650 Y32.48604
X48.32350 Y32.48604
X48.21636 Y32.50733
X48.10747 Y32.59005
X44.45000 Y32.59005
X44.31127 Y32.61352
X44.23463 Y32.64840
X44.14596 Y32.71596
X42.26626 Y34.59571
X42.04655 Y34.54027
X41.77342 Y34.54027
X41.59171 Y34.58045
X41.42113 Y34.65474
X41.20012 Y34.81530
X41.07675 Y34.95462
X40.98239 Y35.11499
X40.90043 Y35.35931
X40.91600 Y35.75855
X41.06837 Y36.12337
X41.21889 Y36.28776
X41.34841 Y36.40196
X41.57444 Y36.50638
X41.71353 Y36.55243
X42.10817 Y36.55207
X42.24556 Y36.50640
X42.47297 Y36.40094
X42.70901 Y36.17392
X42.81648 Y36.04156
X42.86138 Y35.95157
X42.91744 Y35.77412
X42.93840 Y35.58924
X42.91741 Y35.34583
X42.87322 Y35.20481
X44.62803 Y33.44995
G04 P0 ( dwell for no time -- G64 should not smooth over this point )
G00 Z1.00000 ( retract )

G00 X46.47504 Y34.57997 ( rapid move to begin. )
F150.00000
G01 Z-0.06000
G04 P0 ( dwell for no time -- G64 should not smooth over this point )
F300.00000
G01 X46.47504 Y34.57997
X48.18880 Y34.57997
X48.24573 Y34.66038
X48.32350 Y34.68398
X49.49380 Y34.68129
X49.56546 Y34.64296
X49.60379 Y34.57131
X49.60379 Y34.00867
X49.58288 Y33.95823
X49.54425 Y33.91959
X49.46650 Y33.89602
X48.32350 Y33.89602
X48.24573 Y33.91959
X48.18883 Y34.00003
X46.35500 Y34.00003
X46.23158 Y34.02797
X46.14995 Y34.08495
X44.83722 Y35.39772
X44.72498 Y35.34857
X44.55747 Y35.31220
X44.35696 Y35.30991
X44.17497 Y35.34857
X44.01807 Y35.41761
X43.84413 Y35.54397
X43.72201 Y35.68418
X43.63171 Y35.84669
X43.57947 Y36.00994
X43.56080 Y36.18037
X43.58325 Y36.39419
X43.64363 Y36.57001
X43.73921 Y36.72947
X43.86588 Y36.86559
X44.00499 Y36.96571
X44.17497 Y37.04140
X44.35696 Y37.08006
X44.52838 Y37.08085
X44.72498 Y37.04140
X44.89496 Y36.96571
X45.03410 Y36.86559
X45.17796 Y36.70579
X45.26826 Y36.54328
X45.32051 Y36.38001
X45.33918 Y36.20960
X45.32279 Y36.02444
X45.24858 Y35.80648
X46.47504 Y34.57997
X46.52853 Y34.70905
X46.68015 Y34.69399
X47.97603 Y34.69399
X48.11238 Y34.70620
X48.23054 Y34.78339
X48.35959 Y34.80420
X49.46650 Y34.80029
X49.56619 Y34.78009
X49.65024 Y34.72266
X49.70650 Y34.63473
X49.72670 Y34.50783
X49.72281 Y34.03600
X49.70198 Y33.93427
X49.59198 Y33.78716
X49.46650 Y33.75604
X48.32350 Y33.75604
X48.21636 Y33.77733
X48.10747 Y33.86005
X46.35500 Y33.86005
X46.24438 Y33.87499
X46.16557 Y33.90453
X46.05096 Y33.98596
X44.80626 Y35.23071
X44.52838 Y35.16917
X44.31342 Y35.17527
X44.13171 Y35.21545
X43.91045 Y35.31898
X43.78361 Y35.41113
X43.63519 Y35.56683
X43.49859 Y35.80341
X43.44256 Y35.98083
X43.42158 Y36.16574
X43.45600 Y36.39358
X43.60837 Y36.75837
X43.75889 Y36.92276
X43.88841 Y37.03696
X44.11444 Y37.14138
X44.25353 Y37.18743
X44.64817 Y37.18707
X44.78556 Y37.14140
X45.01297 Y37.03594
X45.14108 Y36.92276
X45.29252 Y36.75690
X45.43143 Y36.43147
X45.45327 Y36.16838
X45.43910 Y35.95601
X45.41322 Y35.83981
X45.54830 Y35.66970
X46.41035 Y34.80592
X46.52853 Y34.70905
G04 P0 ( dwell for no time -- G64 should not smooth over this point )
G00 Z1.00000 ( retract )

G00 X48.46363 Y36.32083 ( rapid move to begin. )
F150.00000
G01 Z-0.06000
G04 P0 ( dwell for no time -- G64 should not smooth over this point )
F300.00000
G01 X48.46363 Y36.32083
X48.65088 Y36.50803
X48.60828 Y36.64902
X48.59002 Y36.82997
X48.60828 Y37.01095
X48.65083 Y37.15187
X48.46968 Y37.33310
X48.35220 Y37.00638
X48.37463 Y36.53572
X48.46363 Y36.32083
G04 P0 ( dwell for no time -- G64 should not smooth over this point )
G00 Z1.00000 ( retract )

G00 X50.03909 Y35.76363 ( rapid move to begin. )
F150.00000
G01 Z-0.06000
G04 P0 ( dwell for no time -- G64 should not smooth over this point )
F300.00000
G01 X50.03909 Y35.76363
X49.85306 Y35.94974
X49.61362 Y35.89442
X49.43173 Y35.89518
X49.20694 Y35.94971
X49.02683 Y35.76968
X49.35355 Y35.65220
X49.82421 Y35.67463
X50.03909 Y35.76363
G04 P0 ( dwell for no time -- G64 should not smooth over this point )
G00 Z1.00000 ( retract )

G00 X50.59025 Y36.32685 ( rapid move to begin. )
F150.00000
G01 Z-0.06000
G04 P0 ( dwell for no time -- G64 should not smooth over this point )
F300.00000
G01 X50.59025 Y36.32685
X50.70770 Y36.65355
X50.68529 Y37.12421
X50.59632 Y37.33907
X50.40909 Y37.15194
X50.45169 Y37.01095
X50.46995 Y36.82997
X50.45169 Y36.64902
X50.40912 Y36.50803
X50.59025 Y36.32685
G04 P0 ( dwell for no time -- G64 should not smooth over this point )
G00 Z1.00000 ( retract )

G00 X50.03307 Y37.89025 ( rapid move to begin. )
F150.00000
G01 Z-0.06000
G04 P0 ( dwell for no time -- G64 should not smooth over this point )
F300.00000
G01 X50.03307 Y37.89025
X49.70638 Y38.00772
X49.23572 Y37.98529
X49.02086 Y37.89632
X49.20686 Y37.71024
X49.44638 Y37.76558
X49.64270 Y37.76251
X49.85304 Y37.71026
X50.03307 Y37.89025
G04 P0 ( dwell for no time -- G64 should not smooth over this point )
G00 Z1.00000 ( retract )

G00 X55.24411 Y40.31722 ( rapid move to begin. )
F150.00000
G01 Z-0.06000
G04 P0 ( dwell for no time -- G64 should not smooth over this point )
F300.00000
G01 X55.24411 Y40.31722
X54.83329 Y40.48780
X54.38869 Y40.48818
X53.97749 Y40.31833
X53.66271 Y40.00411
X53.49212 Y39.59329
X53.49174 Y39.14869
X53.66159 Y38.73749
X53.83390 Y38.56487
X53.89166 Y38.47833
X53.91196 Y38.37628
X53.91196 Y37.97417
X53.89156 Y37.87183
X53.85102 Y37.80643
X53.54036 Y37.49248
X53.36215 Y37.06330
X53.36172 Y36.59878
X53.53919 Y36.16922
X53.86746 Y35.84034
X54.29664 Y35.66213
X54.38742 Y35.65936
X54.48648 Y35.62876
X54.58567 Y35.53757
X54.62697 Y35.39513
X54.62697 Y35.09683
X54.60845 Y34.99945
X54.54170 Y34.90133
X54.41259 Y34.81375
X54.32801 Y34.68992
X54.29303 Y34.51730
X54.29303 Y34.06076
X54.32301 Y33.90128
X54.40159 Y33.77430
X54.43134 Y33.64347
X54.41051 Y33.55005
X54.32824 Y33.42104
X54.29303 Y33.24730
X54.29303 Y32.79077
X54.32301 Y32.63128
X54.40159 Y32.50430
X54.43134 Y32.37347
X54.41051 Y32.28005
X54.32824 Y32.15104
X54.29303 Y31.97730
X54.29303 Y31.52076
X54.32301 Y31.36128
X54.40159 Y31.23430
X54.43134 Y31.10347
X54.41051 Y31.01005
X54.32824 Y30.88104
X54.29303 Y30.70730
X54.29303 Y30.25076
X54.32303 Y30.09125
X54.40459 Y29.96448
X54.62991 Y29.82598
X54.68216 Y29.76977
X54.72181 Y29.67388
X54.72694 Y28.49222
X54.70660 Y28.38971
X54.66611 Y28.32430
X54.39501 Y28.12771
X54.14259 Y27.74996
X54.05410 Y27.30500
X54.14254 Y26.86002
X54.39461 Y26.48278
X54.77187 Y26.23071
X55.24685 Y26.13696
X55.71800 Y26.23066
X56.09526 Y26.48273
X56.34733 Y26.85997
X56.43588 Y27.30497
X56.34739 Y27.74991
X56.09496 Y28.12766
X55.84081 Y28.30352
X55.77144 Y28.42659
X55.76573 Y29.64619
X55.78109 Y29.71505
X55.82625 Y29.78925
X55.88277 Y29.84142
X56.07792 Y29.95706
X56.16191 Y30.08003
X56.19491 Y30.22935
X56.26529 Y30.34421
X56.38376 Y30.40885
X56.50111 Y30.41195
X56.59722 Y30.37195
X56.66676 Y30.30390
X56.87418 Y29.81922
X57.18627 Y29.50279
X57.22668 Y29.43743
X57.24428 Y29.36265
X57.24698 Y26.48156
X57.22910 Y26.38577
X57.18454 Y26.31199
X55.77583 Y24.90714
X55.64104 Y24.86287
X55.05303 Y24.86276
X54.55011 Y24.65497
X54.16507 Y24.27061
X53.95643 Y23.76815
X53.95595 Y23.22426
X54.16370 Y22.72137
X54.54805 Y22.33633
X55.05051 Y22.12769
X55.59440 Y22.12721
X56.09730 Y22.33496
X56.48234 Y22.71931
X56.69097 Y23.22177
X56.69150 Y23.76571
X56.65109 Y23.91656
X56.66892 Y24.01230
X56.69999 Y24.07039
X58.28332 Y25.65928
X58.43107 Y25.88044
X58.48302 Y26.14143
X58.48695 Y29.38117
X58.50613 Y29.44431
X58.56135 Y29.52473
X58.85457 Y29.81744
X59.03277 Y30.24662
X59.03321 Y30.71114
X58.85574 Y31.14070
X58.52744 Y31.46958
X58.35983 Y31.56120
X58.30199 Y31.64789
X58.28180 Y31.75008
X58.30217 Y31.85213
X58.36011 Y31.93875
X58.52569 Y32.02915
X58.73100 Y32.23410
X58.81129 Y32.28906
X58.87438 Y32.30819
X58.96493 Y32.30817
X59.08723 Y32.25132
X59.72874 Y31.61358
X59.79848 Y31.49013
X59.80692 Y28.60134
X59.85119 Y28.37876
X59.97727 Y28.19004
X61.20999 Y26.95732
X61.39871 Y26.83124
X61.62131 Y26.78694
X64.22883 Y26.78179
X64.35540 Y26.71785
X64.74244 Y26.31534
X65.17162 Y26.13713
X65.63614 Y26.13673
X66.06570 Y26.31420
X66.39458 Y26.64247
X66.57279 Y27.07162
X66.57320 Y27.53614
X66.39573 Y27.96570
X66.06746 Y28.29458
X65.63830 Y28.47279
X65.17378 Y28.47320
X64.74422 Y28.29573
X64.35570 Y27.89192
X64.22926 Y27.82814
X61.92027 Y27.82301
X61.81796 Y27.84330
X61.73114 Y27.90139
X60.89185 Y28.74630
X60.86084 Y28.80436
X60.84301 Y28.90015
X60.84301 Y31.72353
X60.79874 Y31.94616
X60.67265 Y32.13489
X59.43994 Y33.36760
X59.25121 Y33.49368
X59.04461 Y33.53481
X58.92709 Y33.59213
X58.55353 Y33.98728
X58.51314 Y34.05269
X58.49290 Y34.15474
X58.51319 Y34.25685
X58.57108 Y34.34347
X59.40260 Y35.17499
X59.52868 Y35.36371
X59.57301 Y35.58639
X59.57567 Y36.04481
X59.59081 Y36.11326
X59.62614 Y36.17686
X59.73153 Y36.26142
X59.99036 Y36.31496
X60.11642 Y36.39607
X60.20044 Y36.51905
X60.25109 Y36.66696
X60.31923 Y36.73643
X60.38400 Y36.76950
X60.52508 Y36.77978
X60.62083 Y36.74011
X60.97613 Y36.40473
X61.01662 Y36.33932
X61.03424 Y36.26449
X61.03696 Y35.62614
X61.08118 Y35.40376
X61.20727 Y35.21504
X62.11903 Y34.30328
X62.17415 Y34.22292
X62.19477 Y34.08959
X62.16505 Y33.99015
X61.87552 Y33.68289
X61.69713 Y33.25330
X61.69673 Y32.78878
X61.87420 Y32.35922
X62.20346 Y32.02935
X62.31539 Y31.97761
X62.38786 Y31.90464
X62.42761 Y31.80842
X62.42756 Y31.70425
X62.39134 Y31.61386
X62.34374 Y31.55843
X62.54186 Y31.36024
X62.78138 Y31.41558
X62.97770 Y31.41251
X63.18804 Y31.36026
X63.38331 Y31.55546
X63.32377 Y31.63245
X63.29482 Y31.73458
X63.30798 Y31.83979
X63.34526 Y31.91190
X63.41633 Y31.97929
X63.52466 Y32.02816
X63.85855 Y32.36143
X63.90899 Y32.42848
X63.98435 Y32.47885
X64.04747 Y32.49798
X73.43249 Y32.50194
X73.56907 Y32.46399
X73.62601 Y32.41878
X73.66622 Y32.36135
X73.69680 Y32.26232
X73.72949 Y32.03532
X73.81116 Y31.90847
X73.93404 Y31.82447
X74.08314 Y31.77446
X74.15586 Y31.70321
X74.19663 Y31.60992
X74.19950 Y31.50814
X74.16424 Y31.41304
X73.88730 Y31.10202
X73.79284 Y30.87398
X74.02487 Y30.87398
X74.15639 Y31.09669
X74.29637 Y31.23982
X74.46231 Y31.35180
X74.64737 Y31.42811
X74.92289 Y31.46976
X75.14298 Y31.44611
X75.33310 Y31.38348
X75.48347 Y31.30001
X75.63721 Y31.17179
X75.76200 Y31.01528
X75.83449 Y30.87398
X76.06711 Y30.87398
X75.97285 Y31.10154
X75.68664 Y31.43336
X75.65862 Y31.55876
X75.68161 Y31.65861
X75.75080 Y31.75142
X75.80493 Y31.78670
X75.91461 Y31.81952
X76.04145 Y31.90116
X76.12545 Y32.02404
X76.16045 Y32.19684
X76.16045 Y33.84502
X76.13045 Y34.00455
X76.04877 Y34.13145
X75.92588 Y34.21545
X75.75309 Y34.25045
X74.10491 Y34.25045
X73.94537 Y34.22045
X73.81847 Y34.13877
X73.73447 Y34.01588
X73.68713 Y33.72904
X73.63869 Y33.63737
X73.54712 Y33.56419
X73.43249 Y33.53801
X64.06843 Y33.54045
X63.95065 Y33.57936
X63.42797 Y34.09947
X63.38877 Y34.19264
X63.33874 Y34.48616
X63.21265 Y34.67489
X62.15118 Y35.73635
X62.09330 Y35.82297
X62.07300 Y35.92515
X62.07300 Y36.23668
X62.09332 Y36.33887
X62.14654 Y36.42055
X62.54458 Y36.80244
X62.72279 Y37.23162
X62.72322 Y37.69614
X62.54575 Y38.12570
X62.21748 Y38.45458
X61.78829 Y38.63279
X61.32378 Y38.63320
X60.89421 Y38.45573
X60.64169 Y38.20749
X60.57588 Y38.16695
X60.48012 Y38.14707
X60.34877 Y38.17976
X60.26843 Y38.24600
X60.23831 Y38.29195
X60.20539 Y38.39967
X60.12383 Y38.52644
X60.00090 Y38.61041
X59.82805 Y38.64544
X58.28002 Y38.64544
X58.12025 Y38.61539
X57.99348 Y38.53383
X57.90951 Y38.41090
X57.87454 Y38.23830
X57.87454 Y36.68974
X57.90453 Y36.53025
X57.98609 Y36.40348
X58.10890 Y36.31959
X58.37222 Y36.26416
X58.48378 Y36.17686
X58.51909 Y36.11331
X58.53697 Y36.01756
X58.53697 Y35.88515
X58.51660 Y35.78291
X58.45873 Y35.69635
X57.51733 Y34.75495
X57.39122 Y34.56620
X57.34672 Y34.34255
X57.33847 Y34.18281
X57.27334 Y34.06430
X56.76118 Y33.57001
X56.63575 Y33.53801
X56.39092 Y33.54045
X56.29280 Y33.57014
X56.19488 Y33.65703
X56.15315 Y33.76724
X56.19694 Y34.06214
X56.19694 Y34.51890
X56.16689 Y34.67870
X56.08485 Y34.80623
X55.92257 Y34.93219
X55.86689 Y35.05335
X55.86306 Y36.08837
X55.81114 Y36.34943
X55.74279 Y36.45169
X55.70294 Y36.54776
X55.69836 Y37.06084
X55.52074 Y37.49070
X55.20108 Y37.81529
X55.15041 Y37.94857
X55.14800 Y38.21534
X55.16832 Y38.31885
X55.22633 Y38.40554
X55.55722 Y38.73584
X55.72780 Y39.14663
X55.72818 Y39.59123
X55.55833 Y40.00243
X55.24411 Y40.31722
X55.17297 Y40.21094
X54.94556 Y40.31640
X54.80817 Y40.36207
X54.47779 Y40.36916
X54.27444 Y40.31638
X54.04841 Y40.21196
X53.81087 Y39.98402
X53.76837 Y39.93337
X53.70380 Y39.80261
X53.61600 Y39.56855
X53.61567 Y39.17318
X53.68277 Y38.98628
X53.76743 Y38.80805
X54.00639 Y38.54839
X54.02598 Y38.37628
X54.02351 Y37.92400
X53.99278 Y37.76657
X53.69016 Y37.47361
X53.64650 Y37.42144
X53.57815 Y37.28298
X53.48651 Y37.03846
X53.47665 Y36.80333
X53.49921 Y36.58301
X53.57810 Y36.37694
X53.64551 Y36.24011
X53.69024 Y36.18644
X53.84411 Y36.02820
X53.97660 Y35.92604
X54.22925 Y35.81733
X54.54993 Y35.75281
X54.60548 Y35.71756
X54.71320 Y35.59462
X54.73916 Y35.44496
X54.74099 Y35.09683
X54.71505 Y34.89927
X54.66075 Y34.82348
X54.49606 Y34.72927
X54.43736 Y34.64370
X54.41328 Y34.50521
X54.41663 Y34.03600
X54.43344 Y33.94522
X54.54988 Y33.77999
X54.57104 Y33.63465
X54.54805 Y33.52292
X54.43797 Y33.37565
X54.41328 Y33.23521
X54.41663 Y32.76600
X54.43344 Y32.67522
X54.54988 Y32.50999
X54.57104 Y32.36465
X54.54805 Y32.25292
X54.43797 Y32.10565
X54.41328 Y31.96521
X54.41663 Y31.49600
X54.43344 Y31.40522
X54.54988 Y31.23999
X54.57104 Y31.09465
X54.54805 Y30.98292
X54.43797 Y30.83565
X54.41716 Y30.73397
X54.41328 Y30.26197
X54.43344 Y30.13522
X54.48971 Y30.04729
X54.58132 Y29.98579
X54.70596 Y29.94480
X54.79865 Y29.84739
X54.81991 Y29.79722
X54.83977 Y29.64703
X54.83852 Y28.44185
X54.81086 Y28.28925
X54.48348 Y28.03985
X54.30992 Y27.79245
X54.26037 Y27.70114
X54.23022 Y27.59448
X54.18216 Y27.30497
X54.20774 Y27.12004
X54.25923 Y26.90833
X54.48137 Y26.56952
X54.81714 Y26.33990
X55.21955 Y26.25504
X55.37520 Y26.26934
X55.67202 Y26.34163
X55.90946 Y26.49205
X56.00710 Y26.57091
X56.06222 Y26.63982
X56.22958 Y26.90879
X56.27126 Y27.06591
X56.30781 Y27.30497
X56.28221 Y27.48994
X56.23075 Y27.70160
X56.00791 Y28.04124
X55.67599 Y28.29463
X55.65021 Y28.46659
X55.64899 Y29.61815
X55.67492 Y29.81642
X55.78998 Y29.94553
X55.88208 Y29.97413
X55.99516 Y30.04218
X56.05259 Y30.12623
X56.09874 Y30.35640
X56.17159 Y30.44820
X56.28112 Y30.52100
X56.42463 Y30.55475
X56.58112 Y30.53319
X56.71754 Y30.45336
X56.79496 Y30.36232
X56.89204 Y30.07599
X56.98051 Y29.89011
X57.14037 Y29.71503
X57.33019 Y29.53934
X57.36100 Y29.33537
X57.36100 Y26.48156
X57.34591 Y26.33000
X57.26603 Y26.23050
X55.79948 Y24.77831
X55.73931 Y24.73935
X55.66611 Y24.72469
X55.42821 Y24.74567
X55.07848 Y24.73388
X54.71889 Y24.59660
X54.62273 Y24.54605
X54.50431 Y24.44501
X54.32161 Y24.25672
X54.27312 Y24.19828
X54.16855 Y23.98017
X54.08277 Y23.74290
X54.07091 Y23.46836
X54.09623 Y23.20602
X54.16852 Y23.00978
X54.27195 Y22.79353
X54.50429 Y22.54486
X54.62092 Y22.44517
X54.71897 Y22.39345
X55.07624 Y22.25655
X55.21927 Y22.24428
X55.56895 Y22.25606
X55.73652 Y22.31095
X55.97749 Y22.41746
X56.18190 Y22.58172
X56.37428 Y22.79165
X56.47891 Y23.00981
X56.56466 Y23.24702
X56.57649 Y23.46836
X56.56506 Y23.74069
X56.51500 Y23.95614
X56.52844 Y24.02807
X56.56753 Y24.08994
X58.19470 Y25.73193
X58.32719 Y25.92352
X58.36897 Y26.15260
X58.37580 Y29.43634
X58.40214 Y29.54335
X58.58957 Y29.71503
X58.74842 Y29.88851
X58.83788 Y30.07599
X58.90842 Y30.27147
X58.91830 Y30.50664
X58.90877 Y30.68655
X58.83788 Y30.88399
X58.74944 Y31.06984
X58.58957 Y31.24495
X58.45597 Y31.36280
X58.23565 Y31.49293
X58.17260 Y31.59445
X58.14182 Y31.75023
X58.17288 Y31.90580
X58.23595 Y32.00710
X58.45442 Y32.13605
X58.75998 Y32.41888
X58.85391 Y32.44667
X58.98548 Y32.44662
X59.03082 Y32.43605
X59.11352 Y32.37972
X59.80938 Y31.69422
X59.90590 Y31.57637
X59.91974 Y31.44980
X59.92099 Y28.61252
X59.95513 Y28.42181
X60.06582 Y28.26278
X61.28276 Y27.04584
X61.35497 Y26.98923
X61.44179 Y26.93515
X61.63249 Y26.90099
X64.30302 Y26.88966
X64.37361 Y26.87452
X64.43530 Y26.83340
X64.56525 Y26.66144
X64.81394 Y26.42215
X65.10426 Y26.29233
X65.19687 Y26.26352
X65.32138 Y26.25321
X65.61117 Y26.26312
X65.75598 Y26.31095
X65.99446 Y26.42108
X66.12956 Y26.54005
X66.28039 Y26.70299
X66.37790 Y26.90099
X66.44843 Y27.09647
X66.45829 Y27.33164
X66.44879 Y27.51155
X66.35684 Y27.75801
X66.28943 Y27.89484
X66.09083 Y28.10675
X65.95834 Y28.20891
X65.70571 Y28.31762
X65.54244 Y28.35389
X65.32138 Y28.35681
X65.19875 Y28.34683
X65.05400 Y28.29900
X64.81547 Y28.18884
X64.56517 Y27.94861
X64.43485 Y27.77581
X64.37419 Y27.73548
X64.30340 Y27.72029
X61.87018 Y27.71143
X61.76853 Y27.72405
X61.65035 Y27.82092
X60.82353 Y28.64947
X60.74405 Y28.74853
X60.72899 Y28.90015
X60.72899 Y31.71243
X60.69482 Y31.90314
X60.58411 Y32.06217
X59.36719 Y33.27908
X59.20814 Y33.38980
X58.88533 Y33.45043
X58.83689 Y33.48596
X58.70468 Y33.66351
X58.40849 Y33.95287
X58.36788 Y34.05172
X58.35292 Y34.15480
X58.37044 Y34.26620
X58.45683 Y34.38700
X59.31408 Y35.24773
X59.42480 Y35.40679
X59.45899 Y35.59752
X59.46630 Y36.11705
X59.48492 Y36.21532
X59.51794 Y36.26566
X59.56211 Y36.31474
X59.66247 Y36.38273
X59.94712 Y36.42566
X60.03366 Y36.48118
X60.09112 Y36.56526
X60.13966 Y36.75083
X60.20491 Y36.82225
X60.29295 Y36.88268
X60.44855 Y36.92256
X60.55258 Y36.91705
X60.64921 Y36.88273
X60.86879 Y36.66274
X61.09251 Y36.48250
X61.12413 Y36.43363
X61.14852 Y36.28725
X61.15098 Y35.63737
X61.18512 Y35.44682
X61.29581 Y35.28776
X62.19967 Y34.38393
X62.32111 Y34.22581
X62.33475 Y34.08952
X62.29431 Y33.93646
X61.98184 Y33.61218
X61.83406 Y33.26699
X61.81169 Y33.04664
X61.82116 Y32.81337
X61.89205 Y32.61599
X61.98974 Y32.41807
X62.14036 Y32.25503
X62.27600 Y32.13539
X62.42604 Y32.05127
X62.50429 Y31.98231
X62.54902 Y31.88818
X62.57026 Y31.78106
X62.56485 Y31.67687
X62.52708 Y31.57304
X62.58088 Y31.51919
X62.78138 Y31.55556
X62.94862 Y31.55556
X63.14902 Y31.51922
X63.19939 Y31.56951
X63.15591 Y31.71736
X63.16637 Y31.85358
X63.24656 Y32.01251
X63.45235 Y32.13428
X63.55080 Y32.21830
X63.70480 Y32.37636
X63.84742 Y32.55752
X63.89624 Y32.58937
X64.06794 Y32.61474
X73.53216 Y32.60862
X73.63021 Y32.59005
X73.68065 Y32.55698
X73.78261 Y32.43913
X73.81235 Y32.33585
X73.83993 Y32.07929
X73.89625 Y31.99127
X73.98029 Y31.93385
X74.16721 Y31.88569
X74.27110 Y31.78269
X74.33323 Y31.64048
X74.34123 Y31.53890
X74.32182 Y31.42808
X74.40712 Y31.48046
X74.61921 Y31.56522
X74.91578 Y31.60956
X75.18486 Y31.57967
X75.34895 Y31.52821
X75.53823 Y31.42971
X75.51872 Y31.56341
X75.53665 Y31.66450
X75.58039 Y31.76257
X75.63411 Y31.83390
X75.70104 Y31.88848
X75.87066 Y31.92993
X75.95865 Y31.98622
X76.01610 Y32.07027
X76.04021 Y32.20883
X76.03683 Y33.86996
X76.02002 Y33.96066
X75.96370 Y34.04867
X75.87966 Y34.10613
X75.77999 Y34.12630
X74.11611 Y34.13021
X73.98926 Y34.11002
X73.90127 Y34.05370
X73.84382 Y33.96963
X73.79701 Y33.62772
X73.75507 Y33.55960
X73.63033 Y33.44995
X73.48250 Y33.42643
X64.06840 Y33.42521
X63.89616 Y33.45048
X63.83480 Y33.49140
X63.74021 Y33.62188
X63.58959 Y33.78495
X63.31156 Y34.02173
X63.28029 Y34.12152
X63.23482 Y34.44314
X63.12411 Y34.60217
X62.07056 Y35.65573
X61.97404 Y35.77354
X61.95898 Y35.92515
X61.95898 Y36.23668
X61.98580 Y36.43323
X62.03003 Y36.49817
X62.24079 Y36.66330
X62.43843 Y36.87351
X62.52789 Y37.06099
X62.59843 Y37.25647
X62.59878 Y37.67155
X62.52789 Y37.86899
X62.43945 Y38.05484
X62.24082 Y38.26675
X62.14598 Y38.34780
X62.05964 Y38.39296
X61.85571 Y38.47762
X61.69243 Y38.51389
X61.34875 Y38.50683
X61.20399 Y38.45900
X60.96546 Y38.34884
X60.64352 Y38.04516
X60.48639 Y38.00724
X60.37951 Y38.01826
X60.24601 Y38.07704
X60.13963 Y38.18382
X60.09500 Y38.35573
X60.03874 Y38.44366
X59.95469 Y38.50109
X59.85500 Y38.52128
X58.29109 Y38.52520
X58.16422 Y38.50500
X58.07626 Y38.44874
X58.01886 Y38.36469
X57.99478 Y38.22621
X57.99478 Y36.70097
X58.01495 Y36.57422
X58.07121 Y36.48629
X58.15498 Y36.42901
X58.44725 Y36.38199
X58.54779 Y36.31476
X58.59198 Y36.26566
X58.62503 Y36.21524
X58.64852 Y36.06764
X58.63593 Y35.73358
X58.53938 Y35.61570
X57.56686 Y34.63374
X57.49514 Y34.52312
X57.48142 Y34.47090
X57.45414 Y34.14771
X57.42996 Y34.04392
X57.38993 Y33.98677
X57.14040 Y33.78492
X56.98960 Y33.62198
X56.89803 Y33.49516
X56.83204 Y33.44995
X56.68670 Y33.42579
X56.38975 Y33.42521
X56.21764 Y33.45238
X56.14820 Y33.50176
X56.07835 Y33.57946
X56.01381 Y33.75398
X56.01272 Y33.83732
X56.07670 Y34.07349
X56.07670 Y34.50783
X56.05650 Y34.63473
X55.99915 Y34.72404
X55.83177 Y34.82271
X55.77543 Y34.90196
X55.75925 Y34.97443
X55.74901 Y36.07712
X55.70720 Y36.30635
X55.56466 Y36.54143
X55.58394 Y36.80325
X55.57396 Y37.03594
X55.50289 Y37.23399
X55.41444 Y37.41984
X55.25458 Y37.59492
X55.06565 Y37.76716
X55.04525 Y37.84841
X55.03398 Y38.21430
X55.06080 Y38.41316
X55.09232 Y38.46182
X55.30108 Y38.64221
X55.45158 Y38.80655
X55.53718 Y38.98628
X55.60497 Y39.18659
X55.60428 Y39.56677
X55.53718 Y39.75369
X55.44454 Y39.94229
X55.17297 Y40.21094
G04 P0 ( dwell for no time -- G64 should not smooth over this point )
G00 Z1.00000 ( retract )

G00 X54.38663 Y44.60212 ( rapid move to begin. )
F150.00000
G01 Z-0.06000
G04 P0 ( dwell for no time -- G64 should not smooth over this point )
F300.00000
G01 X54.38663 Y44.60212
X54.83123 Y44.60174
X55.24243 Y44.77159
X55.55722 Y45.08581
X55.72780 Y45.49663
X55.72818 Y45.94123
X55.55833 Y46.35243
X55.29956 Y46.61548
X55.25117 Y46.70727
X55.24162 Y46.81042
X55.25930 Y46.88525
X55.31254 Y46.96689
X55.37944 Y47.01710
X55.76860 Y47.40557
X55.97723 Y47.90803
X55.97771 Y48.45192
X55.76997 Y48.95484
X55.38561 Y49.33986
X54.88315 Y49.54849
X54.33926 Y49.54897
X53.83637 Y49.34123
X53.45133 Y48.95687
X53.24269 Y48.45441
X53.24221 Y47.91052
X53.44996 Y47.40763
X53.83799 Y47.01891
X53.90830 Y46.96686
X53.96141 Y46.88512
X53.98160 Y46.78291
X53.96121 Y46.68081
X53.92069 Y46.61545
X53.66271 Y46.35411
X53.49212 Y45.94329
X53.49174 Y45.49869
X53.66159 Y45.08749
X53.97581 Y44.77271
X54.38663 Y44.60212
X54.41175 Y44.72790
X54.80639 Y44.72752
X54.94553 Y44.77360
X55.17152 Y44.87796
X55.44469 Y45.14759
X55.53718 Y45.33628
X55.60395 Y45.52137
X55.60428 Y45.91677
X55.45252 Y46.28190
X55.13951 Y46.60920
X55.12191 Y46.73224
X55.12686 Y46.88385
X55.14271 Y46.96262
X55.19908 Y47.04842
X55.42940 Y47.23122
X55.61211 Y47.41951
X55.66054 Y47.47791
X55.74408 Y47.64707
X55.85089 Y47.93325
X55.86275 Y48.15462
X55.85130 Y48.42695
X55.76517 Y48.66643
X55.66174 Y48.88268
X55.42943 Y49.13135
X55.31277 Y49.23104
X55.21475 Y49.28276
X54.97241 Y49.38392
X54.85742 Y49.41969
X54.76839 Y49.42909
X54.36471 Y49.42014
X54.19722 Y49.36528
X53.90899 Y49.23231
X53.75181 Y49.09452
X53.57213 Y48.90112
X53.45481 Y48.66643
X53.36903 Y48.42916
X53.35717 Y48.15462
X53.38249 Y47.89228
X53.45478 Y47.69604
X53.55821 Y47.47979
X53.79055 Y47.23112
X54.02219 Y47.04784
X54.07736 Y46.96374
X54.09834 Y46.83376
X54.08059 Y46.60862
X53.76837 Y46.28337
X53.62839 Y45.95652
X53.60667 Y45.74659
X53.61567 Y45.52318
X53.76743 Y45.15805
X53.91887 Y44.99219
X54.08173 Y44.85950
X54.41175 Y44.72790
G04 P0 ( dwell for no time -- G64 should not smooth over this point )
G00 Z1.00000 ( retract )

G00 X54.22003 Y46.51604 ( rapid move to begin. )
F150.00000
G01 Z-0.06000
G04 P0 ( dwell for no time -- G64 should not smooth over this point )
F300.00000
G01 X54.22003 Y46.51604
X54.22003 Y47.11355
X54.04028 Y47.19444
X53.83718 Y47.34484
X53.69738 Y47.50011
X53.57569 Y47.70473
X53.49921 Y47.93021
X53.47129 Y48.16660
X53.49921 Y48.43229
X53.56903 Y48.64468
X53.69738 Y48.86239
X53.85892 Y49.03724
X54.04023 Y49.16805
X54.25788 Y49.26495
X54.49087 Y49.31446
X54.71447 Y49.31524
X54.94792 Y49.26874
X55.19199 Y49.16007
X55.37243 Y49.02802
X55.52260 Y48.86239
X55.65620 Y48.63102
X55.72684 Y48.40369
X55.74944 Y48.18123
X55.72077 Y47.93021
X55.65094 Y47.71779
X55.53979 Y47.52378
X55.36105 Y47.32525
X55.17970 Y47.19444
X54.99997 Y47.11360
X54.99997 Y46.51606
X55.20548 Y46.38137
X55.33796 Y46.23079
X55.42826 Y46.06828
X55.47672 Y45.91919
X55.49918 Y45.73460
X55.48051 Y45.53494
X55.41635 Y45.34497
X55.32077 Y45.18551
X55.21584 Y45.06897
X55.05493 Y44.94926
X54.88498 Y44.87357
X54.71747 Y44.83720
X54.51696 Y44.83491
X54.33497 Y44.87357
X54.16502 Y44.94926
X54.02588 Y45.04939
X53.89921 Y45.18551
X53.80363 Y45.34497
X53.73947 Y45.53494
X53.72080 Y45.70537
X53.73947 Y45.90501
X53.79171 Y46.06828
X53.88201 Y46.23079
X54.00413 Y46.37100
X54.22003 Y46.51604
X54.08005 Y46.60153
X54.09834 Y46.83376
X54.08005 Y47.02264
X53.91516 Y47.12459
X53.79055 Y47.23112
X53.55821 Y47.47979
X53.45478 Y47.69604
X53.36865 Y47.93549
X53.35717 Y48.15462
X53.36903 Y48.42916
X53.45481 Y48.66643
X53.55938 Y48.88454
X53.75181 Y49.09452
X53.90899 Y49.23231
X54.19722 Y49.36528
X54.36471 Y49.42014
X54.71444 Y49.43193
X54.85742 Y49.41969
X55.02280 Y49.36531
X55.26359 Y49.25863
X55.46819 Y49.09454
X55.66174 Y48.88268
X55.76517 Y48.66643
X55.85130 Y48.42695
X55.86275 Y48.15462
X55.85089 Y47.93325
X55.76517 Y47.69607
X55.66054 Y47.47791
X55.42940 Y47.23122
X55.30187 Y47.12238
X55.13995 Y47.02269
X55.12191 Y46.73224
X55.13995 Y46.60153
X55.45252 Y46.28190
X55.60428 Y45.91677
X55.61330 Y45.74659
X55.60395 Y45.52137
X55.45158 Y45.15655
X55.30108 Y44.99221
X55.17152 Y44.87796
X54.94553 Y44.77360
X54.80639 Y44.72752
X54.41175 Y44.72790
X54.27442 Y44.77352
X54.04698 Y44.87901
X53.91887 Y44.99219
X53.76743 Y45.15805
X53.61567 Y45.52318
X53.61600 Y45.91855
X53.76837 Y46.28337
X54.08005 Y46.60153
G04 P0 ( dwell for no time -- G64 should not smooth over this point )
G00 Z1.00000 ( retract )

G00 X59.16963 Y47.88573 ( rapid move to begin. )
F150.00000
G01 Z-0.06000
G04 P0 ( dwell for no time -- G64 should not smooth over this point )
F300.00000
G01 X59.16963 Y47.88573
X59.25863 Y47.67085
X59.44588 Y47.85802
X59.40328 Y47.99901
X59.38502 Y48.17996
X59.40328 Y48.36094
X59.44583 Y48.50188
X59.26468 Y48.68309
X59.14720 Y48.35637
X59.16963 Y47.88573
G04 P0 ( dwell for no time -- G64 should not smooth over this point )
G00 Z1.00000 ( retract )

G00 X60.00191 Y47.29970 ( rapid move to begin. )
F150.00000
G01 Z-0.06000
G04 P0 ( dwell for no time -- G64 should not smooth over this point )
F300.00000
G01 X60.00191 Y47.29970
X59.82183 Y47.11967
X60.14855 Y47.00222
X60.61921 Y47.02462
X60.83409 Y47.11362
X60.64806 Y47.29973
X60.40862 Y47.24441
X60.22673 Y47.24517
X60.00191 Y47.29970
G04 P0 ( dwell for no time -- G64 should not smooth over this point )
G00 Z1.00000 ( retract )

G00 X61.50270 Y48.00354 ( rapid move to begin. )
F150.00000
G01 Z-0.06000
G04 P0 ( dwell for no time -- G64 should not smooth over this point )
F300.00000
G01 X61.50270 Y48.00354
X61.48029 Y48.47420
X61.39129 Y48.68908
X61.20409 Y48.50196
X61.24669 Y48.36094
X61.26495 Y48.17996
X61.24669 Y47.99901
X61.20412 Y47.85802
X61.38525 Y47.67684
X61.50270 Y48.00354
G04 P0 ( dwell for no time -- G64 should not smooth over this point )
G00 Z1.00000 ( retract )

G00 X59.81583 Y49.24631 ( rapid move to begin. )
F150.00000
G01 Z-0.06000
G04 P0 ( dwell for no time -- G64 should not smooth over this point )
F300.00000
G01 X59.81583 Y49.24631
X60.00186 Y49.06023
X60.24138 Y49.11557
X60.43770 Y49.11250
X60.64806 Y49.06025
X60.82810 Y49.24026
X60.50138 Y49.35771
X60.03072 Y49.33531
X59.81583 Y49.24631
G04 P0 ( dwell for no time -- G64 should not smooth over this point )
G00 Z1.00000 ( retract )

G00 X60.00194 Y52.45971 ( rapid move to begin. )
F150.00000
G01 Z-0.06000
G04 P0 ( dwell for no time -- G64 should not smooth over this point )
F300.00000
G01 X60.00194 Y52.45971
X59.82183 Y52.27968
X60.14855 Y52.16220
X60.61921 Y52.18463
X60.83409 Y52.27363
X60.64806 Y52.45974
X60.40862 Y52.40442
X60.22673 Y52.40518
X60.00194 Y52.45971
G04 P0 ( dwell for no time -- G64 should not smooth over this point )
G00 Z1.00000 ( retract )

G00 X59.16963 Y53.04572 ( rapid move to begin. )
F150.00000
G01 Z-0.06000
G04 P0 ( dwell for no time -- G64 should not smooth over this point )
F300.00000
G01 X59.16963 Y53.04572
X59.25863 Y52.83083
X59.44588 Y53.01803
X59.40328 Y53.15902
X59.38502 Y53.33997
X59.40328 Y53.52095
X59.44583 Y53.66187
X59.26468 Y53.84310
X59.14720 Y53.51638
X59.16963 Y53.04572
G04 P0 ( dwell for no time -- G64 should not smooth over this point )
G00 Z1.00000 ( retract )

G00 X60.00186 Y54.22024 ( rapid move to begin. )
F150.00000
G01 Z-0.06000
G04 P0 ( dwell for no time -- G64 should not smooth over this point )
F300.00000
G01 X60.00186 Y54.22024
X60.24138 Y54.27558
X60.43770 Y54.27251
X60.64804 Y54.22026
X60.82807 Y54.40025
X60.50138 Y54.51772
X60.03072 Y54.49529
X59.81586 Y54.40632
X60.00186 Y54.22024
G04 P0 ( dwell for no time -- G64 should not smooth over this point )
G00 Z1.00000 ( retract )

G00 X61.50270 Y53.16352 ( rapid move to begin. )
F150.00000
G01 Z-0.06000
G04 P0 ( dwell for no time -- G64 should not smooth over this point )
F300.00000
G01 X61.50270 Y53.16352
X61.48029 Y53.63421
X61.39132 Y53.84907
X61.20409 Y53.66194
X61.24669 Y53.52095
X61.26495 Y53.33997
X61.24669 Y53.15902
X61.20412 Y53.01803
X61.38525 Y52.83685
X61.50270 Y53.16352
G04 P0 ( dwell for no time -- G64 should not smooth over this point )
G00 Z1.00000 ( retract )

G00 X63.20800 Y49.23048 ( rapid move to begin. )
F150.00000
G01 Z-0.06000
G04 P0 ( dwell for no time -- G64 should not smooth over this point )
F300.00000
G01 X63.20800 Y49.23048
X63.10452 Y49.12700
X63.04846 Y48.99170
X63.05075 Y48.61397
X63.27651 Y48.61397
X63.27917 Y48.94580
X63.30008 Y48.99624
X63.33871 Y49.03488
X63.41648 Y49.05847
X63.72101 Y49.05847
X63.71862 Y49.28652
X63.34333 Y49.28652
X63.20800 Y49.23048
G04 P0 ( dwell for no time -- G64 should not smooth over this point )
G00 Z1.00000 ( retract )

G00 X64.95346 Y48.61397 ( rapid move to begin. )
F150.00000
G01 Z-0.06000
G04 P0 ( dwell for no time -- G64 should not smooth over this point )
F300.00000
G01 X64.95346 Y48.61397
X65.18151 Y48.61631
X65.18151 Y48.99157
X65.12547 Y49.12693
X65.02199 Y49.23041
X64.88661 Y49.28652
X64.51130 Y49.28652
X64.50896 Y49.05847
X64.84079 Y49.05578
X64.89123 Y49.03488
X64.92987 Y48.99624
X64.95346 Y48.91850
X64.95346 Y48.61397
G04 P0 ( dwell for no time -- G64 should not smooth over this point )
G00 Z1.00000 ( retract )

G00 X68.05963 Y47.88573 ( rapid move to begin. )
F150.00000
G01 Z-0.06000
G04 P0 ( dwell for no time -- G64 should not smooth over this point )
F300.00000
G01 X68.05963 Y47.88573
X68.14863 Y47.67085
X68.33588 Y47.85802
X68.29328 Y47.99901
X68.27502 Y48.17996
X68.29328 Y48.36094
X68.33583 Y48.50188
X68.15468 Y48.68309
X68.03720 Y48.35637
X68.05963 Y47.88573
G04 P0 ( dwell for no time -- G64 should not smooth over this point )
G00 Z1.00000 ( retract )

G00 X68.71183 Y47.11967 ( rapid move to begin. )
F150.00000
G01 Z-0.06000
G04 P0 ( dwell for no time -- G64 should not smooth over this point )
F300.00000
G01 X68.71183 Y47.11967
X69.03855 Y47.00222
X69.50921 Y47.02462
X69.72409 Y47.11362
X69.53806 Y47.29973
X69.29862 Y47.24441
X69.11673 Y47.24517
X68.89191 Y47.29970
X68.71183 Y47.11967
G04 P0 ( dwell for no time -- G64 should not smooth over this point )
G00 Z1.00000 ( retract )

G00 X70.39270 Y48.00354 ( rapid move to begin. )
F150.00000
G01 Z-0.06000
G04 P0 ( dwell for no time -- G64 should not smooth over this point )
F300.00000
G01 X70.39270 Y48.00354
X70.37029 Y48.47420
