( pcb2gcode 1.3.2 )
( Software-independent Gcode )

G94 ( Millimeters per minute feed rate. )
G21 ( Units == Millimeters. )

G90 ( Absolute coordinates. )
S10000 ( RPM spindle speed. )
F600.00000 ( Feedrate. )

F600.00000 ( Feedrate. )
M3 ( Spindle on clockwise. )
( Piece #1, position [0;0] )

G04 P0 ( dwell for no time -- G64 should not smooth over this point )
G00 Z5.00000 ( retract )

G00 X0.17780 Y1.67780 ( rapid move to begin. )
G01 Z-2.50000 F300.00000 ( plunge. )
G04 P0 ( dwell for no time -- G64 should not smooth over this point )
F600.00000
G01 X0.17780 Y1.67780
X0.17780 Y42.69880
X0.20661 Y42.99143
X0.29198 Y43.27282
X0.43058 Y43.53215
X0.61712 Y43.75945
X0.84443 Y43.94599
X1.10376 Y44.08460
X1.38514 Y44.16997
X1.67780 Y44.19880
X38.85330 Y44.19880
Z-0.60000
X42.35330 Y44.19880
Z-2.50000 F300.00000
F600.00000
G01 X79.52880 Y44.19880
X79.82143 Y44.16997
X80.10281 Y44.08460
X80.36215 Y43.94599
X80.58945 Y43.75945
X80.77599 Y43.53215
X80.91460 Y43.27282
X80.99997 Y42.99143
X81.02880 Y42.69880
X81.02880 Y1.67780
X80.99997 Y1.38514
X80.91460 Y1.10376
X80.77599 Y0.84443
X80.58945 Y0.61712
X80.36215 Y0.43058
X80.10281 Y0.29198
X79.82143 Y0.20661
X79.52880 Y0.17780
X42.35330 Y0.17780
Z-0.60000
X38.85330 Y0.17780
Z-2.50000 F300.00000
F600.00000
G01 X1.67780 Y0.17780
X1.38514 Y0.20661
X1.10376 Y0.29198
X0.84443 Y0.43058
X0.61712 Y0.61712
X0.43058 Y0.84443
X0.29198 Y1.10376
X0.20661 Y1.38514
X0.17780 Y1.67780
G04 P0 ( dwell for no time -- G64 should not smooth over this point )
G00 Z5.00000 ( retract )

G00 X6.70492 Y11.70610 ( rapid move to begin. )
G01 Z-2.50000 F300.00000 ( plunge. )
G04 P0 ( dwell for no time -- G64 should not smooth over this point )
F600.00000
G01 X6.70492 Y11.70610
X6.39958 Y12.01311
X6.13072 Y12.10437
X5.41094 Y11.91812
X5.17586 Y11.87250
X4.62334 Y11.83196
X4.31983 Y11.75591
X4.01635 Y11.62919
X3.71285 Y11.45177
X3.47683 Y11.39358
X3.16256 Y11.28312
X2.85489 Y11.65378
X2.63510 Y12.02447
X2.55819 Y12.20978
X2.50325 Y12.39513
X2.47028 Y12.58047
X2.45931 Y14.46579
X2.47150 Y14.66116
X2.50815 Y14.85654
X2.56919 Y15.05192
X2.65468 Y15.24729
X2.76456 Y15.44267
X2.89890 Y15.63805
X3.18046 Y15.95981
X4.94079 Y15.96578
X5.23342 Y15.93695
X5.51480 Y15.85158
X5.77413 Y15.71298
X6.00144 Y15.52644
X6.20578 Y15.26578
X6.38257 Y15.26578
X6.56374 Y15.42377
X6.83077 Y15.60762
X7.12356 Y15.74699
X7.42168 Y15.84384
X7.74035 Y15.90317
X8.22120 Y15.90317
X8.53986 Y15.84384
X8.83806 Y15.74694
X8.99084 Y15.67892
X9.26237 Y15.52215
X9.39767 Y15.42385
X9.51975 Y15.32502
X9.74273 Y15.08961
X9.92691 Y14.83614
X10.08192 Y14.55128
X10.18990 Y14.24549
X10.25502 Y13.93907
X10.27890 Y13.65108
X10.47189 Y13.43546
X10.42078 Y12.30580
X10.42078 Y10.97453
X10.56038 Y10.72891
X10.66107 Y10.48329
X10.61733 Y10.23181
X10.46752 Y9.64962
X10.43079 Y9.38525
X10.42203 Y9.12356
X10.46752 Y8.69196
X10.61733 Y8.10977
X10.65236 Y7.91121
X10.72691 Y7.08231
X10.54481 Y6.98498
X10.26343 Y6.89961
X9.97080 Y6.87081
X8.37080 Y6.87081
X8.07814 Y6.89961
X7.79676 Y6.98498
X7.53743 Y7.12359
X7.31012 Y7.31012
X7.12359 Y7.53743
X6.98498 Y7.79676
X6.89961 Y8.07814
X6.87080 Y8.37080
X6.87080 Y9.97080
X6.90070 Y10.15203
X7.02293 Y10.61583
X7.12359 Y10.80415
X7.31012 Y11.03145
X7.52082 Y11.20435
X7.52082 Y11.36666
X7.12348 Y11.48464
X6.97070 Y11.55266
X6.70492 Y11.70610
G04 P0 ( dwell for no time -- G64 should not smooth over this point )
G00 Z5.00000 ( retract )

G00 X14.14785 Y11.63503 ( rapid move to begin. )
G01 Z-2.50000 F300.00000 ( plunge. )
G04 P0 ( dwell for no time -- G64 should not smooth over this point )
F600.00000
G01 X14.14785 Y11.63503
X13.83800 Y11.48459
X13.53988 Y11.38774
X13.32078 Y11.34418
X13.32078 Y10.76899
X13.43274 Y10.64461
X13.61692 Y10.39114
X13.77193 Y10.10628
X13.87991 Y9.80049
X13.94503 Y9.49407
X13.97077 Y9.17078
X13.94503 Y8.84751
X13.87991 Y8.54108
X13.82825 Y8.38203
X13.70056 Y8.09526
X13.61692 Y7.95043
X13.43274 Y7.69697
X13.20981 Y7.46161
X12.82075 Y7.17893
X12.52799 Y7.03959
X12.22987 Y6.94274
X11.91121 Y6.88340
X11.43036 Y6.88340
X11.11169 Y6.94274
X10.72713 Y7.07809
X10.65236 Y7.91121
X10.61733 Y8.10977
X10.46752 Y8.69196
X10.42203 Y9.12356
X10.43079 Y9.38525
X10.46752 Y9.64962
X10.61733 Y10.23181
X10.66107 Y10.48329
X10.56038 Y10.72891
X10.42078 Y10.97453
X10.42078 Y12.30580
X10.47194 Y13.43706
X10.68263 Y13.65106
X10.70653 Y13.93907
X10.77166 Y14.24549
X10.87964 Y14.55126
X10.95101 Y14.69131
X11.03465 Y14.83614
X11.21883 Y15.08961
X11.45616 Y15.33663
X11.84931 Y15.31529
X12.14999 Y15.27635
X12.56091 Y15.18900
X12.89716 Y15.08072
X13.18024 Y14.95631
X13.42428 Y14.81755
X13.63902 Y14.66406
X14.09822 Y14.26002
X16.39243 Y14.25080
X16.53388 Y14.19020
X16.67536 Y14.10650
X16.95831 Y13.86978
X17.53753 Y13.29325
X16.56855 Y12.88951
X16.33042 Y12.81509
X15.90180 Y12.77443
X15.71130 Y12.72680
X15.47317 Y12.71479
X15.29855 Y12.67877
X15.12392 Y12.61875
X14.94930 Y12.53470
X14.45334 Y12.25962
X14.14785 Y11.63503
G04 P0 ( dwell for no time -- G64 should not smooth over this point )
G00 Z5.00000 ( retract )

G00 X19.85490 Y12.98080 ( rapid move to begin. )
G01 Z-2.50000 F300.00000 ( plunge. )
G04 P0 ( dwell for no time -- G64 should not smooth over this point )
F600.00000
G01 X19.85490 Y12.98080
X21.62676 Y12.98080
X21.83328 Y12.95878
X22.44230 Y12.95779
X22.66623 Y12.92276
X22.89018 Y12.81771
X23.00984 Y12.59980
X23.07047 Y12.45342
X23.08733 Y11.80194
X23.03280 Y11.26991
X23.23930 Y10.76544
X23.52078 Y10.26480
X23.52078 Y8.58419
X24.45916 Y7.64578
X26.01389 Y7.64578
Z-0.60000
X29.51389 Y7.64578
Z-2.50000 F300.00000
F600.00000
G01 X31.06862 Y7.64578
X31.28767 Y7.83382
X31.56369 Y8.00578
X31.86194 Y8.07446
X32.14695 Y8.11822
X32.51591 Y8.14787
X32.96514 Y8.13908
X33.40644 Y8.08579
X33.77525 Y8.00580
X34.09976 Y7.79059
X34.22259 Y7.68515
X34.43184 Y7.46504
X34.53090 Y7.33705
X34.69137 Y7.07959
X34.76267 Y6.93425
X34.86811 Y6.64952
X34.90867 Y6.49283
X34.95462 Y6.19296
X34.96282 Y6.03131
X34.94743 Y5.72814
X34.92292 Y5.56814
X34.84687 Y5.27439
X34.79066 Y5.12260
X34.65696 Y4.85001
X34.57133 Y4.71264
X34.38556 Y4.47264
X34.27403 Y4.35532
X34.04390 Y4.15776
X33.91106 Y4.06527
X33.64548 Y3.91785
X33.49671 Y3.85402
X33.20725 Y3.76322
X33.04871 Y3.73063
X32.74195 Y3.69774
X32.35292 Y3.71988
X32.05562 Y3.78100
X31.90118 Y3.82946
X31.62232 Y3.94914
X31.48079 Y4.02771
X31.23182 Y4.20099
X31.07154 Y4.34582
X29.17367 Y4.34582
Z-0.60000
X25.67367 Y4.34582
Z-2.50000 F300.00000
F600.00000
G01 X23.77580 Y4.34582
X23.60018 Y4.35582
X23.31085 Y4.41333
X22.98510 Y4.54833
X22.74126 Y4.71125
X22.60908 Y4.82905
X20.70408 Y6.73403
X20.58625 Y6.86623
X20.42333 Y7.11007
X20.29686 Y7.40771
X20.23082 Y7.72516
X20.22082 Y7.90078
X20.22082 Y11.05281
X20.05208 Y11.25843
X19.91348 Y11.51776
X19.82811 Y11.79914
X19.79930 Y12.09180
X19.79930 Y12.59980
X19.82811 Y12.89243
X19.85490 Y12.98080
G04 P0 ( dwell for no time -- G64 should not smooth over this point )
G00 Z5.00000 ( retract )

G00 X27.22769 Y15.26578 ( rapid move to begin. )
G01 Z-2.50000 F300.00000 ( plunge. )
G04 P0 ( dwell for no time -- G64 should not smooth over this point )
F600.00000
G01 X27.22769 Y15.26578
X27.44673 Y15.01669
X27.68245 Y14.77968
X28.01531 Y14.49439
X28.18255 Y14.37287
X28.46848 Y14.19896
X28.72151 Y14.08062
X28.95202 Y14.00193
X29.20584 Y13.94735
X29.40718 Y13.92799
X29.60850 Y13.92977
X29.98158 Y13.98903
X30.26006 Y14.08062
X30.60289 Y14.25080
X31.55369 Y14.25080
X31.72925 Y14.34648
X31.95976 Y14.44531
X32.17500 Y14.51255
X32.38084 Y14.55423
X32.58218 Y14.57361
X32.78350 Y14.57181
X32.98932 Y14.54811
X33.20456 Y14.49964
X33.60232 Y14.34648
X33.85533 Y14.20607
X34.14126 Y14.00719
X34.47413 Y13.72190
X34.65165 Y13.54801
X34.73526 Y13.31405
X34.84972 Y12.90846
X34.76691 Y12.68029
X34.69556 Y12.54026
X34.61192 Y12.39543
X34.42775 Y12.14197
X34.20481 Y11.90661
X33.81576 Y11.62393
X33.49724 Y11.54245
X33.03473 Y11.47798
X32.74942 Y11.46300
X32.29684 Y11.47798
X31.83425 Y11.54247
X31.56374 Y11.60575
X31.38419 Y11.70943
X31.06758 Y11.96582
X30.95194 Y11.96582
Z-0.60000
X27.45194 Y11.96582
Z-2.50000 F300.00000
F600.00000
G01 X27.33630 Y11.96582
X26.40498 Y12.35157
X25.96625 Y12.73719
X25.59040 Y13.00386
X25.14900 Y13.39406
X24.93427 Y13.54755
X24.82015 Y13.61580
X24.32571 Y13.61580
X23.93864 Y13.85121
X23.41400 Y14.31201
X22.71520 Y14.32581
X22.57875 Y14.28679
X22.44230 Y14.27379
X21.83313 Y14.27280
X21.62683 Y14.25080
X19.85493 Y14.25080
X19.82811 Y14.33914
X19.79930 Y14.63180
X19.79930 Y15.13980
X19.82811 Y15.43243
X19.85490 Y15.52080
X21.62681 Y15.52080
X21.83943 Y15.49860
X22.11474 Y15.52080
X22.74243 Y15.52080
X22.97860 Y15.63485
X23.21476 Y15.81331
X23.39155 Y16.24389
X23.43333 Y16.98295
X23.75985 Y17.43919
X23.90841 Y17.68661
X23.83176 Y18.01861
X23.71263 Y18.82702
X23.65934 Y19.07700
X23.52533 Y19.51790
X23.38080 Y19.86499
X23.38080 Y20.13080
X23.40961 Y20.42343
X23.49498 Y20.70481
X23.65012 Y20.98429
X24.35124 Y21.53009
X24.58814 Y21.60197
X24.88080 Y21.63080
X26.48080 Y21.63080
X26.77343 Y21.60197
X27.05481 Y21.51660
X27.23688 Y21.41929
X27.16233 Y20.59026
X27.12733 Y20.39181
X26.97752 Y19.80962
X26.93203 Y19.37802
X26.94079 Y19.11632
X26.97752 Y18.85196
X27.12733 Y18.26977
X27.17107 Y18.01828
X27.07038 Y17.77266
X26.93078 Y17.52705
X26.94775 Y16.36982
X26.53040 Y15.94198
X26.64824 Y15.67455
X26.69990 Y15.51549
X26.75296 Y15.26578
X27.22769 Y15.26578
G04 P0 ( dwell for no time -- G64 should not smooth over this point )
G00 Z5.00000 ( retract )

G00 X23.37489 Y19.87825 ( rapid move to begin. )
G01 Z-2.50000 F300.00000 ( plunge. )
G04 P0 ( dwell for no time -- G64 should not smooth over this point )
F600.00000
G01 X23.37489 Y19.87825
X23.52533 Y19.51790
X23.65934 Y19.07700
X23.71263 Y18.82702
X23.83176 Y18.01861
X23.90841 Y17.68661
X23.75985 Y17.43919
X23.43333 Y16.98295
X23.39155 Y16.24389
X23.21476 Y15.81331
X22.97860 Y15.63485
X22.74243 Y15.52080
X22.11474 Y15.52080
X21.90214 Y15.49860
X21.62681 Y15.52080
X19.85493 Y15.52080
X19.82811 Y15.60914
X19.79930 Y15.90180
X19.79930 Y16.40980
X19.82811 Y16.70243
X19.90474 Y16.95494
X19.76964 Y17.20528
X19.66166 Y17.51107
X19.59653 Y17.81749
X19.57903 Y17.98381
X19.57903 Y18.29773
X19.59653 Y18.46405
X19.66166 Y18.77048
X19.76964 Y19.07624
X19.92465 Y19.36113
X20.10883 Y19.61459
X20.33174 Y19.84993
X20.72079 Y20.13260
X21.01358 Y20.27197
X21.31170 Y20.36882
X21.63036 Y20.42816
X22.11121 Y20.42816
X22.42988 Y20.36882
X22.72808 Y20.27192
X22.88086 Y20.20390
X23.15238 Y20.04713
X23.37489 Y19.87825
G04 P0 ( dwell for no time -- G64 should not smooth over this point )
G00 Z5.00000 ( retract )

G00 X24.06968 Y25.05761 ( rapid move to begin. )
G01 Z-2.50000 F300.00000 ( plunge. )
G04 P0 ( dwell for no time -- G64 should not smooth over this point )
F600.00000
G01 X24.06968 Y25.05761
X23.80288 Y25.00077
X22.82688 Y24.74346
X22.48363 Y24.60359
X22.14934 Y24.42396
X21.87075 Y24.29787
X21.59224 Y24.42396
X21.25790 Y24.60361
X20.91477 Y24.74346
X19.93872 Y25.00077
X19.67192 Y25.05759
X19.58742 Y25.22037
X19.46654 Y25.56576
X19.39323 Y25.94981
X19.56067 Y26.37483
X19.78137 Y26.80607
X20.02577 Y27.18174
X20.15409 Y27.34895
X20.45274 Y27.68016
X20.85008 Y27.81956
X21.40240 Y27.93833
X21.76633 Y27.96843
X21.97527 Y27.96843
X22.50235 Y27.91242
X22.89142 Y27.81958
X23.30806 Y27.67173
X23.76541 Y27.45169
X24.17455 Y27.20056
X24.27504 Y26.90833
X24.34021 Y26.60165
X24.37026 Y26.23704
X24.34021 Y25.87244
X24.27504 Y25.56576
X24.15416 Y25.22035
X24.06968 Y25.05761
G04 P0 ( dwell for no time -- G64 should not smooth over this point )
G00 Z5.00000 ( retract )

G00 X24.16650 Y27.20582 ( rapid move to begin. )
G01 Z-2.50000 F300.00000 ( plunge. )
G04 P0 ( dwell for no time -- G64 should not smooth over this point )
F600.00000
G01 X24.16650 Y27.20582
X23.76541 Y27.45169
X23.30806 Y27.67173
X22.89142 Y27.81958
X22.50235 Y27.91242
X22.13024 Y27.96027
X21.61134 Y27.96027
X21.23928 Y27.91242
X20.85008 Y27.81956
X20.45274 Y27.68016
X20.15409 Y27.34895
X20.02577 Y27.18174
X19.78137 Y26.80607
X19.56067 Y26.37483
X19.39323 Y25.94979
X19.07578 Y25.63234
X19.07578 Y24.04192
X19.02166 Y23.56556
X19.03707 Y23.15713
X19.01515 Y22.68695
X19.07578 Y22.18825
X19.06849 Y14.73820
X18.99969 Y14.39274
X18.88709 Y14.12103
X18.71030 Y13.85126
X18.48302 Y13.61989
X18.19052 Y13.42446
X17.89070 Y13.30333
X17.65026 Y13.25553
X17.53753 Y13.29325
X16.95831 Y13.86978
X16.67536 Y14.10650
X16.53388 Y14.19020
X16.39243 Y14.25080
X14.09822 Y14.26002
X13.63902 Y14.66406
X13.42428 Y14.81755
X13.18024 Y14.95631
X12.89716 Y15.08072
X12.56091 Y15.18900
X12.14999 Y15.27635
X11.84931 Y15.31529
X11.46673 Y15.33637
X10.42625 Y16.39126
X10.24946 Y16.66103
X10.13686 Y16.93274
X10.11459 Y17.03002
X9.91390 Y16.85776
X9.78106 Y16.76527
X9.51548 Y16.61785
X9.36671 Y16.55402
X9.07725 Y16.46322
X8.69287 Y16.40185
X8.38396 Y16.40350
X8.22292 Y16.41988
X7.92562 Y16.48100
X7.77118 Y16.52946
X7.49232 Y16.64914
X7.35079 Y16.72771
X7.10182 Y16.90099
X6.94154 Y17.04582
X6.20583 Y17.04582
X6.00144 Y16.78514
X5.77413 Y16.59860
X5.51480 Y16.45999
X5.23342 Y16.37462
X4.94079 Y16.34582
X3.24081 Y16.34582
X3.18049 Y16.35174
X2.89890 Y16.67355
X2.76456 Y16.86893
X2.65468 Y17.06431
X2.56919 Y17.25968
X2.50815 Y17.45506
X2.47150 Y17.65044
X2.45931 Y17.84582
X2.45931 Y19.54579
X2.47285 Y19.75158
X2.51349 Y19.95737
X2.58123 Y20.16318
X2.67607 Y20.36897
X3.00571 Y20.43908
X3.55824 Y20.47962
X3.86174 Y20.55566
X4.16522 Y20.68239
X4.46873 Y20.85980
X4.70474 Y20.91800
X5.03883 Y21.03613
X5.23342 Y21.01695
X5.51480 Y20.93158
X5.77413 Y20.79298
X6.00144 Y20.60644
X6.20578 Y20.34578
X6.93862 Y20.34578
X7.15767 Y20.53382
X7.29051 Y20.62630
X7.55610 Y20.77372
X7.70486 Y20.83755
X7.99432 Y20.92836
X8.37870 Y20.98973
X8.68762 Y20.98807
X8.84865 Y20.97169
X9.14596 Y20.91058
X9.30039 Y20.86212
X9.57926 Y20.74243
X9.72079 Y20.66387
X10.04527 Y20.42577
X10.11258 Y20.42577
X10.29376 Y20.58376
X10.56079 Y20.76760
X10.94712 Y20.93735
X11.79442 Y20.95648
X12.50404 Y20.92775
X12.72086 Y20.83890
X12.99238 Y20.68213
X13.24976 Y20.48500
X13.47275 Y20.24959
X13.65692 Y19.99613
X13.81194 Y19.71127
X13.86825 Y19.56453
X13.92809 Y19.09306
X13.92809 Y18.45849
X13.87082 Y17.99489
X13.75042 Y17.71960
X13.87077 Y17.59926
X13.94410 Y17.42224
X13.95446 Y17.13639
X13.98667 Y16.87236
X14.04069 Y16.63017
X14.11654 Y16.40980
X14.32697 Y15.90180
X14.41816 Y15.72306
X14.53358 Y15.56855
X14.64915 Y15.52080
X16.39243 Y15.52080
X16.65801 Y15.65357
X16.68404 Y15.90180
X16.68404 Y16.40980
X16.67086 Y16.58636
X16.63136 Y16.76294
X16.56550 Y16.93952
X16.47330 Y17.11610
X16.47271 Y19.72804
Z-0.60000
X16.47193 Y23.22804
Z-2.50000 F300.00000
F600.00000
G01 X16.47134 Y25.83998
X16.41681 Y26.22322
X16.29080 Y26.67531
X16.24013 Y26.93208
X16.19862 Y27.41585
X16.58547 Y27.80891
X16.90073 Y27.83170
X17.41254 Y27.90914
X17.81574 Y28.01580
X18.14442 Y28.14198
X18.41993 Y28.28336
X18.73578 Y28.49949
X18.93212 Y28.67371
X19.16804 Y28.94417
X19.72483 Y29.17244
X19.91589 Y29.21132
X24.24829 Y29.21132
Z-0.60000
X27.74829 Y29.21132
Z-2.50000 F300.00000
F600.00000
G01 X32.08069 Y29.21132
X32.22445 Y29.18681
X32.39979 Y29.12176
X36.17859 Y25.34191
X36.28921 Y25.19721
X36.35101 Y25.08144
X36.79330 Y24.01619
X36.79330 Y17.11610
X36.70107 Y16.93952
X36.63521 Y16.76294
X36.59571 Y16.58636
X36.58253 Y16.40980
X36.58477 Y15.82893
X36.66384 Y15.69090
X36.75858 Y15.56855
X36.87415 Y15.52080
X39.76165 Y15.52080
X39.78847 Y15.43243
X39.81730 Y15.13980
X39.81730 Y14.63180
X39.78847 Y14.33914
X39.76167 Y14.25080
X36.73879 Y14.25080
X36.41220 Y14.38872
X36.20145 Y14.52817
X34.19082 Y16.53573
X34.19082 Y24.36229
X31.34729 Y27.20582
X24.16650 Y27.20582
G04 P0 ( dwell for no time -- G64 should not smooth over this point )
G00 Z5.00000 ( retract )

G00 X34.19077 Y16.53578 ( rapid move to begin. )
G01 Z-2.50000 F300.00000 ( plunge. )
G04 P0 ( dwell for no time -- G64 should not smooth over this point )
F600.00000
G01 X34.19077 Y16.53578
X36.20145 Y14.52817
X36.41220 Y14.38872
X36.73879 Y14.25080
X39.76165 Y14.25080
X39.78847 Y14.16243
X39.81730 Y13.86980
X39.81262 Y13.31412
X38.79355 Y12.88951
X38.55542 Y12.81509
X38.12680 Y12.77443
X37.93630 Y12.72680
X37.73269 Y12.71542
X37.52843 Y12.67214
X37.35136 Y12.61258
X36.68505 Y12.26317
X36.37280 Y11.97082
X36.32947 Y11.97295
X35.98274 Y12.04186
X35.71103 Y12.15446
X35.44126 Y12.33125
X34.84972 Y12.90839
X34.73526 Y13.31405
X34.65165 Y13.54801
X34.47413 Y13.72190
X34.14126 Y14.00719
X33.85533 Y14.20607
X33.60232 Y14.34648
X33.20456 Y14.49964
X32.98932 Y14.54811
X32.78350 Y14.57181
X32.58218 Y14.57361
X32.38084 Y14.55423
X32.17500 Y14.51255
X31.95976 Y14.44531
X31.72925 Y14.34648
X31.55369 Y14.25080
X30.60289 Y14.25080
X30.26006 Y14.08062
X30.02961 Y14.00193
X29.81432 Y13.95347
X29.57442 Y13.92799
X29.20584 Y13.94735
X28.95202 Y14.00193
X28.55425 Y14.15509
X28.30124 Y14.29550
X28.01531 Y14.49439
X27.68245 Y14.77968
X27.44673 Y15.01669
X27.22840 Y15.26492
X27.28166 Y15.51549
X27.42413 Y15.88892
X26.94773 Y16.37226
X26.93078 Y17.52705
X27.07038 Y17.77266
X27.17107 Y18.01828
X27.12733 Y18.26977
X27.00018 Y18.74566
X26.95103 Y19.01919
X26.93203 Y19.28356
X26.94079 Y19.54525
X26.97752 Y19.80962
X27.12733 Y20.39181
X27.16233 Y20.59026
X27.23711 Y21.42348
X27.62169 Y21.55884
X27.94036 Y21.61817
X28.42121 Y21.61817
X28.73987 Y21.55884
X29.03807 Y21.46194
X29.19085 Y21.39392
X29.46238 Y21.23715
X29.71976 Y21.04002
X29.94274 Y20.80461
X30.12692 Y20.55114
X30.21056 Y20.40631
X30.33825 Y20.11955
X30.38991 Y19.96049
X30.45503 Y19.65407
X30.48076 Y19.33078
X30.45503 Y19.00751
X30.38991 Y18.70108
X30.33825 Y18.54203
X30.21056 Y18.25526
X30.01864 Y17.96139
X30.77530 Y17.19029
X30.95209 Y16.92052
X31.06469 Y16.64881
X31.09011 Y16.53578
X34.19077 Y16.53578
G04 P0 ( dwell for no time -- G64 should not smooth over this point )
G00 Z5.00000 ( retract )

G00 X45.59989 Y19.87825 ( rapid move to begin. )
G01 Z-2.50000 F300.00000 ( plunge. )
G04 P0 ( dwell for no time -- G64 should not smooth over this point )
F600.00000
G01 X45.59989 Y19.87825
X45.75033 Y19.51790
X45.88434 Y19.07700
X45.93763 Y18.82702
X46.05676 Y18.01861
X46.13341 Y17.68661
X45.98485 Y17.43919
X45.65833 Y16.98295
X45.61655 Y16.24389
X45.43976 Y15.81331
X45.20360 Y15.63485
X44.96743 Y15.52080
X44.33974 Y15.52080
X44.12714 Y15.49860
X43.85181 Y15.52080
X42.07993 Y15.52080
X42.05311 Y15.60914
X42.02430 Y15.90180
X42.02430 Y16.40980
X42.05311 Y16.70243
X42.12974 Y16.95494
X41.99464 Y17.20528
X41.93832 Y17.35201
X41.88666 Y17.51107
X41.81544 Y17.87551
X40.18412 Y19.51706
X39.98334 Y19.80725
X39.82631 Y20.18615
X39.76868 Y20.47586
X39.75580 Y20.68079
X39.75580 Y23.77580
X39.76871 Y23.98075
X39.84321 Y24.32604
X39.95585 Y24.59792
X40.14681 Y24.89401
X40.28301 Y25.04857
X41.51920 Y26.28474
X41.54762 Y26.68039
X41.61280 Y26.98707
X41.67736 Y27.18580
X41.80500 Y27.47244
X41.90950 Y27.65339
X42.09372 Y27.90693
X42.23352 Y28.06220
X42.46649 Y28.27198
X42.76725 Y28.48039
X43.09816 Y28.63670
X43.39639 Y28.73358
X43.60075 Y28.77701
X43.91259 Y28.80980
X44.12153 Y28.80980
X44.43334 Y28.77701
X44.78940 Y28.69294
X45.26677 Y28.48039
X45.68955 Y28.17323
X45.94037 Y27.90693
X46.12460 Y27.65339
X46.22910 Y27.47244
X46.30042 Y27.33246
X46.42130 Y26.98707
X46.48647 Y26.68039
X46.50832 Y26.47259
X46.51652 Y26.31578
X46.48647 Y25.95118
X46.42130 Y25.64450
X46.35673 Y25.44577
X46.30042 Y25.29909
X46.20778 Y25.12223
X45.00027 Y24.78487
X44.65219 Y24.63224
X44.30819 Y24.44347
X43.95582 Y24.28423
X43.76519 Y24.04552
X43.60599 Y23.77539
X43.47825 Y23.47379
X43.38196 Y23.14078
X43.32372 Y23.04349
X43.29989 Y22.65797
X43.32753 Y22.27248
X43.35580 Y22.13471
X43.35580 Y21.42630
X44.35724 Y20.42483
X44.65488 Y20.36882
X44.95308 Y20.27192
X45.10586 Y20.20390
X45.37738 Y20.04713
X45.59989 Y19.87825
G04 P0 ( dwell for no time -- G64 should not smooth over this point )
G00 Z5.00000 ( retract )

G00 X49.45269 Y15.26578 ( rapid move to begin. )
G01 Z-2.50000 F300.00000 ( plunge. )
G04 P0 ( dwell for no time -- G64 should not smooth over this point )
F600.00000
G01 X49.45269 Y15.26578
X49.67173 Y15.01669
X49.90745 Y14.77968
X50.24031 Y14.49439
X50.40755 Y14.37287
X50.69348 Y14.19896
X50.94651 Y14.08062
X51.17702 Y14.00193
X51.43084 Y13.94735
X51.63218 Y13.92799
X51.83350 Y13.92977
X52.20658 Y13.98903
X52.48506 Y14.08062
X52.82789 Y14.25080
X53.77869 Y14.25080
X53.95425 Y14.34648
X54.18476 Y14.44531
X54.40000 Y14.51255
X54.60584 Y14.55423
X54.80718 Y14.57361
X55.00850 Y14.57181
X55.21432 Y14.54811
X55.42956 Y14.49964
X55.82732 Y14.34648
X56.08033 Y14.20607
X56.36626 Y14.00719
X56.69913 Y13.72190
X56.93484 Y13.48489
X57.15300 Y13.23584
X57.09991 Y12.98608
X56.99191 Y12.68029
X56.83692 Y12.39543
X56.65275 Y12.14197
X56.54083 Y12.01766
X56.42981 Y11.90661
X56.17253 Y11.70951
X55.90081 Y11.55261
X55.74800 Y11.48459
X55.44988 Y11.38774
X55.13121 Y11.32840
X54.65036 Y11.32840
X54.33170 Y11.38774
X54.03350 Y11.48464
X53.88072 Y11.55266
X53.60919 Y11.70943
X53.29258 Y11.96582
X53.17694 Y11.96582
Z-0.60000
X49.67694 Y11.96582
Z-2.50000 F300.00000
F600.00000
G01 X49.56130 Y11.96582
X48.62998 Y12.35157
X48.19125 Y12.73719
X47.81540 Y13.00386
X47.37400 Y13.39406
X47.15927 Y13.54755
X47.04515 Y13.61578
X46.55071 Y13.61580
X46.16364 Y13.85121
X45.63900 Y14.31201
X44.94020 Y14.32581
X44.80375 Y14.28679
X44.66730 Y14.27379
X44.05813 Y14.27280
X43.85183 Y14.25080
X42.07993 Y14.25080
X42.05311 Y14.33914
X42.02430 Y14.63180
X42.02430 Y15.13980
X42.05311 Y15.43243
X42.07990 Y15.52080
X43.85181 Y15.52080
X44.06443 Y15.49860
X44.33974 Y15.52080
X44.96743 Y15.52080
X45.20360 Y15.63485
X45.43976 Y15.81331
X45.61655 Y16.24389
X45.65833 Y16.98295
X45.98485 Y17.43919
X46.13341 Y17.68661
X46.05676 Y18.01861
X45.93763 Y18.82702
X45.88434 Y19.07700
X45.75033 Y19.51790
X45.60580 Y19.86499
X45.60580 Y20.13080
X45.63461 Y20.42343
X45.71998 Y20.70481
X45.87512 Y20.98429
X46.57624 Y21.53009
X46.81314 Y21.60197
X47.10580 Y21.63080
X48.70580 Y21.63080
X48.99843 Y21.60197
X49.27981 Y21.51660
X49.46188 Y21.41929
X49.38733 Y20.59026
X49.35233 Y20.39181
X49.20252 Y19.80962
X49.15703 Y19.37802
X49.16579 Y19.11632
X49.20252 Y18.85196
X49.35233 Y18.26977
X49.39607 Y18.01828
X49.29538 Y17.77266
X49.15578 Y17.52705
X49.17275 Y16.36982
X48.75540 Y15.94198
X48.87324 Y15.67455
X48.92490 Y15.51549
X48.97796 Y15.26578
X49.45269 Y15.26578
G04 P0 ( dwell for no time -- G64 should not smooth over this point )
G00 Z5.00000 ( retract )

G00 X48.91918 Y7.64573 ( rapid move to begin. )
G01 Z-2.50000 F300.00000 ( plunge. )
G04 P0 ( dwell for no time -- G64 should not smooth over this point )
F600.00000
G01 X48.91918 Y7.64573
X48.61380 Y7.84055
X48.45924 Y7.97672
X46.35917 Y10.07679
X46.15668 Y10.11774
X45.74578 Y10.26480
X45.46430 Y10.76544
X45.25780 Y11.26991
X45.31233 Y11.80194
X45.29547 Y12.45342
X45.23484 Y12.59980
X45.11518 Y12.81771
X44.89123 Y12.92276
X44.66730 Y12.95779
X44.05828 Y12.95878
X43.85176 Y12.98080
X42.07993 Y12.98080
X42.05311 Y13.06914
X42.02430 Y13.36180
X42.02430 Y13.86980
X42.05311 Y14.16243
X42.07990 Y14.25080
X43.85183 Y14.25080
X44.05813 Y14.27280
X44.66730 Y14.27379
X44.80375 Y14.28679
X44.94020 Y14.32581
X45.63900 Y14.31201
X46.16364 Y13.85121
X46.55071 Y13.61580
X47.04515 Y13.61578
X47.15927 Y13.54755
X47.37400 Y13.39406
X47.81540 Y13.00386
X48.19125 Y12.73719
X48.62998 Y12.35157
X49.56127 Y11.96582
X50.47755 Y11.04954
X51.65966 Y11.04954
Z-0.60000
X55.15966 Y11.04954
Z-2.50000 F300.00000
F600.00000
G01 X56.34178 Y11.04954
X56.51523 Y11.20572
X56.81599 Y11.41413
X57.14690 Y11.57044
X57.44513 Y11.66732
X57.64949 Y11.71075
X57.96133 Y11.74354
X58.17027 Y11.74354
X58.48208 Y11.71075
X58.83814 Y11.62668
X59.31551 Y11.41413
X59.61627 Y11.20580
X59.84931 Y10.99594
X59.98911 Y10.84067
X60.17334 Y10.58713
X60.28827 Y10.38571
X60.28830 Y8.11337
X60.17334 Y7.91193
X59.98911 Y7.65838
X59.84931 Y7.50311
X59.61634 Y7.29333
X59.31553 Y7.08493
X59.17558 Y7.01360
X58.98467 Y6.92862
X58.68645 Y6.83174
X58.48208 Y6.78831
X58.17027 Y6.75554
X57.96133 Y6.75554
X57.64949 Y6.78831
X57.29344 Y6.87238
X56.94421 Y7.02039
X56.38600 Y7.57385
X55.78074 Y7.76585
X55.54620 Y7.81419
X55.16192 Y7.86168
X54.75504 Y7.86991
X54.20124 Y7.80807
X53.79515 Y7.71139
X53.33370 Y7.54766
X53.28288 Y7.54766
Z-0.60000
X49.78288 Y7.54766
Z-2.50000 F300.00000
F600.00000
G01 X49.73206 Y7.54766
X49.25611 Y7.58152
X48.91918 Y7.64573
G04 P0 ( dwell for no time -- G64 should not smooth over this point )
G00 Z5.00000 ( retract )

G00 X48.91890 Y7.64578 ( rapid move to begin. )
G01 Z-2.50000 F300.00000 ( plunge. )
G04 P0 ( dwell for no time -- G64 should not smooth over this point )
F600.00000
G01 X48.91890 Y7.64578
X49.25611 Y7.58152
X49.73206 Y7.54766
X49.78288 Y7.54766
Z-0.60000
X53.28288 Y7.54766
Z-2.50000 F300.00000
F600.00000
G01 X53.33370 Y7.54766
X53.63327 Y7.66059
X54.03937 Y7.77482
X54.59039 Y7.85945
X54.83606 Y7.87197
X55.16192 Y7.86168
X55.54620 Y7.81419
X55.78074 Y7.76585
X56.38600 Y7.57385
X56.94652 Y7.01813
X57.09311 Y6.64952
X57.13367 Y6.49283
X57.17962 Y6.19296
X57.18071 Y5.89080
X56.87093 Y5.61056
X56.64284 Y5.43327
X56.30431 Y5.21010
X56.00200 Y5.05115
X55.72506 Y4.93893
X55.46509 Y4.86268
X55.21587 Y4.81600
X54.91125 Y4.79354
X54.60391 Y4.81112
X54.35008 Y4.85488
X53.92070 Y4.98996
X53.64358 Y5.11831
X51.52191 Y5.11918
Z-0.60000
X48.02191 Y5.12061
Z-2.50000 F300.00000
F600.00000
G01 X45.90024 Y5.12148
X45.57591 Y5.17005
X45.35869 Y5.23611
X43.77236 Y5.89077
X42.81125 Y6.86623
X42.63446 Y7.13601
X42.51333 Y7.43583
X42.45582 Y7.72516
X42.44582 Y7.90078
X42.44582 Y11.05281
X42.27708 Y11.25843
X42.13848 Y11.51776
X42.05311 Y11.79914
X42.02430 Y12.09180
X42.02430 Y12.59980
X42.05311 Y12.89243
X42.07990 Y12.98080
X43.85176 Y12.98080
X44.05828 Y12.95878
X44.66730 Y12.95779
X44.89123 Y12.92276
X45.11518 Y12.81771
X45.23484 Y12.59980
X45.29547 Y12.45342
X45.31233 Y11.80194
X45.25780 Y11.26991
X45.46430 Y10.76544
X45.74578 Y10.26480
X45.74578 Y8.58419
X46.68416 Y7.64578
X48.91890 Y7.64578
G04 P0 ( dwell for no time -- G64 should not smooth over this point )
G00 Z5.00000 ( retract )

G00 X43.77228 Y5.89080 ( rapid move to begin. )
G01 Z-2.50000 F300.00000 ( plunge. )
G04 P0 ( dwell for no time -- G64 should not smooth over this point )
F600.00000
G01 X43.77228 Y5.89080
X45.35869 Y5.23611
X45.57591 Y5.17005
X45.90024 Y5.12148
X48.02191 Y5.12061
Z-0.60000
X51.52191 Y5.11918
Z-2.50000 F300.00000
F600.00000
G01 X53.64358 Y5.11831
X54.08257 Y4.93002
X54.44203 Y4.83594
X54.68808 Y4.80253
X54.91125 Y4.79354
X55.30319 Y4.82941
X55.56319 Y4.88813
X55.84013 Y4.98168
X56.30431 Y5.21010
X56.64284 Y5.43327
X56.87093 Y5.61056
X57.18069 Y5.89080
X60.06082 Y5.89080
X60.71080 Y6.32410
X60.71080 Y7.52138
X60.58746 Y7.65838
X60.40324 Y7.91193
X60.28830 Y8.11340
X60.28827 Y10.38563
X60.40324 Y10.58713
X60.58746 Y10.84067
X60.72726 Y10.99594
X60.96023 Y11.20572
X61.12927 Y11.32856
X61.40100 Y11.48545
X61.59190 Y11.57044
X61.89013 Y11.66732
X62.09449 Y11.71075
X62.40633 Y11.74354
X62.61527 Y11.74354
X62.92708 Y11.71075
X63.28314 Y11.62668
X63.76051 Y11.41413
X64.18329 Y11.10697
X64.43411 Y10.84067
X64.61834 Y10.58713
X64.79416 Y10.26620
X64.85047 Y10.11954
X64.91504 Y9.92081
X64.98021 Y9.61413
X65.01026 Y9.24952
X65.00206 Y9.09272
X64.98021 Y8.88492
X64.91504 Y8.57824
X64.79416 Y8.23283
X64.72284 Y8.09288
X64.61834 Y7.91193
X64.43411 Y7.65838
X64.31080 Y7.52143
X64.30351 Y5.21325
X64.24018 Y4.86606
X64.11062 Y4.53853
X63.91895 Y4.24150
X63.67298 Y3.98783
X63.50922 Y3.86309
X62.48123 Y3.17777
X61.42721 Y2.85862
X61.03628 Y2.76901
X60.60580 Y2.73429
X52.51329 Y2.73429
Z-0.60000
X49.01329 Y2.73429
Z-2.50000 F300.00000
F600.00000
G01 X40.92077 Y2.73429
X40.54745 Y2.76055
X40.27117 Y2.81265
X39.97996 Y2.89804
X39.28814 Y3.17780
X34.46016 Y8.00580
X33.77522 Y8.00580
X33.24456 Y8.11058
X32.96514 Y8.13908
X32.59694 Y8.14992
X32.14695 Y8.11822
X31.86194 Y8.07446
X31.56377 Y8.00580
X26.95080 Y8.00580
X26.74587 Y8.01868
X26.45616 Y8.07631
X26.07727 Y8.23334
X25.83254 Y8.39681
X25.67798 Y8.53298
X24.13417 Y10.07679
X23.93168 Y10.11774
X23.52078 Y10.26480
X23.23930 Y10.76544
X23.03280 Y11.26991
X23.08733 Y11.80194
X23.07047 Y12.45342
X23.00984 Y12.59980
X22.89018 Y12.81771
X22.66623 Y12.92276
X22.44230 Y12.95779
X21.83328 Y12.95878
X21.62676 Y12.98080
X19.85493 Y12.98080
X19.82811 Y13.06914
X19.79930 Y13.36180
X19.79930 Y13.86980
X19.82811 Y14.16243
X19.85490 Y14.25080
X21.62683 Y14.25080
X21.83313 Y14.27280
X22.44230 Y14.27379
X22.57875 Y14.28679
X22.71520 Y14.32581
X23.41400 Y14.31201
X23.93864 Y13.85121
X24.32571 Y13.61580
X24.82015 Y13.61580
X24.93427 Y13.54755
X25.14900 Y13.39406
X25.59040 Y13.00386
X25.96625 Y12.73719
X26.40498 Y12.35157
X27.33627 Y11.96584
X27.69629 Y11.60580
X31.56362 Y11.60580
X31.83425 Y11.54247
X32.12961 Y11.49556
X32.58218 Y11.46300
X33.20197 Y11.49556
X33.49724 Y11.54245
X33.76791 Y11.60580
X35.20580 Y11.60580
X35.41139 Y11.59279
X35.75665 Y11.51814
X36.07928 Y11.37821
X36.32401 Y11.21474
X36.46968 Y11.08665
X36.65667 Y10.82805
X37.01839 Y10.44365
X37.23910 Y10.24469
X37.50133 Y10.05581
X41.66632 Y5.89080
X43.77228 Y5.89080
G04 P0 ( dwell for no time -- G64 should not smooth over this point )
G00 Z5.00000 ( retract )

G00 X57.15300 Y13.23582 ( rapid move to begin. )
G01 Z-2.50000 F300.00000 ( plunge. )
G04 P0 ( dwell for no time -- G64 should not smooth over this point )
F600.00000
G01 X57.15300 Y13.23582
X56.93484 Y13.48489
X56.69913 Y13.72190
X56.36626 Y14.00719
X56.19903 Y14.12870
X55.82732 Y14.34648
X55.59679 Y14.44531
X55.38155 Y14.51255
X55.00850 Y14.57181
X54.80718 Y14.57361
X54.60584 Y14.55423
X54.40000 Y14.51255
X54.18476 Y14.44531
X53.95425 Y14.34648
X53.77869 Y14.25080
X52.82789 Y14.25080
X52.48506 Y14.08062
X52.20658 Y13.98903
X51.83350 Y13.92977
X51.59807 Y13.92977
X51.39225 Y13.95347
X51.17702 Y14.00193
X50.94651 Y14.08062
X50.69348 Y14.19896
X50.40755 Y14.37287
X50.24031 Y14.49439
X49.90745 Y14.77968
X49.67173 Y15.01669
X49.45340 Y15.26492
X49.50666 Y15.51549
X49.64913 Y15.88892
X49.17273 Y16.37226
X49.15578 Y17.52705
X49.29538 Y17.77266
X49.39607 Y18.01828
X49.35233 Y18.26977
X49.22518 Y18.74566
X49.17603 Y19.01919
X49.15703 Y19.28356
X49.16579 Y19.54525
X49.20252 Y19.80962
X49.35233 Y20.39181
X49.38733 Y20.59026
X49.46211 Y21.42348
X49.84669 Y21.55884
X50.16536 Y21.61817
X50.64621 Y21.61817
X50.96487 Y21.55884
X51.26307 Y21.46194
X51.41585 Y21.39392
X51.68738 Y21.23715
X51.94476 Y21.04002
X52.16774 Y20.80461
X52.35192 Y20.55114
X52.43556 Y20.40631
X52.56325 Y20.11955
X52.61491 Y19.96049
X52.68003 Y19.65407
X52.70576 Y19.33078
X52.68003 Y19.00751
X52.61491 Y18.70108
X52.56325 Y18.54203
X52.43556 Y18.25526
X52.24364 Y17.96139
X53.00030 Y17.19029
X53.17709 Y16.92052
X53.28969 Y16.64881
X53.31511 Y16.53578
X62.40794 Y16.53578
Z-0.60000
X65.90794 Y16.53578
Z-2.50000 F300.00000
F600.00000
G01 X75.00077 Y16.53578
X75.20514 Y16.79644
X75.43244 Y16.98298
X75.69177 Y17.12158
X75.97316 Y17.20695
X76.26581 Y17.23578
X77.96579 Y17.23578
X78.02609 Y17.22987
X78.30769 Y16.90805
X78.44201 Y16.71267
X78.55192 Y16.51729
X78.63739 Y16.32192
X78.69845 Y16.12654
X78.73508 Y15.93116
X78.74729 Y15.73579
X78.74729 Y14.03582
X78.73373 Y13.83000
X78.69309 Y13.62421
X78.62535 Y13.41839
X78.53050 Y13.21260
X78.20086 Y13.14250
X77.64834 Y13.10196
X77.34483 Y13.02591
X77.04135 Y12.89919
X76.73785 Y12.72177
X76.50183 Y12.66358
X76.16780 Y12.54544
X75.97316 Y12.56462
X75.69177 Y12.64999
X75.43244 Y12.78860
X75.20514 Y12.97514
X75.00077 Y13.23582
X67.82688 Y13.23582
Z-0.60000
X64.32688 Y13.23582
Z-2.50000 F300.00000
F600.00000
G01 X57.15300 Y13.23582
G04 P0 ( dwell for no time -- G64 should not smooth over this point )
G00 Z5.00000 ( retract )

G00 X56.68948 Y30.87269 ( rapid move to begin. )
G01 Z-2.50000 F300.00000 ( plunge. )
G04 P0 ( dwell for no time -- G64 should not smooth over this point )
F600.00000
G01 X56.68948 Y30.87269
X57.72909 Y29.83307
Z-0.60000
X60.20396 Y27.35819
Z-2.50000 F300.00000
F600.00000
G01 X61.24357 Y26.31857
X61.47136 Y26.05746
X61.65736 Y25.73216
X61.83239 Y25.33489
Z-0.60000
X63.24356 Y22.13198
Z-2.50000 F300.00000
F600.00000
G01 X63.41860 Y21.73471
X63.76051 Y21.57413
X64.18329 Y21.26697
X64.43411 Y21.00067
X64.61834 Y20.74713
X64.72284 Y20.56618
X64.85047 Y20.27954
X64.91504 Y20.08081
X64.98021 Y19.77413
X65.01026 Y19.40952
X65.00206 Y19.25272
X64.98021 Y19.04492
X64.91504 Y18.73824
X64.79416 Y18.39283
X64.72284 Y18.25288
X64.61834 Y18.07193
X64.43411 Y17.81838
X64.29431 Y17.66311
X64.06134 Y17.45333
X63.76053 Y17.24493
X63.42967 Y17.08862
X63.13145 Y16.99174
X62.92708 Y16.94831
X62.61527 Y16.91554
X62.40633 Y16.91554
X62.09449 Y16.94831
X61.73844 Y17.03238
X61.40095 Y17.17363
X61.12937 Y17.33042
X60.83829 Y17.55209
X60.58746 Y17.81838
X60.40324 Y18.07193
X60.28830 Y18.27340
X60.17334 Y18.07193
X59.98911 Y17.81838
X59.84931 Y17.66311
X59.61634 Y17.45333
X59.44731 Y17.33050
X59.17558 Y17.17360
X58.98467 Y17.08862
X58.68645 Y16.99174
X58.48208 Y16.94831
X58.17027 Y16.91554
X57.96133 Y16.91554
X57.64949 Y16.94831
X57.29344 Y17.03238
X57.14683 Y17.08864
X56.95595 Y17.17363
X56.68437 Y17.33042
X56.39329 Y17.55209
X56.28226 Y17.66311
X56.14246 Y17.81838
X55.95823 Y18.07193
X55.78242 Y18.39285
X55.72610 Y18.53951
X55.66154 Y18.73824
X55.59636 Y19.04492
X55.56631 Y19.40952
X55.57452 Y19.56633
X55.59636 Y19.77413
X55.66154 Y20.08081
X55.78242 Y20.42620
X55.85374 Y20.56618
X55.95823 Y20.74713
X56.14246 Y21.00067
X56.28226 Y21.15594
X56.51523 Y21.36572
X56.68427 Y21.48856
X56.90505 Y21.61949
X57.89166 Y24.57925
X56.62427 Y25.84664
X56.51452 Y26.17514
X56.40322 Y26.44473
X56.19100 Y26.86028
X55.95597 Y27.22233
X55.69641 Y27.54326
X55.55255 Y27.69484
X55.24848 Y27.96825
X54.90833 Y28.21516
X54.52143 Y28.43868
X54.14549 Y28.60919
X51.54605 Y31.20865
X51.33709 Y31.31422
X51.07600 Y31.65818
X50.96741 Y31.82542
X50.72444 Y32.29570
X50.57928 Y32.74111
X50.52317 Y33.09133
X50.51441 Y33.34302
X50.53234 Y33.59735
X50.62408 Y34.02770
X50.78448 Y34.44032
X50.86968 Y34.60753
X51.07605 Y34.94344
X51.37028 Y35.32836
X51.61186 Y35.59534
X51.95621 Y35.58817
X52.27488 Y35.52884
X52.57308 Y35.43194
X52.72586 Y35.36392
X52.99738 Y35.20715
X53.14262 Y35.10080
X54.26949 Y35.10080
X54.56639 Y35.27598
X54.84643 Y35.39168
X55.14096 Y35.46267
X55.45280 Y35.49546
X55.59880 Y35.49546
X55.91061 Y35.46267
X56.20517 Y35.39168
X56.48526 Y35.27593
X56.78201 Y35.10082
X56.80479 Y32.24693
X56.42311 Y31.29796
X56.31145 Y31.25072
X56.68948 Y30.87269
G04 P0 ( dwell for no time -- G64 should not smooth over this point )
G00 Z5.00000 ( retract )

G00 X68.59385 Y32.56080 ( rapid move to begin. )
G01 Z-2.50000 F300.00000 ( plunge. )
G04 P0 ( dwell for no time -- G64 should not smooth over this point )
F600.00000
G01 X68.59385 Y32.56080
X68.98833 Y32.27307
X69.33014 Y32.09852
X70.03690 Y31.81965
X70.23509 Y31.77929
X70.43329 Y31.76674
X70.63148 Y31.78203
X71.09506 Y31.86466
X71.30156 Y31.93814
X71.50809 Y32.04033
X72.00268 Y32.37378
X72.15790 Y32.61851
X72.35315 Y32.98874
X73.93798 Y34.57357
X74.09218 Y34.70948
X74.33724 Y34.87321
X74.66005 Y35.01319
X75.00524 Y35.08779
X75.61662 Y35.10080
X75.84636 Y35.27509
X76.11184 Y35.42244
X76.26990 Y35.49026
X76.55939 Y35.58106
X76.95370 Y35.64446
X77.26777 Y35.64306
X77.43886 Y35.62564
X77.73576 Y35.56460
X78.02878 Y35.45784
X78.23111 Y35.13303
X78.36162 Y34.88401
X78.52532 Y34.50067
X78.63744 Y34.14284
X78.72961 Y33.62988
X78.74623 Y33.29742
X78.72908 Y32.96659
X78.63629 Y32.45432
X78.51948 Y32.08518
X78.34546 Y31.68465
X78.02880 Y31.14012
X77.67219 Y31.02052
X77.50373 Y30.98590
X77.19190 Y30.95275
X76.96381 Y30.95851
X76.79271 Y30.97594
X76.49581 Y31.03697
X76.33173 Y31.08844
X76.05263 Y31.20817
X75.81087 Y31.35526
X73.94357 Y29.48798
X73.78901 Y29.35181
X73.49292 Y29.16085
X73.22104 Y29.04821
X72.87575 Y28.97371
X72.67080 Y28.96080
X71.56330 Y28.96080
Z-0.60000
X68.06330 Y28.96080
Z-2.50000 F300.00000
F600.00000
G01 X66.95580 Y28.96080
X66.75087 Y28.97368
X66.46116 Y29.03131
X66.08227 Y29.18834
X65.79207 Y29.38912
X64.41580 Y30.75519
X63.03948 Y29.38912
X62.74979 Y29.18859
X62.42604 Y29.04821
X62.08075 Y28.97371
X61.87580 Y28.96080
X59.33580 Y28.96080
X59.13087 Y28.97368
X58.84116 Y29.03131
X58.51414 Y29.16063
X58.17720 Y29.38491
X56.69438 Y30.86728
X56.49334 Y31.15727
X56.42585 Y31.30510
X56.80479 Y32.24693
X56.78201 Y35.10080
X57.10639 Y35.29597
X57.38643 Y35.41167
X57.68096 Y35.48266
X57.99280 Y35.51545
X58.13880 Y35.51545
X58.45061 Y35.48266
X58.59343 Y35.45231
X58.74517 Y35.41167
X59.02526 Y35.29592
X59.29653 Y35.13930
X59.53684 Y34.95459
X59.74565 Y34.73496
X59.92986 Y34.48142
X60.10184 Y34.13273
X60.06036 Y33.82620
X59.81502 Y33.21033
X59.71068 Y32.86303
X59.61025 Y32.44149
X59.82762 Y31.94825
X60.03544 Y31.80248
X60.24327 Y31.69651
X60.46778 Y31.60352
X60.65965 Y31.54391
X60.85154 Y31.52405
X61.39058 Y31.52405
X61.55370 Y31.53840
X61.78581 Y31.69321
X62.09030 Y31.97490
X62.33645 Y32.31487
X62.43257 Y32.49595
X62.65583 Y33.03504
X62.73889 Y33.28838
X62.68766 Y33.56661
X62.46203 Y34.50796
X62.65383 Y34.77461
X62.87674 Y35.00994
X63.26579 Y35.29262
X63.55858 Y35.43199
X63.85670 Y35.52884
X64.17536 Y35.58817
X64.65621 Y35.58817
X64.97488 Y35.52884
X65.27308 Y35.43194
X65.42586 Y35.36392
X65.69738 Y35.20715
X65.95476 Y35.01002
X66.06583 Y34.89892
X66.17775 Y34.77461
X66.36192 Y34.52114
X66.51694 Y34.23628
X66.57325 Y34.08955
X66.62491 Y33.93049
X66.69614 Y33.56600
X67.70132 Y32.56080
X68.59385 Y32.56080
G04 P0 ( dwell for no time -- G64 should not smooth over this point )
G00 Z5.00000 ( retract )

G00 X64.76820 Y41.19878 ( rapid move to begin. )
G01 Z-2.50000 F300.00000 ( plunge. )
G04 P0 ( dwell for no time -- G64 should not smooth over this point )
F600.00000
G01 X64.76820 Y41.19878
X65.40081 Y41.45735
X65.69233 Y41.54917
X65.96876 Y41.60731
X66.23815 Y41.63685
X68.07389 Y41.63759
Z-0.60000
X71.57389 Y41.63901
Z-2.50000 F300.00000
F600.00000
G01 X73.40964 Y41.63975
X73.73788 Y41.60729
X74.01418 Y41.54917
X74.30539 Y41.45745
X74.93831 Y41.19883
X75.58017 Y40.55695
X75.69177 Y40.61658
X75.97316 Y40.70195
X76.26581 Y40.73078
X78.02609 Y40.72487
X78.30769 Y40.40305
X78.44201 Y40.20767
X78.55192 Y40.01229
X78.63739 Y39.81692
X78.69845 Y39.62154
X78.73508 Y39.42616
X78.74729 Y39.23079
X78.74729 Y37.53082
X78.73508 Y37.33544
X78.69845 Y37.14006
X78.63739 Y36.94468
X78.55192 Y36.74931
X78.44201 Y36.55393
X78.30769 Y36.35855
X78.02611 Y36.03676
X76.26581 Y36.03082
X75.97316 Y36.05962
X75.69177 Y36.14499
X75.43244 Y36.28360
X75.20514 Y36.47014
X75.11032 Y36.58568
X75.00587 Y36.59368
X74.65990 Y36.66841
X74.33727 Y36.80834
X74.09254 Y36.97181
X73.93798 Y37.10798
X72.56016 Y38.48580
X71.60325 Y38.48580
Z-0.60000
X68.10325 Y38.48580
Z-2.50000 F300.00000
F600.00000
G01 X67.14635 Y38.48580
X66.77615 Y38.11562
X66.70490 Y37.75108
X66.59690 Y37.44529
X66.52555 Y37.30526
X66.44191 Y37.16043
X66.25773 Y36.90697
X66.03480 Y36.67161
X65.77752 Y36.47451
X65.50579 Y36.31761
X65.35298 Y36.24959
X65.05486 Y36.15274
X64.73620 Y36.09340
X64.25535 Y36.09340
X63.93668 Y36.15274
X63.63848 Y36.24964
X63.48570 Y36.31766
X63.21418 Y36.47443
X63.06891 Y36.58080
X61.86211 Y36.58080
X61.56518 Y36.40560
X61.28512 Y36.28990
X61.13343 Y36.24926
X60.99061 Y36.21891
X60.67880 Y36.18614
X60.53280 Y36.18614
X60.22096 Y36.21891
X59.92638 Y36.28992
X59.77972 Y36.34624
X59.64631 Y36.40565
X59.37504 Y36.56226
X59.13473 Y36.74697
X59.02361 Y36.85810
X58.92592 Y36.96660
X58.74172 Y37.22015
X58.66869 Y37.34661
X58.54114 Y37.63308
X58.45536 Y37.92363
X58.40730 Y38.38078
X58.45533 Y38.83792
X58.54114 Y39.12850
X58.66869 Y39.41496
X58.74172 Y39.54143
X58.92592 Y39.79497
X59.02361 Y39.90348
X59.13466 Y40.01455
X59.37489 Y40.19924
X59.64639 Y40.35598
X59.92643 Y40.47168
X60.22096 Y40.54267
X60.53280 Y40.57546
X60.67880 Y40.57546
X60.99061 Y40.54267
X61.28517 Y40.47168
X61.56526 Y40.35593
X61.86201 Y40.18080
X63.06889 Y40.18080
X63.34577 Y40.37262
X63.63856 Y40.51199
X63.93668 Y40.60884
X64.23422 Y40.66482
X64.76820 Y41.19878
G04 P0 ( dwell for no time -- G64 should not smooth over this point )
G00 Z5.00000 ( retract )

G00 X45.81556 Y39.12080 ( rapid move to begin. )
G01 Z-2.50000 F300.00000 ( plunge. )
G04 P0 ( dwell for no time -- G64 should not smooth over this point )
F600.00000
G01 X45.81556 Y39.12080
X36.60097 Y39.12080
Z-0.60000
X33.10097 Y39.12080
Z-2.50000 F300.00000
F600.00000
G01 X23.88639 Y39.12080
X23.67080 Y38.90521
X23.67080 Y38.12518
X23.79411 Y37.98819
X23.97834 Y37.73465
X24.08284 Y37.55370
X24.15416 Y37.41372
X24.27504 Y37.06833
X24.34021 Y36.76165
X24.36206 Y36.55385
X24.37026 Y36.39704
X24.34021 Y36.03244
X24.27504 Y35.72576
X24.21047 Y35.52703
X24.15416 Y35.38035
X23.97834 Y35.05945
X23.79411 Y34.80590
X23.65431 Y34.65063
X23.42134 Y34.44085
X23.25231 Y34.31802
X23.12053 Y34.23245
X22.78967 Y34.07614
X22.49145 Y33.97926
X22.28708 Y33.93583
X21.97527 Y33.90306
X21.76633 Y33.90306
X21.45449 Y33.93583
X21.09844 Y34.01990
X20.95183 Y34.07616
X20.76095 Y34.16115
X20.48937 Y34.31794
X20.32031 Y34.44078
X20.19829 Y34.53961
X19.94746 Y34.80590
X19.76323 Y35.05945
X19.58742 Y35.38037
X19.46654 Y35.72576
X19.40136 Y36.03244
X19.37131 Y36.39704
X19.37952 Y36.55385
X19.40136 Y36.76165
X19.46654 Y37.06833
X19.58742 Y37.41372
X19.65874 Y37.55370
X19.76323 Y37.73465
X19.94746 Y37.98819
X20.07080 Y38.12518
X20.07906 Y39.81506
X20.12557 Y40.08593
X20.19034 Y40.29583
X20.36128 Y40.63132
X20.59798 Y40.92357
X20.87316 Y41.19875
X22.36813 Y41.81552
X22.59135 Y41.88658
X22.86191 Y41.94053
X23.14080 Y41.95979
X34.40460 Y41.95902
Z-0.60000
X37.90460 Y41.95878
Z-2.50000 F300.00000
F600.00000
G01 X49.16841 Y41.95801
X49.43353 Y41.93180
X49.80935 Y41.83665
X51.36327 Y41.19880
X51.89723 Y40.66484
X52.19487 Y40.60884
X52.49307 Y40.51194
X52.64585 Y40.44392
X52.91737 Y40.28715
X53.06261 Y40.18080
X54.26949 Y40.18080
X54.56639 Y40.35598
X54.84643 Y40.47168
X55.14096 Y40.54267
X55.45280 Y40.57546
X55.59880 Y40.57546
X55.91061 Y40.54267
X56.20517 Y40.47168
X56.48526 Y40.35593
X56.75653 Y40.19931
X56.99684 Y40.01460
X57.10797 Y39.90348
X57.20565 Y39.79497
X57.38986 Y39.54143
X57.46288 Y39.41496
X57.59044 Y39.12850
X57.63557 Y38.98961
X57.70080 Y38.68283
X57.72427 Y38.38078
X57.67621 Y37.92363
X57.59044 Y37.63308
X57.46288 Y37.34661
X57.38986 Y37.22015
X57.20565 Y36.96660
X56.99689 Y36.74702
X56.75668 Y36.56234
X56.48518 Y36.40560
X56.35176 Y36.34618
X56.20512 Y36.28990
X55.91061 Y36.21891
X55.59880 Y36.18614
X55.45280 Y36.18614
X55.14096 Y36.21891
X54.99814 Y36.24926
X54.84638 Y36.28992
X54.56632 Y36.40565
X54.26952 Y36.58080
X53.06269 Y36.58080
X52.78575 Y36.38893
X52.49299 Y36.24959
X52.19487 Y36.15274
X51.99241 Y36.11182
X51.61080 Y35.73023
X51.61080 Y35.59417
X51.23485 Y35.16112
X51.07605 Y34.94344
X50.86968 Y34.60753
X50.72444 Y34.30588
X50.62408 Y34.02770
X50.55883 Y33.76458
X50.51441 Y33.34302
X50.52317 Y33.09133
X50.55883 Y32.83700
X50.62408 Y32.57388
X50.72444 Y32.29570
X50.96741 Y31.82542
X51.07600 Y31.65818
X51.33709 Y31.31422
X51.54605 Y31.20865
X54.14549 Y28.60919
X54.52143 Y28.43868
X54.90833 Y28.21516
X55.08346 Y28.09479
X55.40789 Y27.83213
X55.69641 Y27.54326
X55.95597 Y27.22233
X56.19100 Y26.86028
X56.30779 Y26.64481
X56.51452 Y26.17514
X56.62427 Y25.84669
X56.58130 Y25.64450
X56.51673 Y25.44577
X56.38910 Y25.15914
X56.28460 Y24.97819
X56.10037 Y24.72464
X55.96057 Y24.56937
X55.72760 Y24.35959
X55.42679 Y24.15119
X55.09593 Y23.99488
X54.79771 Y23.89800
X54.59334 Y23.85457
X54.28153 Y23.82180
X54.07259 Y23.82180
X53.76075 Y23.85457
X53.40470 Y23.93864
X53.06721 Y24.07989
X52.79563 Y24.23668
X52.62657 Y24.35952
X52.50455 Y24.45835
X52.25372 Y24.72464
X52.06950 Y24.97819
X51.89368 Y25.29911
X51.77280 Y25.64450
X51.70762 Y25.95118
X51.68014 Y26.26706
X48.53798 Y29.40924
X48.40181 Y29.56380
X48.23834 Y29.80853
X48.09841 Y30.13116
X48.02368 Y30.47713
X48.01080 Y31.00477
X48.31456 Y31.40134
X48.46191 Y31.62057
X48.57806 Y31.83979
X48.66302 Y32.05899
X48.71682 Y32.27822
X48.81629 Y32.84909
X48.83638 Y33.11612
X48.82279 Y33.68698
X48.79597 Y33.92777
X48.70974 Y34.36133
X48.60864 Y34.69158
X48.43681 Y35.02185
X48.37801 Y35.23158
X48.29770 Y35.44131
X48.07237 Y35.86077
X48.23364 Y36.16828
X48.39483 Y36.62172
X49.12807 Y37.78824
X49.24608 Y37.99731
X49.39124 Y38.34074
X49.19315 Y38.78850
X49.00717 Y39.12840
X48.76160 Y39.49596
X48.59450 Y39.71062
X48.35152 Y39.80599
X48.10854 Y39.86167
X47.65332 Y39.91481
X47.45515 Y39.90229
X47.25696 Y39.86193
X46.55023 Y39.58314
X46.26392 Y39.44140
X45.97761 Y39.25342
X45.81556 Y39.12080
G04 P0 ( dwell for no time -- G64 should not smooth over this point )
G00 Z5.00000 ( retract )

G00 X7.78373 Y27.32052 ( rapid move to begin. )
G01 Z-2.50000 F300.00000 ( plunge. )
G04 P0 ( dwell for no time -- G64 should not smooth over this point )
F600.00000
G01 X7.78373 Y27.32052
X7.49232 Y27.44414
X7.35079 Y27.52271
X7.10182 Y27.69599
X6.97898 Y27.80142
X6.76974 Y28.02154
X6.67068 Y28.14953
X6.47644 Y28.47582
X6.20583 Y28.47582
X6.00144 Y28.21514
X5.77413 Y28.02860
X5.51480 Y27.88999
X5.23342 Y27.80462
X4.94079 Y27.77582
X3.18046 Y27.78174
X2.89890 Y28.10353
X2.76456 Y28.29893
X2.65468 Y28.49431
X2.56919 Y28.68968
X2.50815 Y28.88506
X2.47150 Y29.08044
X2.45931 Y29.27582
X2.45931 Y30.97579
X2.49758 Y31.32179
X2.61249 Y31.66781
X3.05560 Y31.59199
X3.61643 Y31.44089
X3.87614 Y31.40561
X4.11211 Y31.39605
X4.52583 Y31.43385
X4.80037 Y31.49580
X5.10192 Y31.58602
X5.47045 Y31.65470
X5.72476 Y31.54624
X5.97906 Y31.39580
X7.90080 Y31.39580
X8.15891 Y31.38267
X8.47926 Y31.40258
X8.81055 Y31.39222
X9.20212 Y31.34398
X9.44418 Y31.29410
X10.00732 Y31.11828
X10.15332 Y31.11828
X10.57893 Y31.27078
X10.83214 Y31.33883
X11.18913 Y31.40647
X11.42053 Y31.33845
X11.79442 Y31.19631
X12.23683 Y30.95796
X12.48504 Y30.77878
X12.82218 Y30.45890
X13.09126 Y30.10716
X13.30302 Y29.72438
X13.29309 Y29.33566
X13.45357 Y29.03642
X13.70696 Y28.68072
X13.90193 Y28.46896
X14.11920 Y28.27650
X14.50719 Y28.01397
X14.93053 Y27.81016
X15.34188 Y27.67351
X15.60498 Y27.60937
X16.08196 Y27.53302
X16.19860 Y27.41638
X16.24013 Y26.93208
X16.29080 Y26.67531
X16.41681 Y26.22322
X16.47134 Y25.83998
X16.47193 Y23.22804
Z-0.60000
X16.47271 Y19.72804
Z-2.50000 F300.00000
F600.00000
G01 X16.47330 Y17.11610
X16.56550 Y16.93952
X16.63136 Y16.76294
X16.67086 Y16.58636
X16.68404 Y15.90180
X16.65801 Y15.65357
X16.39243 Y15.52080
X14.64915 Y15.52080
X14.53358 Y15.56855
X14.41816 Y15.72306
X14.32697 Y15.90180
X14.11654 Y16.40980
X14.04069 Y16.63017
X13.98667 Y16.87236
X13.95446 Y17.13639
X13.94410 Y17.42224
X13.87082 Y17.59913
X13.87082 Y17.99494
X13.93686 Y18.62572
X13.92809 Y19.09306
X13.87082 Y19.55658
X13.87082 Y21.97504
X13.99390 Y22.38071
X14.12598 Y22.71421
X14.20876 Y23.04768
X14.25801 Y23.39254
X14.25004 Y24.18263
X14.20635 Y24.57483
X14.08374 Y25.16551
X13.85426 Y25.42764
X13.59098 Y25.65598
X13.44384 Y25.83381
X13.28192 Y25.99685
X13.10523 Y26.14514
X12.91377 Y26.27864
X12.27369 Y26.67442
X11.67293 Y27.27518
X11.47036 Y27.28339
X11.31453 Y27.30810
X10.61464 Y27.91968
X10.23326 Y28.20343
X10.07646 Y28.22855
X9.44276 Y28.04620
X9.12264 Y27.91785
X8.58845 Y27.65524
X7.78373 Y27.32052
G04 P0 ( dwell for no time -- G64 should not smooth over this point )
G00 Z5.00000 ( retract )

G00 X3.17777 Y34.82645 ( rapid move to begin. )
G01 Z-2.50000 F300.00000 ( plunge. )
G04 P0 ( dwell for no time -- G64 should not smooth over this point )
F600.00000
G01 X3.17777 Y34.82645
X3.53439 Y34.94606
X3.70284 Y34.98068
X4.01468 Y35.01383
X4.41386 Y34.99064
X4.71076 Y34.92960
X4.87485 Y34.87814
X5.15394 Y34.75841
X5.30431 Y34.67494
X5.55341 Y34.50153
X5.75397 Y34.31578
X11.71080 Y34.31578
X11.88776 Y34.30557
X12.17570 Y34.24822
X12.47552 Y34.12709
X12.76802 Y33.93166
X14.92400 Y31.78597
X15.19863 Y31.76669
X15.49593 Y31.70558
X15.65037 Y31.65712
X15.92923 Y31.53743
X16.07076 Y31.45887
X16.39525 Y31.22077
X16.46258 Y31.22077
X16.77904 Y31.47706
X16.91079 Y31.56260
X17.20358 Y31.70197
X17.50170 Y31.79882
X17.66527 Y31.83360
X17.82036 Y31.85816
X18.14442 Y31.86639
X18.30121 Y31.85816
X18.61988 Y31.79882
X18.91808 Y31.70192
X19.07086 Y31.63390
X19.34238 Y31.47713
X19.65897 Y31.22077
X24.37238 Y31.22077
Z-0.60000
X27.87238 Y31.22077
Z-2.50000 F300.00000
F600.00000
G01 X32.58579 Y31.22077
X32.76275 Y31.21056
X33.05069 Y31.15321
X33.35051 Y31.03207
X33.62028 Y30.85529
X33.75249 Y30.73748
X38.91250 Y25.57750
X39.03030 Y25.44529
X39.19322 Y25.20145
X39.31969 Y24.90381
X39.38557 Y24.58776
X39.39578 Y24.41080
X39.39578 Y17.44874
X39.56449 Y17.24315
X39.70310 Y16.98382
X39.78847 Y16.70243
X39.81730 Y16.40980
X39.81730 Y15.90180
X39.78847 Y15.60914
X39.76167 Y15.52080
X36.87415 Y15.52080
X36.75858 Y15.56855
X36.66384 Y15.69090
X36.58477 Y15.82893
X36.58253 Y16.40980
X36.59571 Y16.58636
X36.63521 Y16.76294
X36.70107 Y16.93952
X36.79330 Y17.11610
X36.79330 Y24.01619
X36.35101 Y25.08144
X36.28921 Y25.19721
X36.19836 Y25.32010
X32.39979 Y29.12176
X32.19504 Y29.19418
X32.03080 Y29.21328
X27.72334 Y29.21258
Z-0.60000
X24.22334 Y29.21202
Z-2.50000 F300.00000
F600.00000
G01 X19.91589 Y29.21132
X19.72483 Y29.17244
X19.16804 Y28.94417
X18.93212 Y28.67371
X18.65635 Y28.43861
X18.26664 Y28.20015
X17.97718 Y28.07272
X17.63329 Y27.96175
X17.21300 Y27.87216
X16.58671 Y27.80899
X16.51305 Y27.87031
X16.26388 Y27.65276
X16.08194 Y27.53302
X15.60498 Y27.60937
X15.16578 Y27.72631
X14.80178 Y27.86530
X14.36464 Y28.10033
X14.02075 Y28.35885
X13.81415 Y28.55900
X13.62601 Y28.78267
X13.37031 Y29.18204
X13.29309 Y29.33566
X13.30302 Y29.72438
X13.09126 Y30.10716
X12.82218 Y30.45890
X12.48504 Y30.77878
X12.23683 Y30.95796
X11.79442 Y31.19631
X11.42053 Y31.33845
X11.18913 Y31.40647
X10.83214 Y31.33883
X10.57893 Y31.27078
X10.15332 Y31.11828
X10.00732 Y31.11828
X9.44418 Y31.29410
X9.20212 Y31.34398
X8.81055 Y31.39222
X8.47926 Y31.40258
X8.15891 Y31.38267
X7.90080 Y31.39580
X5.97906 Y31.39580
X5.72476 Y31.54624
X5.47045 Y31.65470
X5.10192 Y31.58602
X4.80037 Y31.49580
X4.52583 Y31.43385
X4.11211 Y31.39605
X3.87614 Y31.40561
X3.61643 Y31.44089
X3.05560 Y31.59199
X2.61249 Y31.66781
X2.49888 Y32.16468
X2.46469 Y32.49722
X2.46439 Y32.82801
X2.49840 Y33.16374
X2.61950 Y33.68424
X2.75578 Y34.05340
X2.95095 Y34.45391
X3.17777 Y34.82645
( Piece #2, position [1;0] )

G04 P0 ( dwell for no time -- G64 should not smooth over this point )
G00 Z5.00000 ( retract )

G00 X81.38440 Y1.67780 ( rapid move to begin. )
G01 Z-2.50000 F300.00000 ( plunge. )
G04 P0 ( dwell for no time -- G64 should not smooth over this point )
F600.00000
G01 X81.38440 Y1.67780
X81.38440 Y42.69880
X81.41321 Y42.99143
X81.49858 Y43.27282
X81.63719 Y43.53215
X81.82372 Y43.75945
X82.05103 Y43.94599
X82.31036 Y44.08460
X82.59174 Y44.16997
X82.88440 Y44.19880
X120.05990 Y44.19880
X123.55990 Y44.19880
X160.73540 Y44.19880
X161.02803 Y44.16997
X161.30942 Y44.08460
X161.56875 Y43.94599
X161.79605 Y43.75945
X161.98259 Y43.53215
X162.12120 Y43.27282
X162.20657 Y42.99143
X162.23540 Y42.69880
X162.23540 Y1.67780
X162.20657 Y1.38514
X162.12120 Y1.10376
X161.98259 Y0.84443
X161.79605 Y0.61712
X161.56875 Y0.43058
X161.30942 Y0.29198
X161.02803 Y0.20661
X160.73540 Y0.17780
X123.55990 Y0.17780
X120.05990 Y0.17780
X82.88440 Y0.17780
X82.59174 Y0.20661
X82.31036 Y0.29198
X82.05103 Y0.43058
X81.82372 Y0.61712
X81.63719 Y0.84443
Z-0.60000
X81.49858 Y1.10376
Z-2.50000 F300.00000
F600.00000
G01 X81.41321 Y1.38514
X81.38440 Y1.67780
G04 P0 ( dwell for no time -- G64 should not smooth over this point )
G00 Z5.00000 ( retract )

G00 X87.91152 Y11.70610 ( rapid move to begin. )
G01 Z-2.50000 F300.00000 ( plunge. )
G04 P0 ( dwell for no time -- G64 should not smooth over this point )
F600.00000
G01 X87.91152 Y11.70610
X87.60619 Y12.01311
X87.33733 Y12.10437
X86.61754 Y11.91812
X86.38246 Y11.87250
X85.82994 Y11.83196
X85.52643 Y11.75591
X85.22295 Y11.62919
X84.91945 Y11.45177
X84.68343 Y11.39358
X84.36916 Y11.28312
X84.06149 Y11.65378
X83.84170 Y12.02447
X83.76479 Y12.20978
X83.70985 Y12.39513
X83.67688 Y12.58047
X83.66591 Y14.46579
X83.67810 Y14.66116
X83.71475 Y14.85654
X83.77579 Y15.05192
X83.86129 Y15.24729
X83.97117 Y15.44267
X84.10551 Y15.63805
X84.38707 Y15.95981
X86.14739 Y15.96578
X86.44002 Y15.93695
X86.72140 Y15.85158
X86.98074 Y15.71298
X87.20804 Y15.52644
X87.41238 Y15.26578
X87.58917 Y15.26578
X87.77035 Y15.42377
X88.03738 Y15.60762
X88.33016 Y15.74699
X88.62828 Y15.84384
X88.94695 Y15.90317
X89.42780 Y15.90317
X89.74647 Y15.84384
Z-0.60000
X90.04466 Y15.74694
Z-2.50000 F300.00000
F600.00000
G01 X90.19744 Y15.67892
X90.46897 Y15.52215
X90.60427 Y15.42385
X90.72635 Y15.32502
X90.94933 Y15.08961
X91.13351 Y14.83614
X91.28852 Y14.55128
X91.39650 Y14.24549
X91.46163 Y13.93907
X91.48550 Y13.65108
X91.67849 Y13.43546
X91.62739 Y12.30580
X91.62739 Y10.97453
X91.76698 Y10.72891
X91.86767 Y10.48329
X91.82393 Y10.23181
X91.67412 Y9.64962
X91.63739 Y9.38525
X91.62863 Y9.12356
X91.67412 Y8.69196
X91.82393 Y8.10977
X91.85896 Y7.91121
X91.93351 Y7.08231
X91.75141 Y6.98498
X91.47003 Y6.89961
X91.17740 Y6.87081
X89.57740 Y6.87081
X89.28474 Y6.89961
X89.00336 Y6.98498
X88.74403 Y7.12359
X88.51672 Y7.31012
X88.33019 Y7.53743
X88.19158 Y7.79676
X88.10621 Y8.07814
X88.07741 Y8.37080
X88.07741 Y9.97080
X88.10730 Y10.15203
Z-0.60000
X88.22953 Y10.61583
Z-2.50000 F300.00000
F600.00000
G01 X88.33019 Y10.80415
X88.51672 Y11.03145
X88.72742 Y11.20435
X88.72742 Y11.36666
X88.33009 Y11.48464
X88.17730 Y11.55266
X87.91152 Y11.70610
G04 P0 ( dwell for no time -- G64 should not smooth over this point )
G00 Z5.00000 ( retract )

G00 X95.35446 Y11.63503 ( rapid move to begin. )
G01 Z-2.50000 F300.00000 ( plunge. )
G04 P0 ( dwell for no time -- G64 should not smooth over this point )
F600.00000
G01 X95.35446 Y11.63503
X95.04460 Y11.48459
X94.74648 Y11.38774
X94.52738 Y11.34418
X94.52738 Y10.76899
X94.63934 Y10.64461
X94.82352 Y10.39114
X94.97854 Y10.10628
X95.08651 Y9.80049
X95.15164 Y9.49407
X95.17737 Y9.17078
X95.15164 Y8.84751
X95.08651 Y8.54108
X95.03485 Y8.38203
X94.90716 Y8.09526
X94.82352 Y7.95043
X94.63934 Y7.69697
X94.41641 Y7.46161
X94.02736 Y7.17893
X93.73460 Y7.03959
X93.43648 Y6.94274
X93.11781 Y6.88340
X92.63696 Y6.88340
X92.31829 Y6.94274
X91.93374 Y7.07809
X91.85896 Y7.91121
X91.82393 Y8.10977
X91.67412 Y8.69196
X91.62863 Y9.12356
X91.63739 Y9.38525
X91.67412 Y9.64962
X91.82393 Y10.23181
X91.86767 Y10.48329
X91.76698 Y10.72891
X91.62739 Y10.97453
X91.62739 Y12.30580
X91.67854 Y13.43706
X91.88923 Y13.65106
Z-0.60000
X91.91314 Y13.93907
Z-2.50000 F300.00000
F600.00000
G01 X91.97826 Y14.24549
X92.08624 Y14.55126
X92.15761 Y14.69131
X92.24125 Y14.83614
X92.42543 Y15.08961
X92.66277 Y15.33663
X93.05591 Y15.31529
X93.35659 Y15.27635
X93.76751 Y15.18900
X94.10376 Y15.08072
X94.38684 Y14.95631
X94.63089 Y14.81755
X94.84562 Y14.66406
X95.30482 Y14.26002
X97.59903 Y14.25080
X97.74048 Y14.19020
X97.88196 Y14.10650
X98.16491 Y13.86978
X98.74414 Y13.29325
X97.77515 Y12.88951
X97.53703 Y12.81509
X97.10840 Y12.77443
X96.91790 Y12.72680
X96.67978 Y12.71479
X96.50515 Y12.67877
X96.33053 Y12.61875
X96.15590 Y12.53470
X95.65994 Y12.25962
X95.35446 Y11.63503
G04 P0 ( dwell for no time -- G64 should not smooth over this point )
G00 Z5.00000 ( retract )

G00 X101.06150 Y12.98080 ( rapid move to begin. )
G01 Z-2.50000 F300.00000 ( plunge. )
G04 P0 ( dwell for no time -- G64 should not smooth over this point )
F600.00000
G01 X101.06150 Y12.98080
X102.83336 Y12.98080
X103.03989 Y12.95878
X103.64890 Y12.95779
X103.87283 Y12.92276
X104.09678 Y12.81771
X104.21644 Y12.59980
X104.27707 Y12.45342
X104.29393 Y11.80194
X104.23940 Y11.26991
X104.44590 Y10.76544
X104.72739 Y10.26480
X104.72739 Y8.58419
X105.66576 Y7.64578
X107.22049 Y7.64578
X110.72049 Y7.64578
X112.27522 Y7.64578
X112.49427 Y7.83382
X112.77030 Y8.00578
X113.06854 Y8.07446
X113.35356 Y8.11822
X113.72252 Y8.14787
X114.17174 Y8.13908
X114.61304 Y8.08579
X114.98185 Y8.00580
X115.30636 Y7.79059
X115.42919 Y7.68515
X115.63844 Y7.46504
X115.73750 Y7.33705
X115.89798 Y7.07959
X115.96927 Y6.93425
X116.07471 Y6.64952
X116.11527 Y6.49283
X116.16122 Y6.19296
X116.16942 Y6.03131
X116.15403 Y5.72814
X116.12952 Y5.56814
X116.05347 Y5.27439
Z-0.60000
X115.99726 Y5.12260
Z-2.50000 F300.00000
F600.00000
G01 X115.86356 Y4.85001
X115.77793 Y4.71264
X115.59216 Y4.47264
X115.48063 Y4.35532
X115.25050 Y4.15776
X115.11766 Y4.06527
X114.85208 Y3.91785
X114.70331 Y3.85402
X114.41385 Y3.76322
X114.25531 Y3.73063
X113.94855 Y3.69774
X113.55952 Y3.71988
X113.26222 Y3.78100
X113.10779 Y3.82946
X112.82892 Y3.94914
X112.68739 Y4.02771
X112.43842 Y4.20099
X112.27814 Y4.34582
X110.38027 Y4.34582
X106.88027 Y4.34582
X104.98240 Y4.34582
X104.80679 Y4.35582
X104.51745 Y4.41333
X104.19170 Y4.54833
X103.94786 Y4.71125
X103.81568 Y4.82905
X101.91068 Y6.73403
X101.79285 Y6.86623
X101.62993 Y7.11007
X101.50346 Y7.40771
X101.43742 Y7.72516
X101.42742 Y7.90078
X101.42742 Y11.05281
X101.25869 Y11.25843
X101.12008 Y11.51776
X101.03471 Y11.79914
X101.00590 Y12.09180
Z-0.60000
X101.00590 Y12.59980
Z-2.50000 F300.00000
F600.00000
G01 X101.03471 Y12.89243
X101.06150 Y12.98080
G04 P0 ( dwell for no time -- G64 should not smooth over this point )
G00 Z5.00000 ( retract )

G00 X108.43429 Y15.26578 ( rapid move to begin. )
G01 Z-2.50000 F300.00000 ( plunge. )
G04 P0 ( dwell for no time -- G64 should not smooth over this point )
F600.00000
G01 X108.43429 Y15.26578
X108.65334 Y15.01669
X108.88905 Y14.77968
X109.22192 Y14.49439
X109.38915 Y14.37287
X109.67508 Y14.19896
X109.92811 Y14.08062
X110.15862 Y14.00193
X110.41244 Y13.94735
X110.61378 Y13.92799
X110.81510 Y13.92977
X111.18818 Y13.98903
X111.46667 Y14.08062
X111.80949 Y14.25080
X112.76029 Y14.25080
X112.93585 Y14.34648
X113.16636 Y14.44531
X113.38160 Y14.51255
X113.58744 Y14.55423
X113.78878 Y14.57361
X113.99010 Y14.57181
X114.19592 Y14.54811
X114.41116 Y14.49964
X114.80892 Y14.34648
X115.06193 Y14.20607
X115.34786 Y14.00719
X115.68073 Y13.72190
X115.85825 Y13.54801
X115.94187 Y13.31405
X116.05632 Y12.90846
X115.97351 Y12.68029
X115.90217 Y12.54026
X115.81852 Y12.39543
X115.63435 Y12.14197
X115.41141 Y11.90661
X115.02236 Y11.62393
X114.70384 Y11.54245
X114.24134 Y11.47798
Z-0.60000
X113.95602 Y11.46300
Z-2.50000 F300.00000
F600.00000
G01 X113.50344 Y11.47798
X113.04086 Y11.54247
X112.77035 Y11.60575
X112.59079 Y11.70943
X112.27418 Y11.96582
X112.15854 Y11.96582
X108.65854 Y11.96582
X108.54290 Y11.96582
X107.61158 Y12.35157
X107.17285 Y12.73719
X106.79700 Y13.00386
X106.35560 Y13.39406
X106.14087 Y13.54755
X106.02675 Y13.61580
X105.53231 Y13.61580
X105.14524 Y13.85121
X104.62060 Y14.31201
X103.92180 Y14.32581
X103.78535 Y14.28679
X103.64890 Y14.27379
X103.03973 Y14.27280
X102.83343 Y14.25080
X101.06153 Y14.25080
X101.03471 Y14.33914
X101.00590 Y14.63180
X101.00590 Y15.13980
X101.03471 Y15.43243
X101.06150 Y15.52080
X102.83341 Y15.52080
X103.04603 Y15.49860
X103.32134 Y15.52080
X103.94903 Y15.52080
X104.18520 Y15.63485
X104.42137 Y15.81331
X104.59815 Y16.24389
X104.63993 Y16.98295
X104.96645 Y17.43919
Z-0.60000
X105.11501 Y17.68661
Z-2.50000 F300.00000
F600.00000
G01 X105.03836 Y18.01861
X104.91923 Y18.82702
X104.86594 Y19.07700
X104.73193 Y19.51790
X104.58741 Y19.86499
X104.58741 Y20.13080
X104.61621 Y20.42343
X104.70158 Y20.70481
X104.85672 Y20.98429
X105.55784 Y21.53009
X105.79474 Y21.60197
X106.08740 Y21.63080
X107.68740 Y21.63080
X107.98003 Y21.60197
X108.26141 Y21.51660
X108.44348 Y21.41929
X108.36893 Y20.59026
X108.33393 Y20.39181
X108.18412 Y19.80962
X108.13863 Y19.37802
X108.14739 Y19.11632
X108.18412 Y18.85196
X108.33393 Y18.26977
X108.37767 Y18.01828
X108.27698 Y17.77266
X108.13739 Y17.52705
X108.15435 Y16.36982
X107.73701 Y15.94198
X107.85484 Y15.67455
X107.90650 Y15.51549
X107.95956 Y15.26578
X108.43429 Y15.26578
G04 P0 ( dwell for no time -- G64 should not smooth over this point )
G00 Z5.00000 ( retract )

G00 X104.58149 Y19.87825 ( rapid move to begin. )
G01 Z-2.50000 F300.00000 ( plunge. )
G04 P0 ( dwell for no time -- G64 should not smooth over this point )
F600.00000
G01 X104.58149 Y19.87825
X104.73193 Y19.51790
X104.86594 Y19.07700
X104.91923 Y18.82702
X105.03836 Y18.01861
X105.11501 Y17.68661
X104.96645 Y17.43919
X104.63993 Y16.98295
X104.59815 Y16.24389
X104.42137 Y15.81331
X104.18520 Y15.63485
X103.94903 Y15.52080
X103.32134 Y15.52080
X103.10874 Y15.49860
X102.83341 Y15.52080
X101.06153 Y15.52080
X101.03471 Y15.60914
X101.00590 Y15.90180
X101.00590 Y16.40980
X101.03471 Y16.70243
X101.11134 Y16.95494
X100.97624 Y17.20528
X100.86826 Y17.51107
X100.80314 Y17.81749
X100.78564 Y17.98381
X100.78564 Y18.29773
X100.80314 Y18.46405
X100.86826 Y18.77048
X100.97624 Y19.07624
X101.13125 Y19.36113
X101.31543 Y19.61459
X101.53834 Y19.84993
X101.92739 Y20.13260
X102.22018 Y20.27197
X102.51830 Y20.36882
X102.83696 Y20.42816
X103.31781 Y20.42816
X103.63648 Y20.36882
Z-0.60000
X103.93468 Y20.27192
Z-2.50000 F300.00000
F600.00000
G01 X104.08746 Y20.20390
X104.35898 Y20.04713
X104.58149 Y19.87825
G04 P0 ( dwell for no time -- G64 should not smooth over this point )
G00 Z5.00000 ( retract )

G00 X105.27628 Y25.05761 ( rapid move to begin. )
G01 Z-2.50000 F300.00000 ( plunge. )
G04 P0 ( dwell for no time -- G64 should not smooth over this point )
F600.00000
G01 X105.27628 Y25.05761
X105.00948 Y25.00077
X104.03348 Y24.74346
X103.69023 Y24.60359
X103.35594 Y24.42396
X103.07735 Y24.29787
X102.79884 Y24.42396
X102.46450 Y24.60361
X102.12137 Y24.74346
X101.14532 Y25.00077
X100.87852 Y25.05759
X100.79402 Y25.22037
X100.67314 Y25.56576
X100.59983 Y25.94981
X100.76727 Y26.37483
X100.98797 Y26.80607
X101.23237 Y27.18174
X101.36069 Y27.34895
X101.65934 Y27.68016
X102.05668 Y27.81956
X102.60900 Y27.93833
X102.97293 Y27.96843
X103.18187 Y27.96843
X103.70895 Y27.91242
X104.09802 Y27.81958
X104.51466 Y27.67173
X104.97201 Y27.45169
X105.38116 Y27.20056
X105.48164 Y26.90833
X105.54681 Y26.60165
X105.57686 Y26.23704
X105.54681 Y25.87244
X105.48164 Y25.56576
X105.36076 Y25.22035
X105.27628 Y25.05761
G04 P0 ( dwell for no time -- G64 should not smooth over this point )
G00 Z5.00000 ( retract )

G00 X105.37310 Y27.20582 ( rapid move to begin. )
G01 Z-2.50000 F300.00000 ( plunge. )
G04 P0 ( dwell for no time -- G64 should not smooth over this point )
F600.00000
G01 X105.37310 Y27.20582
X104.97201 Y27.45169
X104.51466 Y27.67173
X104.09802 Y27.81958
X103.70895 Y27.91242
X103.33684 Y27.96027
X102.81794 Y27.96027
X102.44588 Y27.91242
X102.05668 Y27.81956
X101.65934 Y27.68016
X101.36069 Y27.34895
X101.23237 Y27.18174
X100.98797 Y26.80607
X100.76727 Y26.37483
X100.59983 Y25.94979
X100.28239 Y25.63234
X100.28239 Y24.04192
X100.22826 Y23.56556
X100.24368 Y23.15713
X100.22176 Y22.68695
X100.28239 Y22.18825
X100.27510 Y14.73820
X100.20629 Y14.39274
X100.09369 Y14.12103
X99.91690 Y13.85126
X99.68963 Y13.61989
X99.39712 Y13.42446
X99.09730 Y13.30333
X98.85686 Y13.25553
X98.74414 Y13.29325
X98.16491 Y13.86978
X97.88196 Y14.10650
X97.74048 Y14.19020
X97.59903 Y14.25080
X95.30482 Y14.26002
X94.84562 Y14.66406
X94.63089 Y14.81755
X94.38684 Y14.95631
Z-0.60000
X94.10376 Y15.08072
Z-2.50000 F300.00000
F600.00000
G01 X93.76751 Y15.18900
X93.35659 Y15.27635
X93.05591 Y15.31529
X92.67333 Y15.33637
X91.63285 Y16.39126
X91.45606 Y16.66103
X91.34346 Y16.93274
X91.32119 Y17.03002
X91.12050 Y16.85776
X90.98766 Y16.76527
X90.72208 Y16.61785
X90.57331 Y16.55402
X90.28385 Y16.46322
X89.89947 Y16.40185
X89.59056 Y16.40350
X89.42952 Y16.41988
X89.13222 Y16.48100
X88.97779 Y16.52946
X88.69892 Y16.64914
X88.55739 Y16.72771
X88.30842 Y16.90099
X88.14814 Y17.04582
X87.41243 Y17.04582
X87.20804 Y16.78514
X86.98074 Y16.59860
X86.72140 Y16.45999
X86.44002 Y16.37462
X86.14739 Y16.34582
X84.44742 Y16.34582
X84.38709 Y16.35174
X84.10551 Y16.67355
X83.97117 Y16.86893
X83.86129 Y17.06431
X83.77579 Y17.25968
X83.71475 Y17.45506
X83.67810 Y17.65044
X83.66591 Y17.84582
Z-0.60000
X83.66591 Y19.54579
Z-2.50000 F300.00000
F600.00000
G01 X83.67945 Y19.75158
X83.72009 Y19.95737
X83.78783 Y20.16318
X83.88267 Y20.36897
X84.21231 Y20.43908
X84.76484 Y20.47962
X85.06834 Y20.55566
X85.37182 Y20.68239
X85.67533 Y20.85980
X85.91134 Y20.91800
X86.24543 Y21.03613
X86.44002 Y21.01695
X86.72140 Y20.93158
X86.98074 Y20.79298
X87.20804 Y20.60644
X87.41238 Y20.34578
X88.14522 Y20.34578
X88.36427 Y20.53382
X88.49712 Y20.62630
X88.76270 Y20.77372
X88.91147 Y20.83755
X89.20092 Y20.92836
X89.58530 Y20.98973
X89.89422 Y20.98807
X90.05525 Y20.97169
X90.35256 Y20.91058
X90.50699 Y20.86212
X90.78586 Y20.74243
X90.92739 Y20.66387
X91.25187 Y20.42577
X91.31918 Y20.42577
X91.50036 Y20.58376
X91.76739 Y20.76760
X92.15372 Y20.93735
X93.00102 Y20.95648
X93.71064 Y20.92775
X93.92746 Y20.83890
X94.19898 Y20.68213
X94.45636 Y20.48500
X94.67935 Y20.24959
X94.86352 Y19.99613
X95.01854 Y19.71127
X95.07485 Y19.56453
X95.13469 Y19.09306
X95.13469 Y18.45849
X95.07742 Y17.99489
X94.95702 Y17.71960
X95.07737 Y17.59926
X95.15070 Y17.42224
X95.16106 Y17.13639
X95.19327 Y16.87236
X95.24729 Y16.63017
X95.32314 Y16.40980
X95.53358 Y15.90180
X95.62476 Y15.72306
X95.74018 Y15.56855
X95.85575 Y15.52080
X97.59903 Y15.52080
X97.86461 Y15.65357
X97.89065 Y15.90180
X97.89065 Y16.40980
X97.87746 Y16.58636
X97.83797 Y16.76294
X97.77210 Y16.93952
X97.67990 Y17.11610
X97.67932 Y19.72804
X97.67853 Y23.22804
X97.67795 Y25.83998
X97.62341 Y26.22322
X97.49740 Y26.67531
X97.44673 Y26.93208
X97.40523 Y27.41585
X97.79207 Y27.80891
X98.10733 Y27.83170
X98.61914 Y27.90914
X99.02234 Y28.01580
X99.35102 Y28.14198
X99.62653 Y28.28336
X99.94238 Y28.49949
X100.13872 Y28.67371
X100.37464 Y28.94417
X100.93143 Y29.17244
X101.12249 Y29.21132
X105.45489 Y29.21132
X108.95489 Y29.21132
X113.28729 Y29.21132
X113.43105 Y29.18681
X113.60639 Y29.12176
X117.38520 Y25.34191
X117.49581 Y25.19721
X117.55761 Y25.08144
X117.99990 Y24.01619
X117.99990 Y17.11610
X117.90767 Y16.93952
X117.84181 Y16.76294
X117.80231 Y16.58636
X117.78913 Y16.40980
X117.79137 Y15.82893
X117.87044 Y15.69090
X117.96518 Y15.56855
X118.08075 Y15.52080
X120.96825 Y15.52080
X120.99507 Y15.43243
X121.02390 Y15.13980
X121.02390 Y14.63180
X120.99507 Y14.33914
X120.96827 Y14.25080
X117.94539 Y14.25080
X117.61880 Y14.38872
X117.40806 Y14.52817
X115.39742 Y16.53573
X115.39742 Y24.36229
X112.55389 Y27.20582
X105.37310 Y27.20582
G04 P0 ( dwell for no time -- G64 should not smooth over this point )
G00 Z5.00000 ( retract )

G00 X115.39737 Y16.53578 ( rapid move to begin. )
G01 Z-2.50000 F300.00000 ( plunge. )
G04 P0 ( dwell for no time -- G64 should not smooth over this point )
F600.00000
G01 X115.39737 Y16.53578
X117.40806 Y14.52817
X117.61880 Y14.38872
X117.94539 Y14.25080
X120.96825 Y14.25080
X120.99507 Y14.16243
X121.02390 Y13.86980
X121.01922 Y13.31412
X120.00015 Y12.88951
X119.76203 Y12.81509
X119.33340 Y12.77443
X119.14290 Y12.72680
X118.93929 Y12.71542
X118.73503 Y12.67214
X118.55796 Y12.61258
X117.89165 Y12.26317
X117.57940 Y11.97082
X117.53607 Y11.97295
X117.18934 Y12.04186
X116.91763 Y12.15446
X116.64786 Y12.33125
X116.05632 Y12.90839
X115.94187 Y13.31405
X115.85825 Y13.54801
X115.68073 Y13.72190
X115.34786 Y14.00719
X115.06193 Y14.20607
X114.80892 Y14.34648
X114.41116 Y14.49964
X114.19592 Y14.54811
X113.99010 Y14.57181
X113.78878 Y14.57361
X113.58744 Y14.55423
X113.38160 Y14.51255
X113.16636 Y14.44531
X112.93585 Y14.34648
X112.76029 Y14.25080
X111.80949 Y14.25080
Z-0.60000
X111.46667 Y14.08062
Z-2.50000 F300.00000
F600.00000
G01 X111.23621 Y14.00193
X111.02092 Y13.95347
X110.78102 Y13.92799
X110.41244 Y13.94735
X110.15862 Y14.00193
X109.76085 Y14.15509
X109.50784 Y14.29550
X109.22192 Y14.49439
X108.88905 Y14.77968
X108.65334 Y15.01669
X108.43500 Y15.26492
X108.48826 Y15.51549
X108.63073 Y15.88892
X108.15433 Y16.37226
X108.13739 Y17.52705
X108.27698 Y17.77266
X108.37767 Y18.01828
X108.33393 Y18.26977
X108.20678 Y18.74566
X108.15763 Y19.01919
X108.13863 Y19.28356
X108.14739 Y19.54525
X108.18412 Y19.80962
X108.33393 Y20.39181
X108.36893 Y20.59026
X108.44371 Y21.42348
X108.82829 Y21.55884
X109.14696 Y21.61817
X109.62781 Y21.61817
X109.94648 Y21.55884
X110.24467 Y21.46194
X110.39745 Y21.39392
X110.66898 Y21.23715
X110.92636 Y21.04002
X111.14934 Y20.80461
X111.33352 Y20.55114
X111.41716 Y20.40631
Z-0.60000
X111.54485 Y20.11955
Z-2.50000 F300.00000
F600.00000
G01 X111.59651 Y19.96049
X111.66164 Y19.65407
X111.68737 Y19.33078
X111.66164 Y19.00751
X111.59651 Y18.70108
X111.54485 Y18.54203
X111.41716 Y18.25526
X111.22524 Y17.96139
X111.98190 Y17.19029
X112.15869 Y16.92052
X112.27129 Y16.64881
X112.29671 Y16.53578
X115.39737 Y16.53578
G04 P0 ( dwell for no time -- G64 should not smooth over this point )
G00 Z5.00000 ( retract )

G00 X126.80649 Y19.87825 ( rapid move to begin. )
G01 Z-2.50000 F300.00000 ( plunge. )
G04 P0 ( dwell for no time -- G64 should not smooth over this point )
F600.00000
G01 X126.80649 Y19.87825
X126.95693 Y19.51790
X127.09094 Y19.07700
X127.14423 Y18.82702
X127.26336 Y18.01861
X127.34001 Y17.68661
X127.19145 Y17.43919
X126.86493 Y16.98295
X126.82315 Y16.24389
X126.64637 Y15.81331
X126.41020 Y15.63485
X126.17403 Y15.52080
X125.54634 Y15.52080
X125.33374 Y15.49860
X125.05841 Y15.52080
X123.28653 Y15.52080
X123.25971 Y15.60914
X123.23090 Y15.90180
X123.23090 Y16.40980
X123.25971 Y16.70243
X123.33634 Y16.95494
X123.20124 Y17.20528
X123.14493 Y17.35201
X123.09326 Y17.51107
X123.02204 Y17.87551
X121.39073 Y19.51706
X121.18994 Y19.80725
X121.03292 Y20.18615
X120.97528 Y20.47586
X120.96240 Y20.68079
X120.96240 Y23.77580
X120.97531 Y23.98075
X121.04981 Y24.32604
X121.16246 Y24.59792
X121.35341 Y24.89401
X121.48961 Y25.04857
X122.72580 Y26.28474
X122.75422 Y26.68039
Z-0.60000
X122.81940 Y26.98707
Z-2.50000 F300.00000
F600.00000
G01 X122.88397 Y27.18580
X123.01160 Y27.47244
X123.11610 Y27.65339
X123.30032 Y27.90693
X123.44012 Y28.06220
X123.67309 Y28.27198
X123.97385 Y28.48039
X124.30477 Y28.63670
X124.60299 Y28.73358
X124.80736 Y28.77701
X125.11919 Y28.80980
X125.32813 Y28.80980
X125.63994 Y28.77701
X125.99600 Y28.69294
X126.47337 Y28.48039
X126.89615 Y28.17323
X127.14697 Y27.90693
X127.33120 Y27.65339
X127.43570 Y27.47244
X127.50702 Y27.33246
X127.62790 Y26.98707
X127.69307 Y26.68039
X127.71492 Y26.47259
X127.72312 Y26.31578
X127.69307 Y25.95118
X127.62790 Y25.64450
X127.56333 Y25.44577
X127.50702 Y25.29909
X127.41439 Y25.12223
X126.20687 Y24.78487
X125.85879 Y24.63224
X125.51480 Y24.44347
X125.16242 Y24.28423
X124.97179 Y24.04552
X124.81259 Y23.77539
X124.68485 Y23.47379
X124.58856 Y23.14078
Z-0.60000
X124.53032 Y23.04349
Z-2.50000 F300.00000
F600.00000
G01 X124.50649 Y22.65797
X124.53413 Y22.27248
X124.56240 Y22.13471
X124.56240 Y21.42630
X125.56384 Y20.42483
X125.86148 Y20.36882
X126.15968 Y20.27192
X126.31246 Y20.20390
X126.58398 Y20.04713
X126.80649 Y19.87825
G04 P0 ( dwell for no time -- G64 should not smooth over this point )
G00 Z5.00000 ( retract )

G00 X130.65929 Y15.26578 ( rapid move to begin. )
G01 Z-2.50000 F300.00000 ( plunge. )
G04 P0 ( dwell for no time -- G64 should not smooth over this point )
F600.00000
G01 X130.65929 Y15.26578
X130.87834 Y15.01669
X131.11405 Y14.77968
X131.44692 Y14.49439
X131.61415 Y14.37287
X131.90008 Y14.19896
X132.15311 Y14.08062
X132.38362 Y14.00193
X132.63744 Y13.94735
X132.83878 Y13.92799
X133.04010 Y13.92977
X133.41318 Y13.98903
X133.69167 Y14.08062
X134.03449 Y14.25080
X134.98529 Y14.25080
X135.16085 Y14.34648
X135.39136 Y14.44531
X135.60660 Y14.51255
X135.81244 Y14.55423
X136.01378 Y14.57361
X136.21510 Y14.57181
X136.42092 Y14.54811
X136.63616 Y14.49964
X137.03392 Y14.34648
X137.28693 Y14.20607
X137.57286 Y14.00719
X137.90573 Y13.72190
X138.14144 Y13.48489
X138.35960 Y13.23584
X138.30652 Y12.98608
X138.19851 Y12.68029
X138.04352 Y12.39543
X137.85935 Y12.14197
X137.74744 Y12.01766
X137.63641 Y11.90661
X137.37914 Y11.70951
X137.10741 Y11.55261
X136.95460 Y11.48459
Z-0.60000
X136.65648 Y11.38774
Z-2.50000 F300.00000
F600.00000
G01 X136.33781 Y11.32840
X135.85696 Y11.32840
X135.53830 Y11.38774
X135.24010 Y11.48464
X135.08732 Y11.55266
X134.81579 Y11.70943
X134.49918 Y11.96582
X134.38354 Y11.96582
X130.88354 Y11.96582
X130.76790 Y11.96582
X129.83658 Y12.35157
X129.39785 Y12.73719
X129.02200 Y13.00386
X128.58060 Y13.39406
X128.36587 Y13.54755
X128.25175 Y13.61578
X127.75731 Y13.61580
X127.37024 Y13.85121
X126.84560 Y14.31201
X126.14680 Y14.32581
X126.01035 Y14.28679
X125.87390 Y14.27379
X125.26473 Y14.27280
X125.05843 Y14.25080
X123.28653 Y14.25080
X123.25971 Y14.33914
X123.23090 Y14.63180
X123.23090 Y15.13980
X123.25971 Y15.43243
X123.28650 Y15.52080
X125.05841 Y15.52080
X125.27103 Y15.49860
X125.54634 Y15.52080
X126.17403 Y15.52080
X126.41020 Y15.63485
X126.64637 Y15.81331
X126.82315 Y16.24389
Z-0.60000
X126.86493 Y16.98295
Z-2.50000 F300.00000
F600.00000
G01 X127.19145 Y17.43919
X127.34001 Y17.68661
X127.26336 Y18.01861
X127.14423 Y18.82702
X127.09094 Y19.07700
X126.95693 Y19.51790
X126.81241 Y19.86499
X126.81241 Y20.13080
X126.84121 Y20.42343
X126.92658 Y20.70481
X127.08172 Y20.98429
X127.78284 Y21.53009
X128.01974 Y21.60197
X128.31240 Y21.63080
X129.91240 Y21.63080
X130.20503 Y21.60197
X130.48641 Y21.51660
X130.66848 Y21.41929
X130.59393 Y20.59026
X130.55893 Y20.39181
X130.40912 Y19.80962
X130.36363 Y19.37802
X130.37239 Y19.11632
X130.40912 Y18.85196
X130.55893 Y18.26977
X130.60267 Y18.01828
X130.50198 Y17.77266
X130.36239 Y17.52705
X130.37935 Y16.36982
X129.96201 Y15.94198
X130.07984 Y15.67455
X130.13150 Y15.51549
X130.18456 Y15.26578
X130.65929 Y15.26578
G04 P0 ( dwell for no time -- G64 should not smooth over this point )
G00 Z5.00000 ( retract )

G00 X130.12579 Y7.64573 ( rapid move to begin. )
G01 Z-2.50000 F300.00000 ( plunge. )
G04 P0 ( dwell for no time -- G64 should not smooth over this point )
F600.00000
G01 X130.12579 Y7.64573
X129.82040 Y7.84055
X129.66584 Y7.97672
X127.56577 Y10.07679
X127.36328 Y10.11774
X126.95239 Y10.26480
X126.67090 Y10.76544
X126.46440 Y11.26991
X126.51893 Y11.80194
X126.50207 Y12.45342
X126.44144 Y12.59980
X126.32178 Y12.81771
X126.09783 Y12.92276
X125.87390 Y12.95779
X125.26489 Y12.95878
X125.05836 Y12.98080
X123.28653 Y12.98080
X123.25971 Y13.06914
X123.23090 Y13.36180
X123.23090 Y13.86980
X123.25971 Y14.16243
X123.28650 Y14.25080
X125.05843 Y14.25080
X125.26473 Y14.27280
X125.87390 Y14.27379
X126.01035 Y14.28679
X126.14680 Y14.32581
X126.84560 Y14.31201
X127.37024 Y13.85121
X127.75731 Y13.61580
X128.25175 Y13.61578
X128.36587 Y13.54755
X128.58060 Y13.39406
X129.02200 Y13.00386
X129.39785 Y12.73719
X129.83658 Y12.35157
X130.76787 Y11.96582
X131.68415 Y11.04954
Z-0.60000
X132.86626 Y11.04954
Z-2.50000 F300.00000
F600.00000
G01 X136.36626 Y11.04954
X137.54838 Y11.04954
X137.72183 Y11.20572
X138.02259 Y11.41413
X138.35351 Y11.57044
X138.65173 Y11.66732
X138.85610 Y11.71075
X139.16793 Y11.74354
X139.37687 Y11.74354
X139.68868 Y11.71075
X140.04474 Y11.62668
X140.52211 Y11.41413
X140.82287 Y11.20580
X141.05591 Y10.99594
X141.19571 Y10.84067
X141.37994 Y10.58713
X141.49488 Y10.38571
X141.49490 Y8.11337
X141.37994 Y7.91193
X141.19571 Y7.65838
X141.05591 Y7.50311
X140.82294 Y7.29333
X140.52213 Y7.08493
X140.38218 Y7.01360
X140.19127 Y6.92862
X139.89305 Y6.83174
X139.68868 Y6.78831
X139.37687 Y6.75554
X139.16793 Y6.75554
X138.85610 Y6.78831
X138.50004 Y6.87238
X138.15081 Y7.02039
X137.59260 Y7.57385
X136.98734 Y7.76585
X136.75280 Y7.81419
X136.36852 Y7.86168
X135.96164 Y7.86991
Z-0.60000
X135.40784 Y7.80807
Z-2.50000 F300.00000
F600.00000
G01 X135.00175 Y7.71139
X134.54031 Y7.54766
X134.48948 Y7.54766
X130.98948 Y7.54766
X130.93866 Y7.54766
X130.46272 Y7.58152
X130.12579 Y7.64573
G04 P0 ( dwell for no time -- G64 should not smooth over this point )
G00 Z5.00000 ( retract )

G00 X130.12551 Y7.64578 ( rapid move to begin. )
G01 Z-2.50000 F300.00000 ( plunge. )
G04 P0 ( dwell for no time -- G64 should not smooth over this point )
F600.00000
G01 X130.12551 Y7.64578
X130.46272 Y7.58152
X130.93866 Y7.54766
X130.98948 Y7.54766
X134.48948 Y7.54766
X134.54031 Y7.54766
X134.83987 Y7.66059
X135.24597 Y7.77482
X135.79700 Y7.85945
X136.04266 Y7.87197
X136.36852 Y7.86168
X136.75280 Y7.81419
X136.98734 Y7.76585
X137.59260 Y7.57385
X138.15312 Y7.01813
X138.29971 Y6.64952
X138.34027 Y6.49283
X138.38622 Y6.19296
X138.38731 Y5.89080
X138.07753 Y5.61056
X137.84944 Y5.43327
X137.51091 Y5.21010
X137.20860 Y5.05115
X136.93166 Y4.93893
X136.67170 Y4.86268
X136.42247 Y4.81600
X136.11785 Y4.79354
X135.81051 Y4.81112
X135.55669 Y4.85488
X135.12730 Y4.98996
X134.85019 Y5.11831
X132.72851 Y5.11918
X129.22851 Y5.12061
X127.10684 Y5.12148
X126.78251 Y5.17005
X126.56529 Y5.23611
X124.97896 Y5.89077
X124.01785 Y6.86623
Z-0.60000
X123.84106 Y7.13601
Z-2.50000 F300.00000
F600.00000
G01 X123.71993 Y7.43583
X123.66242 Y7.72516
X123.65242 Y7.90078
X123.65242 Y11.05281
X123.48369 Y11.25843
X123.34508 Y11.51776
X123.25971 Y11.79914
X123.23090 Y12.09180
X123.23090 Y12.59980
X123.25971 Y12.89243
X123.28650 Y12.98080
X125.05836 Y12.98080
X125.26489 Y12.95878
X125.87390 Y12.95779
X126.09783 Y12.92276
X126.32178 Y12.81771
X126.44144 Y12.59980
X126.50207 Y12.45342
X126.51893 Y11.80194
X126.46440 Y11.26991
X126.67090 Y10.76544
X126.95239 Y10.26480
X126.95239 Y8.58419
X127.89076 Y7.64578
X130.12551 Y7.64578
G04 P0 ( dwell for no time -- G64 should not smooth over this point )
G00 Z5.00000 ( retract )

G00 X124.97888 Y5.89080 ( rapid move to begin. )
G01 Z-2.50000 F300.00000 ( plunge. )
G04 P0 ( dwell for no time -- G64 should not smooth over this point )
F600.00000
G01 X124.97888 Y5.89080
X126.56529 Y5.23611
X126.78251 Y5.17005
X127.10684 Y5.12148
X129.22851 Y5.12061
X132.72851 Y5.11918
X134.85019 Y5.11831
X135.28917 Y4.93002
X135.64863 Y4.83594
X135.89468 Y4.80253
X136.11785 Y4.79354
X136.50980 Y4.82941
X136.76979 Y4.88813
X137.04673 Y4.98168
X137.51091 Y5.21010
X137.84944 Y5.43327
X138.07753 Y5.61056
X138.38729 Y5.89080
X141.26742 Y5.89080
X141.91740 Y6.32410
X141.91740 Y7.52138
X141.79406 Y7.65838
X141.60984 Y7.91193
X141.49490 Y8.11340
X141.49488 Y10.38563
X141.60984 Y10.58713
X141.79406 Y10.84067
X141.93386 Y10.99594
X142.16683 Y11.20572
X142.33587 Y11.32856
X142.60760 Y11.48545
X142.79851 Y11.57044
X143.09673 Y11.66732
X143.30110 Y11.71075
X143.61293 Y11.74354
X143.82187 Y11.74354
X144.13368 Y11.71075
X144.48974 Y11.62668
Z-0.60000
X144.96711 Y11.41413
Z-2.50000 F300.00000
F600.00000
G01 X145.38989 Y11.10697
X145.64071 Y10.84067
X145.82494 Y10.58713
X146.00076 Y10.26620
X146.05707 Y10.11954
X146.12164 Y9.92081
X146.18681 Y9.61413
X146.21686 Y9.24952
X146.20866 Y9.09272
X146.18681 Y8.88492
X146.12164 Y8.57824
X146.00076 Y8.23283
X145.92944 Y8.09288
X145.82494 Y7.91193
X145.64071 Y7.65838
X145.51740 Y7.52143
X145.51011 Y5.21325
X145.44679 Y4.86606
X145.31722 Y4.53853
X145.12555 Y4.24150
X144.87958 Y3.98783
X144.71582 Y3.86309
X143.68784 Y3.17777
X142.63381 Y2.85862
X142.24288 Y2.76901
X141.81240 Y2.73429
X133.71989 Y2.73429
X130.21989 Y2.73429
X122.12738 Y2.73429
X121.75405 Y2.76055
X121.47777 Y2.81265
X121.18656 Y2.89804
X120.49474 Y3.17780
X115.66676 Y8.00580
X114.98182 Y8.00580
X114.45117 Y8.11058
X114.17174 Y8.13908
Z-0.60000
X113.80354 Y8.14992
Z-2.50000 F300.00000
F600.00000
G01 X113.35356 Y8.11822
X113.06854 Y8.07446
X112.77037 Y8.00580
X108.15740 Y8.00580
X107.95247 Y8.01868
X107.66276 Y8.07631
X107.28387 Y8.23334
X107.03914 Y8.39681
X106.88458 Y8.53298
X105.34077 Y10.07679
X105.13828 Y10.11774
X104.72739 Y10.26480
X104.44590 Y10.76544
X104.23940 Y11.26991
X104.29393 Y11.80194
X104.27707 Y12.45342
X104.21644 Y12.59980
X104.09678 Y12.81771
X103.87283 Y12.92276
X103.64890 Y12.95779
X103.03989 Y12.95878
X102.83336 Y12.98080
X101.06153 Y12.98080
X101.03471 Y13.06914
X101.00590 Y13.36180
X101.00590 Y13.86980
X101.03471 Y14.16243
X101.06150 Y14.25080
X102.83343 Y14.25080
X103.03973 Y14.27280
X103.64890 Y14.27379
X103.78535 Y14.28679
X103.92180 Y14.32581
X104.62060 Y14.31201
X105.14524 Y13.85121
X105.53231 Y13.61580
X106.02675 Y13.61580
X106.14087 Y13.54755
X106.35560 Y13.39406
X106.79700 Y13.00386
X107.17285 Y12.73719
X107.61158 Y12.35157
X108.54287 Y11.96584
X108.90289 Y11.60580
X112.77022 Y11.60580
X113.04086 Y11.54247
X113.33621 Y11.49556
X113.78878 Y11.46300
X114.40857 Y11.49556
X114.70384 Y11.54245
X114.97451 Y11.60580
X116.41240 Y11.60580
X116.61799 Y11.59279
X116.96325 Y11.51814
X117.28588 Y11.37821
X117.53061 Y11.21474
X117.67628 Y11.08665
X117.86327 Y10.82805
X118.22500 Y10.44365
X118.44570 Y10.24469
X118.70793 Y10.05581
X122.87292 Y5.89080
X124.97888 Y5.89080
G04 P0 ( dwell for no time -- G64 should not smooth over this point )
G00 Z5.00000 ( retract )

G00 X138.35960 Y13.23582 ( rapid move to begin. )
G01 Z-2.50000 F300.00000 ( plunge. )
G04 P0 ( dwell for no time -- G64 should not smooth over this point )
F600.00000
G01 X138.35960 Y13.23582
X138.14144 Y13.48489
X137.90573 Y13.72190
X137.57286 Y14.00719
X137.40563 Y14.12870
X137.03392 Y14.34648
X136.80339 Y14.44531
X136.58815 Y14.51255
X136.21510 Y14.57181
X136.01378 Y14.57361
X135.81244 Y14.55423
X135.60660 Y14.51255
X135.39136 Y14.44531
X135.16085 Y14.34648
X134.98529 Y14.25080
X134.03449 Y14.25080
X133.69167 Y14.08062
X133.41318 Y13.98903
X133.04010 Y13.92977
X132.80467 Y13.92977
X132.59886 Y13.95347
X132.38362 Y14.00193
X132.15311 Y14.08062
X131.90008 Y14.19896
X131.61415 Y14.37287
X131.44692 Y14.49439
X131.11405 Y14.77968
X130.87834 Y15.01669
X130.66000 Y15.26492
X130.71326 Y15.51549
X130.85573 Y15.88892
X130.37933 Y16.37226
X130.36239 Y17.52705
X130.50198 Y17.77266
X130.60267 Y18.01828
X130.55893 Y18.26977
X130.43178 Y18.74566
X130.38263 Y19.01919
Z-0.60000
X130.36363 Y19.28356
Z-2.50000 F300.00000
F600.00000
G01 X130.37239 Y19.54525
X130.40912 Y19.80962
X130.55893 Y20.39181
X130.59393 Y20.59026
X130.66871 Y21.42348
X131.05329 Y21.55884
X131.37196 Y21.61817
X131.85281 Y21.61817
X132.17148 Y21.55884
X132.46967 Y21.46194
X132.62245 Y21.39392
X132.89398 Y21.23715
X133.15136 Y21.04002
X133.37434 Y20.80461
X133.55852 Y20.55114
X133.64216 Y20.40631
X133.76985 Y20.11955
X133.82151 Y19.96049
X133.88664 Y19.65407
X133.91237 Y19.33078
X133.88664 Y19.00751
X133.82151 Y18.70108
X133.76985 Y18.54203
X133.64216 Y18.25526
X133.45024 Y17.96139
X134.20690 Y17.19029
X134.38369 Y16.92052
X134.49629 Y16.64881
X134.52171 Y16.53578
X143.61454 Y16.53578
X147.11454 Y16.53578
X156.20737 Y16.53578
X156.41174 Y16.79644
X156.63904 Y16.98298
X156.89838 Y17.12158
X157.17976 Y17.20695
X157.47242 Y17.23578
Z-0.60000
X159.17239 Y17.23578
Z-2.50000 F300.00000
F600.00000
G01 X159.23269 Y17.22987
X159.51430 Y16.90805
X159.64861 Y16.71267
X159.75852 Y16.51729
X159.84399 Y16.32192
X159.90505 Y16.12654
X159.94168 Y15.93116
X159.95389 Y15.73579
X159.95389 Y14.03582
X159.94033 Y13.83000
X159.89969 Y13.62421
X159.83195 Y13.41839
X159.73711 Y13.21260
X159.40746 Y13.14250
X158.85494 Y13.10196
X158.55143 Y13.02591
X158.24795 Y12.89919
X157.94445 Y12.72177
X157.70843 Y12.66358
X157.37440 Y12.54544
X157.17976 Y12.56462
X156.89838 Y12.64999
X156.63904 Y12.78860
X156.41174 Y12.97514
X156.20737 Y13.23582
X149.03349 Y13.23582
X145.53349 Y13.23582
X138.35960 Y13.23582
G04 P0 ( dwell for no time -- G64 should not smooth over this point )
G00 Z5.00000 ( retract )

G00 X137.89608 Y30.87269 ( rapid move to begin. )
G01 Z-2.50000 F300.00000 ( plunge. )
G04 P0 ( dwell for no time -- G64 should not smooth over this point )
F600.00000
G01 X137.89608 Y30.87269
X138.93569 Y29.83307
X141.41056 Y27.35819
X142.45017 Y26.31857
X142.67796 Y26.05746
X142.86396 Y25.73216
X143.03900 Y25.33489
X144.45016 Y22.13198
X144.62520 Y21.73471
X144.96711 Y21.57413
X145.38989 Y21.26697
X145.64071 Y21.00067
X145.82494 Y20.74713
X145.92944 Y20.56618
X146.05707 Y20.27954
X146.12164 Y20.08081
X146.18681 Y19.77413
X146.21686 Y19.40952
X146.20866 Y19.25272
X146.18681 Y19.04492
X146.12164 Y18.73824
X146.00076 Y18.39283
X145.92944 Y18.25288
X145.82494 Y18.07193
X145.64071 Y17.81838
X145.50091 Y17.66311
X145.26794 Y17.45333
X144.96713 Y17.24493
X144.63627 Y17.08862
X144.33805 Y16.99174
X144.13368 Y16.94831
X143.82187 Y16.91554
X143.61293 Y16.91554
X143.30110 Y16.94831
X142.94504 Y17.03238
X142.60755 Y17.17363
X142.33597 Y17.33042
X142.04489 Y17.55209
Z-0.60000
X141.79406 Y17.81838
Z-2.50000 F300.00000
F600.00000
G01 X141.60984 Y18.07193
X141.49490 Y18.27340
X141.37994 Y18.07193
X141.19571 Y17.81838
X141.05591 Y17.66311
X140.82294 Y17.45333
X140.65391 Y17.33050
X140.38218 Y17.17360
X140.19127 Y17.08862
X139.89305 Y16.99174
X139.68868 Y16.94831
X139.37687 Y16.91554
X139.16793 Y16.91554
X138.85610 Y16.94831
X138.50004 Y17.03238
X138.35343 Y17.08864
X138.16255 Y17.17363
X137.89097 Y17.33042
X137.59989 Y17.55209
X137.48886 Y17.66311
X137.34906 Y17.81838
X137.16484 Y18.07193
X136.98902 Y18.39285
X136.93271 Y18.53951
X136.86814 Y18.73824
X136.80296 Y19.04492
X136.77291 Y19.40952
X136.78112 Y19.56633
X136.80296 Y19.77413
X136.86814 Y20.08081
X136.98902 Y20.42620
X137.06034 Y20.56618
X137.16484 Y20.74713
X137.34906 Y21.00067
X137.48886 Y21.15594
X137.72183 Y21.36572
X137.89087 Y21.48856
Z-0.60000
X138.11165 Y21.61949
Z-2.50000 F300.00000
F600.00000
G01 X139.09826 Y24.57925
X137.83088 Y25.84664
X137.72112 Y26.17514
X137.60982 Y26.44473
X137.39760 Y26.86028
X137.16258 Y27.22233
X136.90301 Y27.54326
X136.75915 Y27.69484
X136.45508 Y27.96825
X136.11493 Y28.21516
X135.72803 Y28.43868
X135.35209 Y28.60919
X132.75265 Y31.20865
X132.54369 Y31.31422
X132.28260 Y31.65818
X132.17402 Y31.82542
X131.93104 Y32.29570
X131.78588 Y32.74111
X131.72977 Y33.09133
X131.72101 Y33.34302
X131.73894 Y33.59735
X131.83068 Y34.02770
X131.99108 Y34.44032
X132.07628 Y34.60753
X132.28265 Y34.94344
X132.57689 Y35.32836
X132.81846 Y35.59534
X133.16281 Y35.58817
X133.48148 Y35.52884
X133.77968 Y35.43194
X133.93246 Y35.36392
X134.20398 Y35.20715
X134.34922 Y35.10080
X135.47609 Y35.10080
X135.77299 Y35.27598
X136.05303 Y35.39168
X136.34757 Y35.46267
X136.65940 Y35.49546
X136.80540 Y35.49546
X137.11721 Y35.46267
X137.41178 Y35.39168
X137.69186 Y35.27593
X137.98861 Y35.10082
X138.01139 Y32.24693
X137.62971 Y31.29796
X137.51805 Y31.25072
X137.89608 Y30.87269
G04 P0 ( dwell for no time -- G64 should not smooth over this point )
G00 Z5.00000 ( retract )

G00 X149.80045 Y32.56080 ( rapid move to begin. )
G01 Z-2.50000 F300.00000 ( plunge. )
G04 P0 ( dwell for no time -- G64 should not smooth over this point )
F600.00000
G01 X149.80045 Y32.56080
X150.19493 Y32.27307
X150.53674 Y32.09852
X151.24350 Y31.81965
X151.44169 Y31.77929
X151.63989 Y31.76674
X151.83809 Y31.78203
X152.30166 Y31.86466
X152.50816 Y31.93814
X152.71469 Y32.04033
X153.20928 Y32.37378
X153.36450 Y32.61851
X153.55975 Y32.98874
X155.14458 Y34.57357
X155.29879 Y34.70948
X155.54384 Y34.87321
X155.86665 Y35.01319
X156.21184 Y35.08779
X156.82322 Y35.10080
X157.05296 Y35.27509
X157.31844 Y35.42244
X157.47651 Y35.49026
X157.76599 Y35.58106
X158.16030 Y35.64446
X158.47437 Y35.64306
X158.64546 Y35.62564
X158.94236 Y35.56460
X159.23538 Y35.45784
X159.43772 Y35.13303
X159.56822 Y34.88401
X159.73192 Y34.50067
X159.84404 Y34.14284
X159.93622 Y33.62988
X159.95283 Y33.29742
X159.93568 Y32.96659
X159.84290 Y32.45432
X159.72608 Y32.08518
X159.55207 Y31.68465
Z-0.60000
X159.23540 Y31.14012
Z-2.50000 F300.00000
F600.00000
G01 X158.87879 Y31.02052
X158.71034 Y30.98590
X158.39850 Y30.95275
X158.17041 Y30.95851
X157.99931 Y30.97594
X157.70241 Y31.03697
X157.53833 Y31.08844
X157.25923 Y31.20817
X157.01748 Y31.35526
X155.15017 Y29.48798
X154.99561 Y29.35181
X154.69952 Y29.16085
X154.42764 Y29.04821
X154.08235 Y28.97371
X153.87740 Y28.96080
X152.76990 Y28.96080
X149.26990 Y28.96080
X148.16240 Y28.96080
X147.95747 Y28.97368
X147.66776 Y29.03131
X147.28887 Y29.18834
X146.99867 Y29.38912
X145.62240 Y30.75519
X144.24608 Y29.38912
X143.95639 Y29.18859
X143.63264 Y29.04821
X143.28735 Y28.97371
X143.08240 Y28.96080
X140.54240 Y28.96080
X140.33747 Y28.97368
X140.04776 Y29.03131
X139.72074 Y29.16063
X139.38381 Y29.38491
X137.90098 Y30.86728
X137.69994 Y31.15727
X137.63245 Y31.30510
X138.01139 Y32.24693
Z-0.60000
X137.98861 Y35.10080
Z-2.50000 F300.00000
F600.00000
G01 X138.31299 Y35.29597
X138.59303 Y35.41167
X138.88757 Y35.48266
X139.19940 Y35.51545
X139.34540 Y35.51545
X139.65721 Y35.48266
X139.80004 Y35.45231
X139.95178 Y35.41167
X140.23186 Y35.29592
X140.50313 Y35.13930
X140.74344 Y34.95459
X140.95226 Y34.73496
X141.13646 Y34.48142
X141.30844 Y34.13273
X141.26696 Y33.82620
X141.02162 Y33.21033
X140.91728 Y32.86303
X140.81685 Y32.44149
X141.03422 Y31.94825
X141.24204 Y31.80248
X141.44987 Y31.69651
X141.67438 Y31.60352
X141.86625 Y31.54391
X142.05815 Y31.52405
X142.59719 Y31.52405
X142.76030 Y31.53840
X142.99241 Y31.69321
X143.29690 Y31.97490
X143.54306 Y32.31487
X143.63917 Y32.49595
X143.86244 Y33.03504
X143.94549 Y33.28838
X143.89426 Y33.56661
X143.66863 Y34.50796
X143.86043 Y34.77461
X144.08334 Y35.00994
X144.47239 Y35.29262
X144.76518 Y35.43199
X145.06330 Y35.52884
X145.38196 Y35.58817
X145.86281 Y35.58817
X146.18148 Y35.52884
X146.47968 Y35.43194
X146.63246 Y35.36392
X146.90398 Y35.20715
X147.16136 Y35.01002
X147.27244 Y34.89892
X147.38435 Y34.77461
X147.56852 Y34.52114
X147.72354 Y34.23628
X147.77985 Y34.08955
X147.83152 Y33.93049
X147.90274 Y33.56600
X148.90792 Y32.56080
X149.80045 Y32.56080
G04 P0 ( dwell for no time -- G64 should not smooth over this point )
G00 Z5.00000 ( retract )

G00 X145.97480 Y41.19878 ( rapid move to begin. )
G01 Z-2.50000 F300.00000 ( plunge. )
G04 P0 ( dwell for no time -- G64 should not smooth over this point )
F600.00000
G01 X145.97480 Y41.19878
X146.60741 Y41.45735
X146.89893 Y41.54917
X147.17536 Y41.60731
X147.44475 Y41.63685
X149.28049 Y41.63759
X152.78049 Y41.63901
X154.61624 Y41.63975
X154.94448 Y41.60729
X155.22078 Y41.54917
X155.51199 Y41.45745
X156.14491 Y41.19883
X156.78677 Y40.55695
X156.89838 Y40.61658
X157.17976 Y40.70195
X157.47242 Y40.73078
X159.23269 Y40.72487
X159.51430 Y40.40305
X159.64861 Y40.20767
X159.75852 Y40.01229
X159.84399 Y39.81692
X159.90505 Y39.62154
X159.94168 Y39.42616
X159.95389 Y39.23079
X159.95389 Y37.53082
X159.94168 Y37.33544
X159.90505 Y37.14006
X159.84399 Y36.94468
X159.75852 Y36.74931
X159.64861 Y36.55393
X159.51430 Y36.35855
X159.23271 Y36.03676
X157.47242 Y36.03082
X157.17976 Y36.05962
X156.89838 Y36.14499
X156.63904 Y36.28360
X156.41174 Y36.47014
X156.31692 Y36.58568
Z-0.60000
X156.21247 Y36.59368
Z-2.50000 F300.00000
F600.00000
G01 X155.86650 Y36.66841
X155.54387 Y36.80834
X155.29914 Y36.97181
X155.14458 Y37.10798
X153.76676 Y38.48580
X152.80986 Y38.48580
X149.30986 Y38.48580
X148.35295 Y38.48580
X147.98275 Y38.11562
X147.91150 Y37.75108
X147.80350 Y37.44529
X147.73215 Y37.30526
X147.64851 Y37.16043
X147.46433 Y36.90697
X147.24140 Y36.67161
X146.98412 Y36.47451
X146.71239 Y36.31761
X146.55959 Y36.24959
X146.26147 Y36.15274
X145.94280 Y36.09340
X145.46195 Y36.09340
X145.14328 Y36.15274
X144.84509 Y36.24964
X144.69230 Y36.31766
X144.42078 Y36.47443
X144.27552 Y36.58080
X143.06871 Y36.58080
X142.77178 Y36.40560
X142.49172 Y36.28990
X142.34004 Y36.24926
X142.19721 Y36.21891
X141.88540 Y36.18614
X141.73940 Y36.18614
X141.42757 Y36.21891
X141.13298 Y36.28992
X140.98632 Y36.34624
X140.85292 Y36.40565
Z-0.60000
X140.58164 Y36.56226
Z-2.50000 F300.00000
F600.00000
G01 X140.34133 Y36.74697
X140.23021 Y36.85810
X140.13252 Y36.96660
X139.94832 Y37.22015
X139.87530 Y37.34661
X139.74774 Y37.63308
X139.66196 Y37.92363
X139.61390 Y38.38078
X139.66194 Y38.83792
X139.74774 Y39.12850
X139.87530 Y39.41496
X139.94832 Y39.54143
X140.13252 Y39.79497
X140.23021 Y39.90348
X140.34126 Y40.01455
X140.58149 Y40.19924
X140.85299 Y40.35598
X141.13303 Y40.47168
X141.42757 Y40.54267
X141.73940 Y40.57546
X141.88540 Y40.57546
X142.19721 Y40.54267
X142.49178 Y40.47168
X142.77186 Y40.35593
X143.06861 Y40.18080
X144.27549 Y40.18080
X144.55238 Y40.37262
X144.84516 Y40.51199
X145.14328 Y40.60884
X145.44082 Y40.66482
X145.97480 Y41.19878
G04 P0 ( dwell for no time -- G64 should not smooth over this point )
G00 Z5.00000 ( retract )

G00 X127.02216 Y39.12080 ( rapid move to begin. )
G01 Z-2.50000 F300.00000 ( plunge. )
G04 P0 ( dwell for no time -- G64 should not smooth over this point )
F600.00000
G01 X127.02216 Y39.12080
X117.80758 Y39.12080
X114.30758 Y39.12080
X105.09299 Y39.12080
X104.87740 Y38.90521
X104.87740 Y38.12518
X105.00071 Y37.98819
X105.18494 Y37.73465
X105.28944 Y37.55370
X105.36076 Y37.41372
X105.48164 Y37.06833
X105.54681 Y36.76165
X105.56866 Y36.55385
X105.57686 Y36.39704
X105.54681 Y36.03244
X105.48164 Y35.72576
X105.41707 Y35.52703
X105.36076 Y35.38035
X105.18494 Y35.05945
X105.00071 Y34.80590
X104.86091 Y34.65063
X104.62794 Y34.44085
X104.45891 Y34.31802
X104.32713 Y34.23245
X103.99627 Y34.07614
X103.69805 Y33.97926
X103.49368 Y33.93583
X103.18187 Y33.90306
X102.97293 Y33.90306
X102.66110 Y33.93583
X102.30504 Y34.01990
X102.15843 Y34.07616
X101.96755 Y34.16115
X101.69597 Y34.31794
X101.52691 Y34.44078
X101.40489 Y34.53961
X101.15406 Y34.80590
X100.96984 Y35.05945
Z-0.60000
X100.79402 Y35.38037
Z-2.50000 F300.00000
F600.00000
G01 X100.67314 Y35.72576
X100.60796 Y36.03244
X100.57791 Y36.39704
X100.58612 Y36.55385
X100.60796 Y36.76165
X100.67314 Y37.06833
X100.79402 Y37.41372
X100.86534 Y37.55370
X100.96984 Y37.73465
X101.15406 Y37.98819
X101.27740 Y38.12518
X101.28566 Y39.81506
X101.33217 Y40.08593
X101.39694 Y40.29583
X101.56788 Y40.63132
X101.80458 Y40.92357
X102.07977 Y41.19875
X103.57473 Y41.81552
X103.79795 Y41.88658
X104.06851 Y41.94053
X104.34740 Y41.95979
X115.61121 Y41.95902
X119.11121 Y41.95878
X130.37501 Y41.95801
X130.64014 Y41.93180
X131.01595 Y41.83665
X132.56987 Y41.19880
X133.10383 Y40.66484
X133.40147 Y40.60884
X133.69967 Y40.51194
X133.85245 Y40.44392
X134.12397 Y40.28715
X134.26921 Y40.18080
X135.47609 Y40.18080
X135.77299 Y40.35598
X136.05303 Y40.47168
X136.34757 Y40.54267
Z-0.60000
X136.65940 Y40.57546
Z-2.50000 F300.00000
F600.00000
G01 X136.80540 Y40.57546
X137.11721 Y40.54267
X137.41178 Y40.47168
X137.69186 Y40.35593
X137.96313 Y40.19931
X138.20344 Y40.01460
X138.31457 Y39.90348
X138.41226 Y39.79497
X138.59646 Y39.54143
X138.66948 Y39.41496
X138.79704 Y39.12850
X138.84218 Y38.98961
X138.90740 Y38.68283
X138.93087 Y38.38078
X138.88282 Y37.92363
X138.79704 Y37.63308
X138.66948 Y37.34661
X138.59646 Y37.22015
X138.41226 Y36.96660
X138.20349 Y36.74702
X137.96329 Y36.56234
X137.69178 Y36.40560
X137.55836 Y36.34618
X137.41172 Y36.28990
X137.11721 Y36.21891
X136.80540 Y36.18614
X136.65940 Y36.18614
X136.34757 Y36.21891
X136.20474 Y36.24926
X136.05298 Y36.28992
X135.77292 Y36.40565
X135.47612 Y36.58080
X134.26929 Y36.58080
X133.99235 Y36.38893
X133.69959 Y36.24959
X133.40147 Y36.15274
X133.19901 Y36.11182
X132.81740 Y35.73023
X132.81740 Y35.59417
X132.44145 Y35.16112
X132.28265 Y34.94344
X132.07628 Y34.60753
X131.93104 Y34.30588
X131.83068 Y34.02770
X131.76543 Y33.76458
X131.72101 Y33.34302
X131.72977 Y33.09133
X131.76543 Y32.83700
X131.83068 Y32.57388
X131.93104 Y32.29570
X132.17402 Y31.82542
X132.28260 Y31.65818
X132.54369 Y31.31422
X132.75265 Y31.20865
X135.35209 Y28.60919
X135.72803 Y28.43868
X136.11493 Y28.21516
X136.29006 Y28.09479
X136.61449 Y27.83213
X136.90301 Y27.54326
X137.16258 Y27.22233
X137.39760 Y26.86028
X137.51439 Y26.64481
X137.72112 Y26.17514
X137.83088 Y25.84669
X137.78790 Y25.64450
X137.72333 Y25.44577
X137.59570 Y25.15914
X137.49120 Y24.97819
X137.30697 Y24.72464
X137.16717 Y24.56937
X136.93420 Y24.35959
X136.63339 Y24.15119
X136.30253 Y23.99488
X136.00431 Y23.89800
X135.79994 Y23.85457
X135.48813 Y23.82180
X135.27919 Y23.82180
X134.96736 Y23.85457
X134.61130 Y23.93864
X134.27381 Y24.07989
X134.00223 Y24.23668
X133.83317 Y24.35952
X133.71115 Y24.45835
X133.46032 Y24.72464
X133.27610 Y24.97819
X133.10028 Y25.29911
X132.97940 Y25.64450
X132.91422 Y25.95118
X132.88674 Y26.26706
X129.74458 Y29.40924
X129.60841 Y29.56380
X129.44494 Y29.80853
X129.30501 Y30.13116
X129.23028 Y30.47713
X129.21740 Y31.00477
X129.52116 Y31.40134
X129.66851 Y31.62057
X129.78466 Y31.83979
X129.86963 Y32.05899
X129.92342 Y32.27822
X130.02289 Y32.84909
X130.04298 Y33.11612
X130.02939 Y33.68698
X130.00257 Y33.92777
X129.91634 Y34.36133
X129.81524 Y34.69158
X129.64341 Y35.02185
X129.58461 Y35.23158
X129.50430 Y35.44131
X129.27897 Y35.86077
X129.44024 Y36.16828
X129.60143 Y36.62172
X130.33467 Y37.78824
X130.45268 Y37.99731
X130.59784 Y38.34074
X130.39975 Y38.78850
X130.21377 Y39.12840
X129.96820 Y39.49596
X129.80110 Y39.71062
X129.55812 Y39.80599
X129.31514 Y39.86167
X128.85993 Y39.91481
X128.66175 Y39.90229
X128.46356 Y39.86193
X127.75683 Y39.58314
X127.47052 Y39.44140
X127.18421 Y39.25342
X127.02216 Y39.12080
G04 P0 ( dwell for no time -- G64 should not smooth over this point )
G00 Z5.00000 ( retract )

G00 X88.99033 Y27.32052 ( rapid move to begin. )
G01 Z-2.50000 F300.00000 ( plunge. )
G04 P0 ( dwell for no time -- G64 should not smooth over this point )
F600.00000
G01 X88.99033 Y27.32052
X88.69892 Y27.44414
X88.55739 Y27.52271
X88.30842 Y27.69599
X88.18558 Y27.80142
X87.97634 Y28.02154
X87.87728 Y28.14953
X87.68305 Y28.47582
X87.41243 Y28.47582
X87.20804 Y28.21514
X86.98074 Y28.02860
X86.72140 Y27.88999
X86.44002 Y27.80462
X86.14739 Y27.77582
X84.38707 Y27.78174
X84.10551 Y28.10353
X83.97117 Y28.29893
X83.86129 Y28.49431
X83.77579 Y28.68968
X83.71475 Y28.88506
X83.67810 Y29.08044
X83.66591 Y29.27582
X83.66591 Y30.97579
X83.70419 Y31.32179
X83.81910 Y31.66781
X84.26220 Y31.59199
X84.82303 Y31.44089
X85.08275 Y31.40561
X85.31871 Y31.39605
X85.73243 Y31.43385
X86.00698 Y31.49580
X86.30852 Y31.58602
X86.67705 Y31.65470
X86.93136 Y31.54624
X87.18566 Y31.39580
X89.10740 Y31.39580
X89.36552 Y31.38267
X89.68586 Y31.40258
Z-0.60000
X90.01715 Y31.39222
Z-2.50000 F300.00000
F600.00000
G01 X90.40872 Y31.34398
X90.65078 Y31.29410
X91.21392 Y31.11828
X91.35992 Y31.11828
X91.78553 Y31.27078
X92.03874 Y31.33883
X92.39574 Y31.40647
X92.62713 Y31.33845
X93.00102 Y31.19631
X93.44344 Y30.95796
X93.69164 Y30.77878
X94.02878 Y30.45890
X94.29787 Y30.10716
X94.50963 Y29.72438
X94.49969 Y29.33566
X94.66017 Y29.03642
X94.91356 Y28.68072
X95.10853 Y28.46896
X95.32580 Y28.27650
X95.71379 Y28.01397
X96.13713 Y27.81016
X96.54848 Y27.67351
X96.81158 Y27.60937
X97.28856 Y27.53302
X97.40520 Y27.41638
X97.44673 Y26.93208
X97.49740 Y26.67531
X97.62341 Y26.22322
X97.67795 Y25.83998
X97.67853 Y23.22804
X97.67932 Y19.72804
X97.67990 Y17.11610
X97.77210 Y16.93952
X97.83797 Y16.76294
X97.87746 Y16.58636
X97.89065 Y15.90180
X97.86461 Y15.65357
Z-0.60000
X97.59903 Y15.52080
Z-2.50000 F300.00000
F600.00000
G01 X95.85575 Y15.52080
X95.74018 Y15.56855
X95.62476 Y15.72306
X95.53358 Y15.90180
X95.32314 Y16.40980
X95.24729 Y16.63017
X95.19327 Y16.87236
X95.16106 Y17.13639
X95.15070 Y17.42224
X95.07742 Y17.59913
X95.07742 Y17.99494
X95.14346 Y18.62572
X95.13469 Y19.09306
X95.07742 Y19.55658
X95.07742 Y21.97504
X95.20051 Y22.38071
X95.33259 Y22.71421
X95.41536 Y23.04768
X95.46461 Y23.39254
X95.45664 Y24.18263
X95.41295 Y24.57483
X95.29035 Y25.16551
X95.06086 Y25.42764
X94.79759 Y25.65598
X94.65044 Y25.83381
X94.48852 Y25.99685
X94.31184 Y26.14514
X94.12037 Y26.27864
X93.48029 Y26.67442
X92.87953 Y27.27518
X92.67696 Y27.28339
X92.52114 Y27.30810
X91.82124 Y27.91968
X91.43986 Y28.20343
X91.28306 Y28.22855
X90.64936 Y28.04620
X90.32924 Y27.91785
X89.79506 Y27.65524
X88.99033 Y27.32052
G04 P0 ( dwell for no time -- G64 should not smooth over this point )
G00 Z5.00000 ( retract )

G00 X84.38437 Y34.82645 ( rapid move to begin. )
G01 Z-2.50000 F300.00000 ( plunge. )
G04 P0 ( dwell for no time -- G64 should not smooth over this point )
F600.00000
G01 X84.38437 Y34.82645
X84.74099 Y34.94606
X84.90944 Y34.98068
X85.22128 Y35.01383
X85.62046 Y34.99064
X85.91736 Y34.92960
X86.08145 Y34.87814
X86.36054 Y34.75841
X86.51091 Y34.67494
X86.76001 Y34.50153
X86.96057 Y34.31578
X92.91740 Y34.31578
X93.09436 Y34.30557
X93.38230 Y34.24822
X93.68212 Y34.12709
X93.97463 Y33.93166
X96.13060 Y31.78597
X96.40523 Y31.76669
X96.70253 Y31.70558
X96.85697 Y31.65712
X97.13583 Y31.53743
X97.27736 Y31.45887
X97.60185 Y31.22077
X97.66918 Y31.22077
X97.98564 Y31.47706
X98.11739 Y31.56260
X98.41018 Y31.70197
X98.70830 Y31.79882
X98.87187 Y31.83360
X99.02696 Y31.85816
X99.35102 Y31.86639
X99.50781 Y31.85816
X99.82648 Y31.79882
X100.12468 Y31.70192
X100.27746 Y31.63390
X100.54898 Y31.47713
X100.86557 Y31.22077
X105.57898 Y31.22077
Z-0.60000
X109.07898 Y31.22077
Z-2.50000 F300.00000
F600.00000
G01 X113.79239 Y31.22077
X113.96935 Y31.21056
X114.25729 Y31.15321
X114.55711 Y31.03207
X114.82688 Y30.85529
X114.95909 Y30.73748
X120.11910 Y25.57750
X120.23690 Y25.44529
X120.39982 Y25.20145
X120.52629 Y24.90381
X120.59217 Y24.58776
X120.60239 Y24.41080
X120.60239 Y17.44874
X120.77109 Y17.24315
X120.90970 Y16.98382
X120.99507 Y16.70243
X121.02390 Y16.40980
X121.02390 Y15.90180
X120.99507 Y15.60914
X120.96827 Y15.52080
X118.08075 Y15.52080
X117.96518 Y15.56855
X117.87044 Y15.69090
X117.79137 Y15.82893
X117.78913 Y16.40980
X117.80231 Y16.58636
X117.84181 Y16.76294
X117.90767 Y16.93952
X117.99990 Y17.11610
X117.99990 Y24.01619
X117.55761 Y25.08144
